; generated by Slic3r 1.1.6 on 2014-07-23 at 19:15:29

; perimeters extrusion width = 0.50mm
; infill extrusion width = 0.50mm
; solid infill extrusion width = 0.50mm
; top infill extrusion width = 0.50mm

G21 ; set units to millimeters
M107
M190 S80 ; wait for bed temperature to be reached
M104 S185 ; set temperature
G28 ; home all axes

M109 S185 ; wait for temperature to be reached
G90 ; use absolute coordinates
G92 E0
M82 ; use absolute distances for extrusion
G1 F900.000 E-0.70000
G92 E0
G1 Z0.200 F9000.000
G1 X104.125 Y126.465 F9000.000
G1 E0.70000 F900.000
G1 X106.949 Y124.241 E0.74068 F1500.000
G1 X110.193 Y122.694 E0.78136
G1 X113.699 Y121.900 E0.82204
G1 X115.500 Y121.800 E0.84246
G1 X129.500 Y121.800 E1.00090
G1 X133.072 Y122.199 E1.04159
G1 X136.469 Y123.375 E1.08227
G1 X139.522 Y125.272 E1.12295
G1 X140.875 Y126.465 E1.14336
G1 X152.266 Y137.698 E1.32442
G1 X153.940 Y139.374 E1.35123
G1 X155.931 Y141.647 E1.38543
G1 X157.433 Y143.588 E1.41321
G1 X158.965 Y145.840 E1.44403
G1 X166.780 Y158.482 E1.61224
G1 X168.319 Y161.730 E1.65292
G1 X169.200 Y167.000 E1.71339
G1 X169.200 Y176.418 E1.81998
G1 X168.801 Y179.990 E1.86066
G1 X167.625 Y183.387 E1.90134
G1 X165.728 Y186.440 E1.94202
G1 X163.205 Y189.000 E1.98270
G1 X160.179 Y190.940 E2.02338
G1 X156.800 Y192.166 E2.06407
G1 X153.185 Y192.617 E2.10530
G1 X102.000 Y193.200 E2.68463
G1 X92.000 Y193.200 E2.79781
G1 X88.428 Y192.801 E2.83849
G1 X85.031 Y191.625 E2.87917
G1 X81.978 Y189.728 E2.91985
G1 X79.418 Y187.205 E2.96053
G1 X77.478 Y184.179 E3.00121
G1 X76.252 Y180.800 E3.04189
G1 X75.800 Y177.000 E3.08520
G1 X75.800 Y167.000 E3.19838
G1 X76.199 Y163.428 E3.23906
G1 X78.220 Y158.482 E3.29953
G1 X86.483 Y145.155 E3.47700
G1 X87.555 Y143.604 E3.49833
G1 X88.040 Y142.956 E3.50750
G1 X89.234 Y141.441 E3.52932
G1 X89.730 Y140.858 E3.53799
G1 X91.047 Y139.388 E3.56032
G1 X91.414 Y139.005 E3.56633
G1 X104.082 Y126.507 E3.76774
G1 X104.406 Y126.750 F9000.000
G1 X107.197 Y124.557 E3.80791 F1500.000
G1 X110.408 Y123.043 E3.84808
G1 X115.500 Y122.200 E3.90650
G1 X129.500 Y122.200 E4.06495
G1 X133.027 Y122.599 E4.10512
G1 X136.376 Y123.775 E4.14529
G1 X140.594 Y126.750 E4.20371
G1 X151.985 Y137.983 E4.38476
G1 X153.647 Y139.646 E4.41137
G1 X155.617 Y141.895 E4.44521
G1 X157.107 Y143.820 E4.47277
G1 X158.624 Y146.050 E4.50330
G1 X166.439 Y158.692 E4.67150
G1 X167.955 Y161.902 E4.71168
G1 X168.800 Y167.000 E4.77016
G1 X168.800 Y176.418 E4.87675
G1 X168.401 Y179.945 E4.91693
G1 X167.225 Y183.294 E4.95710
G1 X165.331 Y186.296 E4.99727
G1 X162.815 Y188.800 E5.03745
G1 X159.803 Y190.678 E5.07762
G1 X156.448 Y191.837 E5.11780
G1 X153.180 Y192.217 E5.15502
G1 X102.000 Y192.800 E5.73430
G1 X92.000 Y192.800 E5.84748
G1 X88.473 Y192.401 E5.88765
G1 X85.124 Y191.225 E5.92783
G1 X82.122 Y189.331 E5.96800
G1 X79.618 Y186.815 E6.00818
G1 X77.740 Y183.803 E6.04835
G1 X76.581 Y180.448 E6.08852
G1 X76.200 Y177.000 E6.12778
G1 X76.200 Y167.000 E6.24096
G1 X76.599 Y163.473 E6.28113
G1 X78.561 Y158.692 E6.33962
G1 X86.812 Y145.382 E6.51686
G1 X87.881 Y143.836 E6.53813
G1 X88.354 Y143.203 E6.54707
G1 X89.544 Y141.694 E6.56883
G1 X90.029 Y141.125 E6.57728
G1 X91.340 Y139.660 E6.59953
G1 X91.764 Y139.220 E6.60645
G1 X104.363 Y126.792 E6.80674
G1 X104.687 Y127.035 F9000.000
G1 X107.446 Y124.874 E6.84640 F1500.000
G1 X110.622 Y123.393 E6.88606
G1 X115.500 Y122.600 E6.94200
G1 X129.500 Y122.600 E7.10044
G1 X132.982 Y122.999 E7.14011
G1 X136.283 Y124.174 E7.17977
G1 X140.313 Y127.035 E7.23570
G1 X153.016 Y139.566 E7.43765
G1 X153.564 Y140.149 E7.44671
G1 X155.302 Y142.142 E7.47664
G1 X156.781 Y144.052 E7.50397
G1 X158.284 Y146.260 E7.53421
G1 X166.099 Y158.902 E7.70242
G1 X167.591 Y162.073 E7.74208
G1 X168.400 Y167.000 E7.79858
G1 X168.400 Y176.418 E7.90517
G1 X168.001 Y179.900 E7.94483
G1 X166.826 Y183.201 E7.98449
G1 X164.934 Y186.151 E8.02415
G1 X162.425 Y188.597 E8.06381
G1 X159.428 Y190.412 E8.10347
G1 X156.098 Y191.503 E8.14314
G1 X153.176 Y191.817 E8.17639
G1 X102.000 Y192.400 E8.75562
G1 X92.000 Y192.400 E8.86880
G1 X88.518 Y192.001 E8.90846
G1 X85.217 Y190.826 E8.94812
G1 X82.267 Y188.934 E8.98778
G1 X79.821 Y186.425 E9.02744
G1 X78.006 Y183.428 E9.06710
G1 X76.915 Y180.098 E9.10676
G1 X76.600 Y177.000 E9.14200
G1 X76.600 Y167.000 E9.25518
G1 X76.999 Y163.518 E9.29484
G1 X78.901 Y158.902 E9.35134
G1 X87.141 Y145.609 E9.52835
G1 X88.207 Y144.068 E9.54956
G1 X88.668 Y143.450 E9.55829
G1 X89.855 Y141.946 E9.57997
G1 X90.327 Y141.391 E9.58822
G1 X91.633 Y139.932 E9.61038
G1 X91.983 Y139.567 E9.61610
G1 X104.644 Y127.077 E9.81739
G1 X107.446 Y124.874 F7200.000 E9.39417
G1 X109.291 Y124.014 F7200.000 E9.15239
G1 F900.000 E9.11739
G92 E0
G1 X149.246 Y167.200 F9000.000
G1 E0.70000 F900.000
G1 X152.800 Y167.200 E0.74022 F720.000
G1 X152.800 Y176.218 E0.84229
G1 X143.200 Y176.218 E0.95094
G1 X143.200 Y168.013 E1.04380
G1 X143.229 Y167.793 E1.04631
G1 X143.309 Y167.601 E1.04866
G1 X143.436 Y167.436 E1.05102
G1 X143.601 Y167.309 E1.05338
G1 X143.793 Y167.229 E1.05574
G1 X144.013 Y167.200 E1.05825
G1 X146.641 Y167.200 E1.08799
G1 X146.421 Y165.340 E1.10919
G1 X146.126 Y163.761 E1.12738
G1 X145.718 Y162.177 E1.14588
G1 X145.205 Y160.625 E1.16439
G1 X144.587 Y159.111 E1.18289
G1 X143.869 Y157.642 E1.20139
G1 X143.053 Y156.225 E1.21990
G1 X142.125 Y154.841 E1.23876
G1 X141.125 Y153.548 E1.25726
G1 X140.039 Y152.326 E1.27576
G1 X138.873 Y151.180 E1.29427
G1 X137.632 Y150.115 E1.31277
G1 X136.323 Y149.136 E1.33128
G1 X134.950 Y148.248 E1.34978
G1 X133.520 Y147.455 E1.36829
G1 X132.040 Y146.760 E1.38679
G1 X130.516 Y146.166 E1.40531
G1 X128.936 Y145.672 E1.42404
G1 X127.315 Y145.285 E1.44290
G1 X125.820 Y145.030 E1.46007
G1 X124.163 Y144.857 E1.47892
G1 X122.500 Y144.800 E1.49775
G1 X120.837 Y144.857 E1.51659
G1 X119.180 Y145.030 E1.53544
G1 X117.685 Y145.285 E1.55261
G1 X116.064 Y145.672 E1.57147
G1 X114.484 Y146.166 E1.59020
G1 X112.960 Y146.760 E1.60872
G1 X111.452 Y147.469 E1.62758
G1 X110.050 Y148.248 E1.64573
G1 X108.677 Y149.136 E1.66423
G1 X107.368 Y150.115 E1.68274
G1 X106.127 Y151.180 E1.70124
G1 X104.940 Y152.349 E1.72010
G1 X103.855 Y153.573 E1.73860
G1 X102.856 Y154.867 E1.75711
G1 X101.947 Y156.225 E1.77561
G1 X101.146 Y157.615 E1.79376
G1 X100.413 Y159.111 E1.81262
G1 X99.795 Y160.625 E1.83112
G1 X99.282 Y162.177 E1.84963
G1 X98.874 Y163.761 E1.86813
G1 X98.579 Y165.340 E1.88632
G1 X98.359 Y167.200 E1.90751
G1 X101.800 Y167.200 E1.94646
G1 X101.800 Y176.800 E2.05511
G1 X92.200 Y176.800 E2.16376
G1 X92.200 Y167.200 E2.27241
G1 X95.754 Y167.200 E2.31264
G1 X95.949 Y165.354 E2.33364
G1 X96.228 Y163.706 E2.35256
G1 X96.609 Y162.079 E2.37148
G1 X97.091 Y160.478 E2.39040
G1 X97.672 Y158.911 E2.40932
G1 X98.349 Y157.382 E2.42823
G1 X99.114 Y155.911 E2.44700
G1 X99.982 Y154.467 E2.46607
G1 X100.932 Y153.092 E2.48499
G1 X101.957 Y151.789 E2.50375
G1 X103.080 Y150.532 E2.52283
G1 X104.264 Y149.361 E2.54168
G1 X105.534 Y148.255 E2.56073
G1 X106.846 Y147.247 E2.57946
G1 X108.241 Y146.308 E2.59849
G1 X109.669 Y145.471 E2.61722
G1 X111.179 Y144.709 E2.63636
G1 X112.713 Y144.051 E2.65526
G1 X114.275 Y143.493 E2.67403
G1 X115.700 Y143.073 E2.69084
G1 X115.700 Y138.200 E2.74599
G1 X129.300 Y138.200 E2.89991
G1 X129.300 Y143.073 E2.95506
G1 X130.725 Y143.493 E2.97187
G1 X132.287 Y144.051 E2.99064
G1 X133.831 Y144.713 E3.00966
G1 X135.331 Y145.471 E3.02868
G1 X136.759 Y146.308 E3.04741
G1 X138.154 Y147.247 E3.06644
G1 X139.466 Y148.255 E3.08517
G1 X140.736 Y149.361 E3.10422
G1 X141.920 Y150.532 E3.12307
G1 X143.043 Y151.789 E3.14215
G1 X144.068 Y153.092 E3.16091
G1 X145.018 Y154.467 E3.17983
G1 X145.880 Y155.899 E3.19875
G1 X146.651 Y157.382 E3.21767
G1 X147.328 Y158.911 E3.23658
G1 X147.909 Y160.478 E3.25550
G1 X148.391 Y162.079 E3.27442
G1 X148.772 Y163.706 E3.29334
G1 X149.051 Y165.354 E3.31226
G1 X149.240 Y167.140 E3.33258
G1 X148.961 Y167.073 F9000.000
G1 X146.574 Y164.686 E3.37079 F1800.000
G1 X146.443 Y163.987 E3.37884
G1 X148.894 Y166.438 E3.41807
G1 X148.827 Y165.802 E3.42530
G1 X146.273 Y163.249 E3.46617
G1 X146.076 Y162.483 E3.47511
G1 X148.742 Y165.150 E3.51779
G1 X148.627 Y164.466 E3.52564
G1 X145.837 Y161.676 E3.57030
G1 X145.556 Y160.827 E3.58042
G1 X148.511 Y163.782 E3.62772
G1 X148.339 Y163.042 E3.63632
G1 X145.203 Y159.906 E3.68651
G1 X144.803 Y158.938 F9000.000
G1 X148.165 Y162.300 E3.74033 F1800.000
G1 X147.935 Y161.502 E3.74973
G1 X144.260 Y157.826 E3.80856
G1 X143.552 Y156.551 F9000.000
G1 X147.690 Y160.689 E3.87480 F1800.000
G1 X147.370 Y159.800 F9000.000
G1 X142.534 Y154.965 E3.95219 F1800.000
G1 X144.269 Y153.859 F9000.000
G1 X137.631 Y147.221 E4.05844 F1800.000
G1 X136.045 Y146.203 F9000.000
G1 X145.296 Y155.454 E4.20651 F1800.000
G1 X146.011 Y156.737 F9000.000
G1 X134.759 Y145.485 E4.38660 F1800.000
G1 X133.624 Y144.918 F9000.000
G1 X146.568 Y157.862 E4.59378 F1800.000
G1 X147.021 Y158.883 F9000.000
G1 X132.630 Y144.492 E4.82411 F1800.000
G1 X131.697 Y144.127 F9000.000
G1 X136.505 Y148.936 E4.90107 F1800.000
G1 X134.930 Y147.928 F9000.000
G1 X130.813 Y143.812 E4.96696 F1800.000
G1 X129.992 Y143.558 E4.97669
G1 X133.655 Y147.221 E5.03532
G1 X132.581 Y146.716 F9000.000
G1 X124.335 Y138.470 E5.16730 F1800.000
G1 X124.903 Y138.470 E5.17373
G1 X129.030 Y142.597 E5.23978
G1 X129.030 Y142.029 E5.24621
G1 X125.471 Y138.470 E5.30317
G1 X126.040 Y138.470 E5.30960
G1 X129.030 Y141.460 E5.35746
G1 X129.030 Y140.892 E5.36390
G1 X126.608 Y138.470 E5.40266
G1 X127.176 Y138.470 E5.40909
G1 X129.030 Y140.324 E5.43877
G1 X129.030 Y139.756 E5.44520
G1 X127.744 Y138.470 E5.46578
G1 X128.312 Y138.470 E5.47221
G1 X129.030 Y139.188 E5.48370
G1 X129.030 Y138.620 E5.49013
G1 X128.880 Y138.470 E5.49252
G1 X123.767 Y138.470 F9000.000
G1 X131.593 Y146.296 E5.61778 F1800.000
G1 X130.662 Y145.933 F9000.000
G1 X123.199 Y138.470 E5.73724 F1800.000
G1 X122.631 Y138.470 E5.74367
G1 X129.829 Y145.668 E5.85888
G1 X129.002 Y145.410 E5.86868
G1 X122.062 Y138.470 E5.97976
G1 X121.494 Y138.470 E5.98619
G1 X128.256 Y145.232 E6.09442
G1 X127.510 Y145.054 E6.10310
G1 X120.926 Y138.470 E6.20848
G1 X120.358 Y138.470 E6.21491
G1 X126.813 Y144.925 E6.31823
G1 X126.128 Y144.808 E6.32609
G1 X119.790 Y138.470 E6.42754
G1 X119.222 Y138.470 E6.43397
G1 X125.474 Y144.722 E6.53404
G1 X124.840 Y144.656 E6.54126
G1 X118.653 Y138.470 E6.64028
G1 X118.085 Y138.470 E6.64671
G1 X124.206 Y144.590 E6.74467
G1 X123.615 Y144.568 E6.75135
G1 X117.517 Y138.470 E6.84896
G1 X116.949 Y138.470 E6.85539
G1 X123.027 Y144.548 E6.95267
G1 X122.442 Y144.532 E6.95929
G1 X116.381 Y138.470 E7.05631
G1 X115.970 Y138.627 E7.06129
G1 X121.893 Y144.551 E7.15609
G1 X121.344 Y144.570 E7.16231
G1 X115.970 Y139.196 E7.24833
G1 X115.970 Y139.764 E7.25476
G1 X120.796 Y144.590 E7.33200
G1 X120.282 Y144.644 E7.33786
G1 X115.970 Y140.332 E7.40687
G1 X115.970 Y140.900 E7.41330
G1 X119.767 Y144.697 E7.47408
G1 X119.252 Y144.751 E7.47993
G1 X115.970 Y141.468 E7.53247
G1 X115.970 Y142.036 E7.53890
G1 X118.761 Y144.827 E7.58357
G1 X118.275 Y144.910 E7.58914
G1 X115.970 Y142.605 E7.62604
G1 X115.970 Y143.173 E7.63247
G1 X117.790 Y144.993 E7.66160
G1 X117.323 Y145.094 E7.66702
G1 X115.610 Y143.381 E7.69443
G1 X115.171 Y143.510 E7.69961
G1 X116.864 Y145.203 E7.72670
G1 X116.405 Y145.313 E7.73204
G1 X114.732 Y143.640 E7.75881
G1 X114.297 Y143.772 E7.76397
G1 X115.949 Y145.425 E7.79042
G1 X115.516 Y145.560 E7.79555
G1 X113.878 Y143.922 E7.82177
G1 X113.459 Y144.071 E7.82680
G1 X115.084 Y145.696 E7.85280
G1 X114.651 Y145.831 E7.85793
G1 X113.041 Y144.221 E7.88370
G1 X112.632 Y144.380 E7.88867
G1 X114.228 Y145.976 E7.91422
G1 X113.819 Y146.135 E7.91919
G1 X112.234 Y144.550 E7.94456
G1 X111.836 Y144.721 E7.94945
G1 X113.410 Y146.295 E7.97465
G1 X113.001 Y146.454 E7.97961
G1 X111.439 Y144.891 E8.00462
G1 X111.054 Y145.075 E8.00945
G1 X112.607 Y146.628 E8.03430
G1 X112.220 Y146.809 E8.03914
G1 X110.676 Y145.265 E8.06385
G1 X110.299 Y145.456 E8.06864
G1 X111.834 Y146.991 E8.09321
G1 X111.448 Y147.173 E8.09805
G1 X109.921 Y145.647 E8.12248
G1 X109.557 Y145.850 E8.12721
G1 X111.076 Y147.370 E8.15152
G1 X110.711 Y147.572 E8.15625
G1 X109.198 Y146.060 E8.18046
G1 X108.840 Y146.270 E8.18516
G1 X110.345 Y147.775 E8.20925
G1 X109.980 Y147.978 E8.21398
G1 X108.482 Y146.480 E8.23796
G1 X108.137 Y146.704 E8.24261
G1 X109.631 Y148.198 E8.26652
G1 X109.286 Y148.421 E8.27117
G1 X107.798 Y146.932 E8.29500
G1 X107.458 Y147.161 E8.29963
G1 X108.941 Y148.644 E8.32337
G1 X108.596 Y148.867 E8.32802
G1 X107.118 Y147.389 E8.35167
G1 X106.791 Y147.630 E8.35627
G1 X108.267 Y149.106 E8.37990
G1 X107.942 Y149.349 E8.38450
G1 X106.470 Y147.877 E8.40807
G1 X106.148 Y148.123 E8.41265
G1 X107.617 Y149.592 E8.43616
G1 X107.292 Y149.836 E8.44076
G1 X105.827 Y148.370 E8.46421
G1 X105.516 Y148.628 E8.46878
G1 X106.980 Y150.091 E8.49220
G1 X106.674 Y150.354 E8.49676
G1 X105.213 Y148.893 E8.52015
G1 X104.909 Y149.157 E8.52471
G1 X106.368 Y150.616 E8.54807
G1 X106.063 Y150.879 E8.55263
G1 X104.605 Y149.422 E8.57595
G1 X104.319 Y149.703 E8.58050
G1 X105.769 Y151.153 E8.60372
G1 X105.482 Y151.435 E8.60826
G1 X104.034 Y149.987 E8.63144
G1 X103.750 Y150.271 E8.63599
G1 X105.196 Y151.717 E8.65912
G1 X104.909 Y151.998 E8.66367
G1 X103.466 Y150.555 E8.68677
G1 X103.182 Y150.839 E8.69132
G1 X104.633 Y152.290 E8.71453
G1 X104.365 Y152.591 E8.71909
G1 X102.906 Y151.131 E8.74244
G1 X102.638 Y151.432 E8.74700
G1 X104.098 Y152.892 E8.77037
G1 X103.831 Y153.193 E8.77493
G1 X102.370 Y151.732 E8.79831
G1 X102.106 Y152.036 E8.80287
G1 X103.570 Y153.500 E8.82630
G1 X103.323 Y153.821 E8.83088
G1 X101.856 Y152.354 E8.85436
G1 X101.606 Y152.672 E8.85894
G1 X103.075 Y154.141 E8.88245
G1 X102.828 Y154.462 E8.88704
G1 X101.356 Y152.990 E8.91059
G1 X101.109 Y153.311 E8.91518
G1 X102.585 Y154.787 E8.93880
G1 X102.357 Y155.127 E8.94343
G1 X100.877 Y153.647 E8.96712
G1 X100.645 Y153.983 E8.97174
G1 X102.129 Y155.468 E8.99550
G1 X101.901 Y155.808 E9.00013
G1 X100.413 Y154.320 E9.02396
G1 X100.183 Y154.658 E9.02859
G1 X101.677 Y156.152 E9.05250
G1 X101.470 Y156.513 E9.05721
G1 X99.970 Y155.013 E9.08122
G1 X99.756 Y155.368 E9.08591
G1 X101.262 Y156.873 E9.11001
G1 X101.054 Y157.234 E9.11472
G1 X99.543 Y155.722 E9.13892
G1 X99.331 Y156.079 E9.14361
G1 X100.851 Y157.599 E9.16794
G1 X100.665 Y157.981 E9.17275
G1 X99.137 Y156.453 E9.19720
G1 X98.942 Y156.827 E9.20197
G1 X100.478 Y158.362 E9.22655
G1 X100.291 Y158.744 E9.23136
G1 X98.748 Y157.200 E9.25606
G1 X98.558 Y157.578 E9.26084
G1 X100.113 Y159.134 E9.28574
G1 X99.948 Y159.537 E9.29067
G1 X98.383 Y157.972 E9.31573
G1 X98.209 Y158.366 E9.32060
G1 X99.784 Y159.940 E9.34581
G1 X99.619 Y160.344 E9.35074
G1 X98.034 Y158.759 E9.37610
G1 X97.867 Y159.160 E9.38102
G1 X99.467 Y160.760 E9.40662
G1 X99.325 Y161.187 E9.41171
G1 X97.714 Y159.575 E9.43750
G1 X97.560 Y159.990 E9.44250
G1 X99.184 Y161.613 E9.46850
G1 X99.043 Y162.040 E9.47359
G1 X97.406 Y160.404 E9.49978
G1 X97.266 Y160.832 E9.50487
G1 X98.923 Y162.489 E9.53138
G1 X98.806 Y162.940 E9.53666
G1 X97.135 Y161.269 E9.56342
G1 X97.004 Y161.706 E9.56858
G1 X98.690 Y163.392 E9.59557
G1 X98.582 Y163.853 E9.60093
G1 X96.872 Y162.142 E9.62830
G1 X96.764 Y162.602 E9.63365
G1 X98.494 Y164.333 E9.66134
G1 X98.406 Y164.812 E9.66687
G1 X96.656 Y163.063 E9.69487
G1 X96.548 Y163.523 E9.70022
G1 X98.317 Y165.292 E9.72853
G1 X98.252 Y165.795 E9.73427
G1 X96.453 Y163.996 E9.76307
G1 X96.371 Y164.482 E9.76865
G1 X98.192 Y166.304 E9.79780
G1 X98.132 Y166.812 E9.80360
G1 X96.288 Y164.968 E9.83311
G1 X96.210 Y165.457 E9.83872
G1 X101.530 Y170.778 E9.92388
G1 X101.530 Y170.209 E9.93031
G1 X98.791 Y167.470 E9.97415
G1 X99.359 Y167.470 E9.98058
G1 X101.530 Y169.641 E10.01534
G1 X101.530 Y169.073 E10.02177
G1 X99.927 Y167.470 E10.04742
G1 X100.495 Y167.470 E10.05385
G1 X101.530 Y168.505 E10.07042
G1 X101.530 Y167.937 E10.07685
G1 X101.063 Y167.470 E10.08432
G1 X101.530 Y171.346 F9000.000
G1 X96.155 Y165.971 E10.17034 F1800.000
G1 X96.101 Y166.485 E10.17619
G1 X101.530 Y171.914 E10.26308
G1 X101.530 Y172.482 E10.26951
G1 X96.047 Y166.999 E10.35727
G1 X95.950 Y167.470 E10.36272
G1 X101.530 Y173.050 E10.45203
G1 X101.530 Y173.618 E10.45846
