; generated by Slic3r 1.0.0RC2 on 2014-07-23 at 17:56:43

; layer_height = 0.4
; perimeters = 3
; top_solid_layers = 3
; bottom_solid_layers = 3
; fill_density = 0.4
; perimeter_speed = 30
; infill_speed = 60
; travel_speed = 130
; nozzle_diameter = 0.5
; filament_diameter = 3
; extrusion_multiplier = 1
; perimeters extrusion width = 0.50mm
; infill extrusion width = 0.53mm
; solid infill extrusion width = 0.53mm
; top infill extrusion width = 0.53mm
; first layer extrusion width = 0.70mm

G21 ; set units to millimeters
M107
M104 S200 ; set temperature
G28 ; home all axes
G1 Z5 F5000 ; lift nozzle

M109 S200 ; wait for temperature to be reached
G90 ; use absolute coordinates
G92 E0
M82 ; use absolute distances for extrusion
G1 F1800.000 E-1.00000
G92 E0
G1 Z0.350 F7800.000
G1 X88.290 Y75.790 F7800.000
G1 E1.00000 F1800.000
G1 X89.300 Y74.960 E1.04253 F540.000
G1 X90.450 Y74.350 E1.08489
G1 X91.700 Y73.970 E1.12739
G1 X93.000 Y73.840 E1.16990
G1 X107.000 Y73.840 E1.62539
G1 X108.300 Y73.970 E1.66790
G1 X109.550 Y74.350 E1.71041
G1 X110.700 Y74.960 E1.75276
G1 X111.710 Y75.790 E1.79529
G1 X112.540 Y76.800 E1.83783
G1 X113.150 Y77.950 E1.88018
G1 X113.530 Y79.200 E1.92269
G1 X113.660 Y80.500 E1.96519
G1 X113.660 Y85.500 E2.12787
G1 X113.530 Y86.800 E2.17037
G1 X113.150 Y88.050 E2.21288
G1 X112.540 Y89.200 E2.25523
G1 X111.710 Y90.210 E2.29777
G1 X110.700 Y91.040 E2.34030
G1 X109.550 Y91.650 E2.38265
G1 X108.300 Y92.030 E2.42516
G1 X107.000 Y92.160 E2.46767
G1 X93.000 Y92.160 E2.92316
G1 X91.700 Y92.030 E2.96567
G1 X90.450 Y91.650 E3.00817
G1 X89.300 Y91.040 E3.05053
G1 X88.290 Y90.210 E3.09306
G1 X87.460 Y89.200 E3.13559
G1 X86.850 Y88.050 E3.17795
G1 X86.470 Y86.800 E3.22045
G1 X86.340 Y85.500 E3.26296
G1 X86.340 Y80.500 E3.42564
G1 X86.470 Y79.200 E3.46814
G1 X86.850 Y77.950 E3.51065
G1 X87.460 Y76.800 E3.55300
G1 X88.227 Y75.866 E3.59233
G1 F1800.000 E2.59233
G92 E0
G1 X94.664 Y82.164 F7800.000
G1 E1.00000 F1800.000
G1 X105.336 Y82.164 E1.34721 F540.000
G1 X105.336 Y83.836 E1.40159
G1 X94.664 Y83.836 E1.74880
G1 X94.664 Y82.263 E1.79998
G1 X94.007 Y81.507 F7800.000
G1 X105.993 Y81.507 E2.18994 F540.000
G1 X105.993 Y84.493 E2.28709
G1 X94.007 Y84.493 E2.67705
G1 X94.007 Y81.606 E2.77099
G1 X93.350 Y80.850 F7800.000
G1 X106.650 Y80.850 E3.20371 F540.000
G1 X106.650 Y85.150 E3.34361
G1 X93.350 Y85.150 E3.77633
G1 X93.350 Y80.949 E3.91302
G1 X93.919 Y81.179 F7800.000
G1 X95.309 Y83.123 F7800.000
G1 X95.957 Y82.809 E3.93732 F360.000
G1 X96.340 Y83.191 E3.95556 F360.000
G1 X96.920 Y82.809 E3.97900 F360.000
G1 X97.303 Y83.191 E3.99724 F360.000
G1 X97.883 Y82.809 E4.02068 F360.000
G1 X98.266 Y83.191 E4.03892 F360.000
G1 X98.846 Y82.809 E4.06236 F360.000
G1 X99.228 Y83.191 E4.08060 F360.000
G1 X99.809 Y82.809 E4.10404 F360.000
G1 X100.191 Y83.191 E4.12228 F360.000
G1 X100.772 Y82.809 E4.14572 F360.000
G1 X101.154 Y83.191 E4.16396 F360.000
G1 X101.734 Y82.809 E4.18740 F360.000
G1 X102.117 Y83.191 E4.20564 F360.000
G1 X102.697 Y82.809 E4.22908 F360.000
G1 X103.080 Y83.191 E4.24732 F360.000
G1 X103.660 Y82.809 E4.27076 F360.000
G1 X104.043 Y83.191 E4.28900 F360.000
G1 X104.623 Y82.809 E4.31244 F360.000
G1 X104.691 Y82.877 E4.31568 F360.000
G1 X95.377 Y83.191 F7800.000
G1 X95.309 Y83.123 E4.31893 F360.000
M106 S255
G1 F1800.000 E3.31893
G92 E0
G1 Z0.750 F7800.000
G1 X94.250 Y84.250 F7800.000
G1 E1.00000 F1800.000
G1 X94.250 Y81.750 E1.07074 F600.000
G1 X105.750 Y81.750 E1.39612
G1 X105.750 Y84.250 E1.46685
G1 X94.325 Y84.250 E1.79012
G1 X93.750 Y84.750 F7800.000
G1 X93.750 Y81.250 E1.88915 F600.000
G1 X106.250 Y81.250 E2.24282
G1 X106.250 Y84.750 E2.34185
G1 X93.825 Y84.750 E2.69341
G1 X93.250 Y85.250 F7800.000
G1 X93.250 Y80.750 E2.82073 F600.000
G1 X106.750 Y80.750 E3.20270
G1 X106.750 Y85.250 E3.33003
G1 X93.325 Y85.250 E3.70988
G1 X93.500 Y84.817 F7800.000
G1 X94.643 Y82.091 F7800.000
G1 X94.591 Y82.143 E3.71205 F600.000
G1 X94.591 Y82.880 E3.73380
G1 X95.380 Y82.091 E3.76673
G1 X96.117 Y82.091 E3.78847
G1 X94.591 Y83.617 E3.85215
G1 X95.036 Y83.909 E3.86786
G1 X96.855 Y82.091 E3.94372
G1 X97.592 Y82.091 E3.96546
G1 X95.773 Y83.909 E4.04132
G1 X96.511 Y83.909 E4.06307
G1 X98.329 Y82.091 E4.13892
G1 X99.066 Y82.091 E4.16067
G1 X97.248 Y83.909 E4.23653
G1 X97.985 Y83.909 E4.25827
G1 X99.803 Y82.091 E4.33413
G1 X100.541 Y82.091 E4.35588
G1 X98.722 Y83.909 E4.43173
G1 X99.459 Y83.909 E4.45348
G1 X101.278 Y82.091 E4.52934
G1 X102.015 Y82.091 E4.55108
G1 X100.197 Y83.909 E4.62694
G1 X100.934 Y83.909 E4.64869
G1 X102.752 Y82.091 E4.72454
G1 X103.489 Y82.091 E4.74629
G1 X101.671 Y83.909 E4.82215
G1 X102.408 Y83.909 E4.84389
G1 X104.227 Y82.091 E4.91975
G1 X104.964 Y82.091 E4.94150
G1 X103.145 Y83.909 E5.01735
G1 X103.883 Y83.909 E5.03910
G1 X105.409 Y82.383 E5.10278
G1 X105.409 Y83.120 E5.12453
G1 X104.620 Y83.909 E5.15746
G1 X105.357 Y83.909 E5.17920
G1 X105.409 Y83.857 E5.18138
G1 F1800.000 E4.18138
G92 E0
G1 Z1.150 F7800.000
G1 X105.750 Y84.250 F7800.000
G1 E1.00000 F1800.000
G1 X94.250 Y84.250 E1.32538 F600.000
G1 X94.250 Y81.750 E1.39612
G1 X105.750 Y81.750 E1.72150
G1 X105.750 Y84.175 E1.79012
G1 X106.250 Y84.750 F7800.000
G1 X93.750 Y84.750 E2.14379 F600.000
G1 X93.750 Y81.250 E2.24282
G1 X106.250 Y81.250 E2.59650
G1 X106.250 Y84.675 E2.69341
G1 X106.750 Y85.250 F7800.000
G1 X93.250 Y85.250 E3.07538 F600.000
G1 X93.250 Y80.750 E3.20270
G1 X106.750 Y80.750 E3.58468
G1 X106.750 Y85.175 E3.70988
G1 X106.317 Y85.000 F7800.000
G1 F1800.000 E2.70988
G92 E0
G1 X105.409 Y82.143 F7800.000
G1 E1.00000 F1800.000
G1 X105.357 Y82.091 E1.00217 F600.000
G1 X104.620 Y82.091 E1.02392
G1 X105.409 Y82.880 E1.05685
G1 X105.409 Y83.617 E1.07859
G1 X103.883 Y82.091 E1.14228
G1 X103.145 Y82.091 E1.16402
G1 X104.964 Y83.909 E1.23988
G1 X104.227 Y83.909 E1.26162
G1 X102.408 Y82.091 E1.33748
G1 X101.671 Y82.091 E1.35923
G1 X103.489 Y83.909 E1.43508
G1 X102.752 Y83.909 E1.45683
G1 X100.934 Y82.091 E1.53268
G1 X100.197 Y82.091 E1.55443
G1 X102.015 Y83.909 E1.63029
G1 X101.278 Y83.909 E1.65203
G1 X99.459 Y82.091 E1.72789
G1 X98.722 Y82.091 E1.74963
G1 X100.541 Y83.909 E1.82549
G1 X99.803 Y83.909 E1.84724
G1 X97.985 Y82.091 E1.92309
G1 X97.248 Y82.091 E1.94484
G1 X99.066 Y83.909 E2.02069
G1 X98.329 Y83.909 E2.04244
G1 X96.511 Y82.091 E2.11829
G1 X95.773 Y82.091 E2.14004
G1 X97.592 Y83.909 E2.21590
G1 X96.855 Y83.909 E2.23764
G1 X95.036 Y82.091 E2.31350
G1 X94.591 Y82.383 E2.32921
G1 X96.117 Y83.909 E2.39289
G1 X95.380 Y83.909 E2.41463
G1 X94.591 Y83.120 E2.44756
G1 X94.591 Y83.857 E2.46931
G1 X94.643 Y83.909 E2.47148
G1 F1800.000 E1.47148
G92 E0
G1 Z1.550 F7800.000
G1 X93.825 Y84.750 F7800.000
G1 E1.00000 F1800.000
G1 X106.175 Y84.750 E1.34943 F600.000
G1 X106.175 Y80.750 E1.46261
G1 X106.750 Y80.750 E1.47888
G1 X106.750 Y85.250 E1.60620
G1 X93.250 Y85.250 E1.98818
G1 X93.250 Y80.750 E2.11550
G1 X93.825 Y80.750 E2.13177
G1 X93.825 Y84.675 E2.24282
G1 X93.825 Y85.250 F7800.000
G1 F1800.000 E1.24282
G92 E0
G1 Z1.950 F7800.000
G1 X93.825 Y84.750 F7800.000
G1 E1.00000 F1800.000
G1 X106.175 Y84.750 E1.34943 F600.000
G1 X106.175 Y80.750 E1.46261
G1 X106.750 Y80.750 E1.47888
G1 X106.750 Y85.250 E1.60620
G1 X93.250 Y85.250 E1.98818
G1 X93.250 Y80.750 E2.11550
G1 X93.825 Y80.750 E2.13177
G1 X93.825 Y84.675 E2.24282
G1 X93.825 Y85.250 F7800.000
G1 F1800.000 E1.24282
G92 E0
G1 Z2.350 F7800.000
G1 X93.825 Y84.750 F7800.000
G1 E1.00000 F1800.000
G1 X106.175 Y84.750 E1.34943 F600.000
G1 X106.175 Y80.750 E1.46261
G1 X106.750 Y80.750 E1.47888
G1 X106.750 Y85.250 E1.60620
G1 X93.250 Y85.250 E1.98818
G1 X93.250 Y80.750 E2.11550
G1 X93.825 Y80.750 E2.13177
G1 X93.825 Y84.675 E2.24282
G1 X93.825 Y85.250 F7800.000
G1 F1800.000 E1.24282
G92 E0
G1 Z2.750 F7800.000
G1 X93.825 Y84.750 F7800.000
G1 E1.00000 F1800.000
G1 X106.175 Y84.750 E1.34943 F600.000
G1 X106.175 Y80.750 E1.46261
G1 X106.750 Y80.750 E1.47888
G1 X106.750 Y85.250 E1.60620
G1 X93.250 Y85.250 E1.98818
G1 X93.250 Y80.750 E2.11550
G1 X93.825 Y80.750 E2.13177
G1 X93.825 Y84.675 E2.24282
G1 X93.825 Y85.250 F7800.000
G1 F1800.000 E1.24282
G92 E0
G1 Z3.150 F7800.000
G1 X121.750 Y110.750 F7800.000
G1 E1.00000 F1800.000
M106 S255
G1 X129.250 Y110.750 E1.20833 F1800
G1 X129.250 Y118.250 E1.41667
G1 X121.750 Y118.250 E1.62500
G1 X121.750 Y110.825 E1.83125
M106 S255
G1 X121.250 Y110.250 F7800.000
M106 S255
G1 X129.750 Y110.250 E2.06736 F1800
G1 X129.750 Y118.750 E2.30347
G1 X121.250 Y118.750 E2.53958
G1 X121.250 Y110.325 E2.77361
M106 S255
G1 X120.750 Y109.750 F7800.000
M106 S255
G1 X130.250 Y109.750 E3.03750 F1800
G1 X130.250 Y119.250 E3.30139
G1 X120.750 Y119.250 E3.56528
G1 X120.750 Y109.825 E3.82708
M106 S255
G1 X121.183 Y110.000 F7800.000
G1 F1800.000 E2.82708
G92 E0
G1 X106.750 Y85.250 F7800.000
G1 E1.00000 F1800.000
G1 X93.250 Y85.250 E1.38197 F600.000
G1 X93.250 Y80.750 E1.50930
G1 X93.825 Y80.750 E1.52556
G1 X93.825 Y84.750 E1.63874
G1 X106.175 Y84.750 E1.98818
G1 X106.175 Y80.750 E2.10135
G1 X106.750 Y80.750 E2.11762
G1 X106.750 Y85.175 E2.24282
G1 X106.317 Y85.000 F7800.000
G1 F1800.000 E1.24282
G92 E0
G1 X122.145 Y111.089 F7800.000
G1 E1.00000 F1800.000
M106 S255
G1 X122.089 Y111.145 E1.00221 F3600
G1 X122.089 Y111.941 E1.02432
G1 X122.941 Y111.089 E1.05780
G1 X123.737 Y111.089 E1.07992
G1 X122.089 Y112.737 E1.14467
G1 X122.089 Y113.533 E1.16678
G1 X124.533 Y111.089 E1.26280
G1 X125.329 Y111.089 E1.28492
G1 X122.089 Y114.329 E1.41221
G1 X122.089 Y115.125 E1.43432
G1 X126.125 Y111.089 E1.59289
G1 X126.921 Y111.089 E1.61500
G1 X122.089 Y115.921 E1.80484
G1 X122.089 Y116.717 E1.82695
G1 X127.717 Y111.089 E2.04805
G1 X128.513 Y111.089 E2.07017
G1 X122.089 Y117.513 E2.32254
G1 X122.487 Y117.911 E2.33818
G1 X128.911 Y111.487 E2.59056
G1 X128.911 Y112.283 E2.61267
G1 X123.283 Y117.911 E2.83377
G1 X124.079 Y117.911 E2.85589
G1 X128.911 Y113.079 E3.04572
G1 X128.911 Y113.875 E3.06783
G1 X124.875 Y117.911 E3.22640
G1 X125.671 Y117.911 E3.24851
G1 X128.911 Y114.671 E3.37581
G1 X128.911 Y115.467 E3.39792
G1 X126.467 Y117.911 E3.49394
G1 X127.263 Y117.911 E3.51605
G1 X128.911 Y116.263 E3.58081
G1 X128.911 Y117.059 E3.60292
G1 X128.059 Y117.911 E3.63640
G1 X128.855 Y117.911 E3.65851
G1 X128.911 Y117.855 E3.66072
M106 S255
G1 F1800.000 E2.66072
G92 E0
G1 Z3.550 F7800.000
G1 X129.250 Y118.250 F7800.000
G1 E1.00000 F1800.000
G1 X121.750 Y118.250 E1.21221 F600.000
G1 X121.750 Y110.750 E1.42441
G1 X129.250 Y110.750 E1.63662
G1 X129.250 Y118.175 E1.84670
G1 X129.750 Y118.750 F7800.000
G1 X121.250 Y118.750 E2.08721 F600.000
G1 X121.250 Y110.250 E2.32771
G1 X129.750 Y110.250 E2.56821
G1 X129.750 Y118.675 E2.80659
G1 X130.250 Y119.250 F7800.000
G1 X120.750 Y119.250 E3.07538 F600.000
G1 X120.750 Y109.750 E3.34418
G1 X130.250 Y109.750 E3.61297
G1 X130.250 Y119.175 E3.87964
G1 X129.817 Y119.000 F7800.000
G1 F1800.000 E2.87964
G92 E0
G1 X106.750 Y85.250 F7800.000
G1 E1.00000 F1800.000
G1 X93.250 Y85.250 E1.38197 F600.000
G1 X93.250 Y80.750 E1.50930
G1 X93.825 Y80.750 E1.52556
G1 X93.825 Y84.750 E1.63874
G1 X106.175 Y84.750 E1.98818
G1 X106.175 Y80.750 E2.10135
G1 X106.750 Y80.750 E2.11762
G1 X106.750 Y85.175 E2.24282
G1 X106.317 Y85.000 F7800.000
G1 F1800.000 E1.24282
G92 E0
G1 X128.857 Y111.090 F7800.000
G1 E1.00000 F1800.000
G1 X128.910 Y111.143 E1.00226 F860.006
G1 X128.910 Y111.895 E1.02488
G1 X128.105 Y111.090 E1.05912
G1 X127.353 Y111.090 E1.08174
G1 X128.910 Y112.647 E1.14797
G1 X128.910 Y113.399 E1.17058
G1 X126.601 Y111.090 E1.26880
G1 X125.849 Y111.090 E1.29141
G1 X128.910 Y114.151 E1.42161
G1 X128.910 Y114.902 E1.44423
G1 X125.098 Y111.090 E1.60641
G1 X124.346 Y111.090 E1.62902
G1 X128.910 Y115.654 E1.82319
G1 X128.910 Y116.406 E1.84580
G1 X123.594 Y111.090 E2.07195
G1 X122.842 Y111.090 E2.09457
G1 X128.910 Y117.158 E2.35270
G1 X128.883 Y117.883 E2.37454
G1 X122.117 Y111.117 E2.66239
G1 X122.090 Y111.842 E2.68422
G1 X128.158 Y117.910 E2.94236
G1 X127.406 Y117.910 E2.96497
G1 X122.090 Y112.594 E3.19112
G1 X122.090 Y113.346 E3.21374
G1 X126.654 Y117.910 E3.40791
G1 X125.902 Y117.910 E3.43052
G1 X122.090 Y114.098 E3.59271
G1 X122.090 Y114.849 E3.61532
G1 X125.151 Y117.910 E3.74552
G1 X124.399 Y117.910 E3.76814
G1 X122.090 Y115.601 E3.86635
G1 X122.090 Y116.353 E3.88897
G1 X123.647 Y117.910 E3.95520
G1 X122.895 Y117.910 E3.97781
G1 X122.090 Y117.105 E4.01206
G1 X122.090 Y117.857 E4.03467
G1 X122.143 Y117.910 E4.03694
G1 F1800.000 E3.03694
G92 E0
G1 Z3.950 F7800.000
G1 X121.750 Y118.250 F7800.000
G1 E1.00000 F1800.000
G1 X121.750 Y110.750 E1.21221 F600.000
G1 X129.250 Y110.750 E1.42441
G1 X129.250 Y118.250 E1.63662
G1 X121.825 Y118.250 E1.84670
G1 X121.250 Y118.750 F7800.000
G1 X121.250 Y110.250 E2.08721 F600.000
G1 X129.750 Y110.250 E2.32771
G1 X129.750 Y118.750 E2.56821
G1 X121.325 Y118.750 E2.80659
G1 X120.750 Y119.250 F7800.000
G1 X120.750 Y109.750 E3.07538 F600.000
G1 X130.250 Y109.750 E3.34418
G1 X130.250 Y119.250 E3.61297
G1 X120.825 Y119.250 E3.87964
G1 X121.000 Y118.817 F7800.000
G1 F1800.000 E2.87964
G92 E0
G1 X104.750 Y89.250 F7800.000
G1 E1.00000 F1800.000
M106 S255
G1 X95.250 Y89.250 E1.26389 F1800
G1 X95.250 Y85.750 E1.36111
G1 X104.750 Y85.750 E1.62500
G1 X104.750 Y89.175 E1.72014
M106 S255
G1 X105.250 Y89.750 F7800.000
M106 S255
G1 X94.750 Y89.750 E2.01181 F1800
G1 X94.750 Y85.500 E2.12986
M106 S255
G1 X94.750 Y85.250 E2.13693 F600.000
G1 X105.250 Y85.250 E2.43402
G1 X105.250 Y85.500 E2.44110
M106 S255
G1 X105.250 Y89.675 E2.55707 F1800
M106 S255
G1 X105.750 Y90.250 F7800.000
M106 S255
G1 X94.250 Y90.250 E2.87651 F3600
G1 X94.250 Y85.500 E3.00846
M106 S255
G1 X94.250 Y85.250 E3.01553 F600.000
G1 X93.250 Y85.250 E3.04383
G1 X93.250 Y80.750 E3.17115
G1 X93.825 Y80.750 E3.18742
G1 X93.825 Y84.750 E3.30060
G1 X106.175 Y84.750 E3.65003
G1 X106.175 Y80.750 E3.76321
G1 X106.750 Y80.750 E3.77948
G1 X106.750 Y85.250 E3.90680
G1 X105.750 Y85.250 E3.93509
G1 X105.750 Y85.500 E3.94217
M106 S255
G1 X105.750 Y90.175 E4.07203 F3600
M106 S255
G1 X105.317 Y90.000 F7800.000
G1 F1800.000 E3.07203
G92 E0
G1 X122.090 Y111.143 F7800.000
G1 E1.00000 F1800.000
G1 X122.143 Y111.090 E1.00226 F1173.554
G1 X122.895 Y111.090 E1.02488
G1 X122.090 Y111.895 E1.05912
G1 X122.090 Y112.647 E1.08174
G1 X123.647 Y111.090 E1.14797
G1 X124.399 Y111.090 E1.17058
G1 X122.090 Y113.399 E1.26880
G1 X122.090 Y114.151 E1.29141
G1 X125.151 Y111.090 E1.42161
G1 X125.902 Y111.090 E1.44423
G1 X122.090 Y114.902 E1.60641
G1 X122.090 Y115.654 E1.62902
G1 X126.654 Y111.090 E1.82319
G1 X127.406 Y111.090 E1.84580
G1 X122.090 Y116.406 E2.07195
G1 X122.090 Y117.158 E2.09457
G1 X128.158 Y111.090 E2.35270
G1 X128.883 Y111.117 E2.37454
G1 X122.117 Y117.883 E2.66239
G1 X122.842 Y117.910 E2.68422
G1 X128.910 Y111.842 E2.94236
G1 X128.910 Y112.594 E2.96497
G1 X123.594 Y117.910 E3.19112
G1 X124.346 Y117.910 E3.21374
G1 X128.910 Y113.346 E3.40791
G1 X128.910 Y114.098 E3.43052
G1 X125.098 Y117.910 E3.59271
G1 X125.849 Y117.910 E3.61532
G1 X128.910 Y114.849 E3.74552
G1 X128.910 Y115.601 E3.76814
G1 X126.601 Y117.910 E3.86635
G1 X127.353 Y117.910 E3.88897
G1 X128.910 Y116.353 E3.95520
G1 X128.910 Y117.105 E3.97781
G1 X128.105 Y117.910 E4.01206
G1 X128.857 Y117.910 E4.03467
G1 X128.910 Y117.857 E4.03694
G1 F1800.000 E3.03694
G92 E0
G1 X104.383 Y88.883 F7800.000
G1 E1.00000 F1800.000
M106 S255
G1 X95.617 Y88.883 E1.24351 F3600
G1 X95.617 Y88.330 E1.25887
G1 X104.383 Y88.330 E1.50238
G1 X104.383 Y87.777 E1.51775
G1 X95.617 Y87.777 E1.76125
G1 X95.617 Y87.223 E1.77662
G1 X104.383 Y87.223 E2.02013
G1 X104.383 Y86.670 E2.03549
G1 X95.617 Y86.670 E2.27900
G1 X95.617 Y86.117 E2.29437
G1 X104.383 Y86.117 E2.53787
M106 S255
G1 F1800.000 E1.53787
G92 E0
G1 Z4.350 F7800.000
G1 X121.750 Y110.750 F7800.000
G1 E1.00000 F1800.000
G1 X129.250 Y110.750 E1.21221 F931.669
G1 X129.250 Y118.250 E1.42441
G1 X121.750 Y118.250 E1.63662
G1 X121.750 Y110.825 E1.84670
G1 X121.250 Y110.250 F7800.000
G1 X129.750 Y110.250 E2.08721 F931.669
G1 X129.750 Y118.750 E2.32771
G1 X121.250 Y118.750 E2.56821
G1 X121.250 Y110.325 E2.80659
G1 X120.750 Y109.750 F7800.000
G1 X130.250 Y109.750 E3.07538 F931.669
G1 X130.250 Y119.250 E3.34418
G1 X120.750 Y119.250 E3.61297
G1 X120.750 Y109.825 E3.87964
