; generated by Slic3r 1.1.6 on 2014-07-17 at 15:59:10

; perimeters extrusion width = 0.50mm
; infill extrusion width = 0.50mm
; solid infill extrusion width = 0.50mm
; top infill extrusion width = 0.50mm

G21 ; set units to millimeters
M107
M190 S70 ; wait for bed temperature to be reached
M104 S190 ; set temperature
G28 ; home all axes

M109 S190 ; wait for temperature to be reached
G90 ; use absolute coordinates
G92 E0
M82 ; use absolute distances for extrusion
G1 F900.000 E-0.70000
G92 E0
G1 Z0.200 F9000.000
G1 X98.082 Y135.014 F9000.000
G1 E0.70000 F900.000
G1 X100.315 Y133.606 E0.72988 F2160.000
G1 X102.628 Y132.335 E0.75976
G1 X105.014 Y131.206 E0.78963
G1 X107.464 Y130.223 E0.81950
G1 X108.957 Y129.708 E0.83737
G1 X109.968 Y129.390 E0.84938
G1 X112.517 Y128.710 E0.87923
G1 X115.105 Y128.185 E0.90912
G1 X116.666 Y127.947 E0.92699
G1 X117.719 Y127.817 E0.93900
G1 X120.350 Y127.608 E0.96887
G1 X122.989 Y127.557 E0.99874
G1 X124.567 Y127.605 E1.01661
G1 X125.626 Y127.667 E1.02862
G1 X127.199 Y127.809 E1.04648
G1 X128.252 Y127.935 E1.05849
G1 X130.857 Y128.361 E1.08837
G1 X133.431 Y128.944 E1.11824
G1 X135.965 Y129.681 E1.14810
G1 X138.451 Y130.570 E1.17798
G1 X139.910 Y131.175 E1.19586
G1 X140.878 Y131.607 E1.20786
G1 X142.298 Y132.299 E1.22573
G1 X143.238 Y132.789 E1.23773
G1 X145.523 Y134.112 E1.26761
G1 X147.723 Y135.570 E1.29748
G1 X148.995 Y136.506 E1.31536
G1 X149.831 Y137.158 E1.32736
G1 X151.840 Y138.870 E1.35723
G1 X153.741 Y140.701 E1.38710
G1 X154.823 Y141.850 E1.40497
G1 X155.529 Y142.643 E1.41698
G1 X157.196 Y144.689 E1.44685
G1 X158.736 Y146.832 E1.47672
G1 X160.144 Y149.065 E1.50659
G1 X160.920 Y150.440 E1.52447
G1 X161.415 Y151.378 E1.53647
G1 X162.544 Y153.764 E1.56634
G1 X163.527 Y156.214 E1.59621
G1 X164.360 Y158.718 E1.62608
G1 X165.040 Y161.269 E1.65596
G1 X165.371 Y162.812 E1.67382
G1 X165.565 Y163.855 E1.68584
G1 X165.803 Y165.416 E1.70370
G1 X165.933 Y166.469 E1.71571
G1 X166.142 Y169.100 E1.74558
G1 X166.193 Y170.761 E1.76438
G1 X165.902 Y174.343 E1.80507
G1 X164.828 Y177.774 E1.84575
G1 X163.025 Y180.883 E1.88643
G1 X160.580 Y183.518 E1.92711
G1 X157.614 Y185.549 E1.96779
G1 X154.274 Y186.876 E2.00847
G1 X150.000 Y187.450 E2.05727
G1 X95.000 Y187.450 E2.67975
G1 X91.428 Y187.051 E2.72043
G1 X88.031 Y185.875 E2.76111
G1 X84.978 Y183.978 E2.80179
G1 X82.418 Y181.455 E2.84247
G1 X80.478 Y178.429 E2.88315
G1 X79.252 Y175.050 E2.92383
G1 X78.807 Y170.761 E2.97264
G1 X78.855 Y169.183 E2.99050
G1 X78.917 Y168.123 E3.00251
G1 X79.060 Y166.551 E3.02038
G1 X79.197 Y165.416 E3.03333
G1 X79.611 Y162.893 E3.06226
G1 X80.194 Y160.319 E3.09213
G1 X80.618 Y158.798 E3.11000
G1 X80.931 Y157.784 E3.12201
G1 X81.820 Y155.299 E3.15188
G1 X82.858 Y152.872 E3.18175
G1 X83.548 Y151.453 E3.19962
G1 X84.040 Y150.512 E3.21163
G1 X85.362 Y148.227 E3.24150
G1 X86.219 Y146.902 E3.25937
G1 X86.820 Y146.027 E3.27138
G1 X88.408 Y143.919 E3.30125
G1 X90.120 Y141.910 E3.33112
G1 X91.951 Y140.009 E3.36099
G1 X93.100 Y138.927 E3.37886
G1 X93.893 Y138.221 E3.39087
G1 X95.938 Y136.555 E3.42073
G1 X98.033 Y135.049 E3.44992
G1 X98.299 Y135.350 F9000.000
G1 X100.511 Y133.954 E3.47954 F2160.000
G1 X102.803 Y132.694 E3.50913
G1 X105.167 Y131.576 E3.53873
G1 X107.594 Y130.601 E3.56833
G1 X109.087 Y130.086 E3.58620
G1 X110.076 Y129.776 E3.59793
G1 X112.601 Y129.101 E3.62752
G1 X115.166 Y128.580 E3.65713
G1 X116.726 Y128.343 E3.67500
G1 X117.755 Y128.215 E3.68674
G1 X120.362 Y128.007 E3.71633
G1 X122.977 Y127.957 E3.74593
G1 X124.555 Y128.005 E3.76380
G1 X125.590 Y128.065 E3.77553
G1 X127.162 Y128.208 E3.79340
G1 X128.192 Y128.330 E3.80514
G1 X130.773 Y128.752 E3.83474
G1 X133.324 Y129.329 E3.86434
G1 X135.835 Y130.059 E3.89392
G1 X138.298 Y130.940 E3.92353
G1 X139.757 Y131.544 E3.94141
G1 X140.703 Y131.967 E3.95313
G1 X142.123 Y132.658 E3.97101
G1 X143.042 Y133.138 E3.98274
G1 X145.305 Y134.448 E4.01234
G1 X147.486 Y135.892 E4.04193
G1 X148.758 Y136.828 E4.05981
G1 X149.575 Y137.465 E4.07154
G1 X151.566 Y139.161 E4.10114
G1 X153.450 Y140.975 E4.13074
G1 X154.532 Y142.124 E4.14860
G1 X155.222 Y142.899 E4.16034
G1 X156.874 Y144.926 E4.18994
G1 X158.400 Y147.049 E4.21953
G1 X159.796 Y149.261 E4.24913
G1 X160.572 Y150.637 E4.26701
G1 X161.056 Y151.553 E4.27874
G1 X162.175 Y153.917 E4.30834
G1 X163.149 Y156.344 E4.33794
G1 X163.974 Y158.826 E4.36753
G1 X164.649 Y161.353 E4.39713
G1 X164.980 Y162.896 E4.41500
G1 X165.170 Y163.916 E4.42674
G1 X165.407 Y165.476 E4.44460
G1 X165.535 Y166.505 E4.45634
G1 X165.743 Y169.112 E4.48594
G1 X165.793 Y170.773 E4.50474
G1 X165.501 Y174.310 E4.54491
G1 X164.426 Y177.694 E4.58509
G1 X162.624 Y180.752 E4.62526
G1 X160.184 Y183.330 E4.66543
G1 X157.230 Y185.299 E4.70561
G1 X153.912 Y186.558 E4.74578
G1 X150.000 Y187.050 E4.79040
G1 X95.000 Y187.050 E5.41288
G1 X91.473 Y186.651 E5.45305
G1 X88.124 Y185.475 E5.49322
G1 X85.122 Y183.581 E5.53340
G1 X82.618 Y181.065 E5.57357
G1 X80.740 Y178.053 E5.61374
G1 X79.581 Y174.698 E5.65392
G1 X79.207 Y170.773 E5.69854
G1 X79.255 Y169.195 E5.71640
G1 X79.315 Y168.160 E5.72814
G1 X79.458 Y166.588 E5.74601
G1 X79.593 Y165.476 E5.75868
G1 X80.002 Y162.977 E5.78734
G1 X80.579 Y160.426 E5.81694
G1 X81.003 Y158.906 E5.83481
G1 X81.309 Y157.915 E5.84654
G1 X82.190 Y155.452 E5.87614
G1 X83.217 Y153.047 E5.90574
G1 X83.908 Y151.628 E5.92360
G1 X84.388 Y150.708 E5.93534
G1 X85.698 Y148.445 E5.96494
G1 X86.555 Y147.119 E5.98281
G1 X87.142 Y146.264 E5.99455
G1 X88.715 Y144.175 E6.02414
G1 X90.411 Y142.184 E6.05374
G1 X92.225 Y140.300 E6.08334
G1 X93.374 Y139.218 E6.10121
G1 X94.149 Y138.528 E6.11294
G1 X96.175 Y136.877 E6.14253
G1 X98.250 Y135.385 E6.17145
G1 X98.516 Y135.686 F9000.000
G1 X100.708 Y134.302 E6.20079 F2160.000
G1 X102.979 Y133.054 E6.23012
G1 X105.320 Y131.945 E6.25944
G1 X107.725 Y130.979 E6.28877
G1 X109.217 Y130.464 E6.30664
G1 X110.183 Y130.161 E6.31809
G1 X112.685 Y129.492 E6.34740
G1 X115.226 Y128.976 E6.37675
G1 X116.786 Y128.738 E6.39461
G1 X117.792 Y128.614 E6.40608
G1 X120.374 Y128.407 E6.43540
G1 X122.965 Y128.357 E6.46473
G1 X124.543 Y128.405 E6.48259
G1 X125.554 Y128.463 E6.49405
G1 X127.126 Y128.606 E6.51192
G1 X128.132 Y128.726 E6.52338
G1 X130.689 Y129.143 E6.55271
G1 X133.217 Y129.715 E6.58204
G1 X135.704 Y130.437 E6.61135
G1 X138.145 Y131.309 E6.64069
G1 X139.604 Y131.914 E6.65856
G1 X140.528 Y132.327 E6.67001
G1 X141.948 Y133.018 E6.68789
G1 X142.845 Y133.486 E6.69934
G1 X145.088 Y134.784 E6.72867
G1 X147.249 Y136.214 E6.75799
G1 X148.521 Y137.150 E6.77587
G1 X149.319 Y137.772 E6.78732
G1 X151.291 Y139.453 E6.81665
G1 X153.159 Y141.249 E6.84597
G1 X154.241 Y142.398 E6.86384
G1 X154.914 Y143.155 E6.87530
G1 X156.551 Y145.163 E6.90463
G1 X158.064 Y147.266 E6.93395
G1 X159.448 Y149.458 E6.96328
G1 X160.223 Y150.833 E6.98115
G1 X160.696 Y151.728 E6.99261
G1 X161.805 Y154.070 E7.02194
G1 X162.771 Y156.475 E7.05126
G1 X163.589 Y158.933 E7.08058
G1 X164.258 Y161.437 E7.10991
G1 X164.589 Y162.980 E7.12778
G1 X164.774 Y163.976 E7.13924
G1 X165.012 Y165.536 E7.15711
G1 X165.136 Y166.541 E7.16857
G1 X165.343 Y169.125 E7.19790
G1 X165.393 Y170.785 E7.21670
G1 X165.100 Y174.277 E7.25636
G1 X164.024 Y177.612 E7.29602
G1 X162.223 Y180.618 E7.33568
G1 X159.789 Y183.139 E7.37534
G1 X156.848 Y185.044 E7.41500
G1 X153.552 Y186.235 E7.45466
G1 X150.000 Y186.650 E7.49513
G1 X95.000 Y186.650 E8.11760
G1 X91.518 Y186.251 E8.15726
G1 X88.217 Y185.076 E8.19692
G1 X85.267 Y183.184 E8.23659
G1 X82.821 Y180.675 E8.27625
G1 X81.006 Y177.678 E8.31591
G1 X79.915 Y174.348 E8.35557
G1 X79.607 Y170.785 E8.39604
G1 X79.655 Y169.207 E8.41390
G1 X79.713 Y168.196 E8.42537
G1 X79.856 Y166.624 E8.44323
G1 X79.988 Y165.536 E8.45564
G1 X80.393 Y163.061 E8.48402
G1 X80.965 Y160.533 E8.51335
G1 X81.389 Y159.013 E8.53121
G1 X81.688 Y158.045 E8.54268
G1 X82.559 Y155.605 E8.57200
G1 X83.577 Y153.222 E8.60133
G1 X84.268 Y151.803 E8.61919
G1 X84.736 Y150.905 E8.63066
G1 X86.034 Y148.662 E8.65998
G1 X86.891 Y147.336 E8.67785
G1 X87.464 Y146.501 E8.68931
G1 X89.022 Y144.431 E8.71863
G1 X90.703 Y142.459 E8.74796
G1 X92.499 Y140.591 E8.77729
G1 X93.648 Y139.509 E8.79515
G1 X94.405 Y138.836 E8.80662
G1 X96.412 Y137.199 E8.83593
G1 X98.467 Y135.721 E8.86458
G1 X100.708 Y134.302 F7200.000 E8.54965
G1 X102.979 Y133.054 F7200.000 E8.24195
G1 X103.301 Y132.901 F7200.000 E8.19958
G1 F900.000 E8.16458
G92 E0
G1 X136.168 Y155.700 F9000.000
G1 E0.70000 F900.000
G1 X125.768 Y155.700 E0.81770 F864.000
G1 X125.768 Y150.300 E0.87882
G1 X136.168 Y150.300 E0.99652
G1 X136.168 Y155.640 E1.05696
G1 X125.200 Y155.950 F9000.000
G1 X119.800 Y155.950 E1.11808 F864.000
G1 X119.800 Y145.550 E1.23578
G1 X125.200 Y145.550 E1.29689
G1 X125.200 Y155.890 E1.41392
G1 X124.591 Y159.551 F9000.000
G1 X124.949 Y159.619 E1.41804 F864.000
G1 X125.278 Y159.774 E1.42216
G1 X125.558 Y160.006 E1.42627
G1 X125.787 Y160.339 E1.43084
G1 X125.906 Y160.639 E1.43450
G1 X125.952 Y161.000 E1.43862
G1 X125.906 Y161.361 E1.44273
G1 X125.787 Y161.661 E1.44639
G1 X125.558 Y161.994 E1.45096
G1 X125.278 Y162.226 E1.45507
G1 X124.949 Y162.381 E1.45919
G1 X124.591 Y162.449 E1.46331
G1 X124.228 Y162.426 E1.46743
G1 X123.882 Y162.313 E1.47155
G1 X123.575 Y162.118 E1.47567
G1 X123.326 Y161.853 E1.47978
G1 X123.170 Y161.570 E1.48344
G1 X123.060 Y161.182 E1.48801
G1 X123.060 Y160.818 E1.49212
G1 X123.150 Y160.466 E1.49624
G1 X123.326 Y160.147 E1.50036
G1 X123.575 Y159.882 E1.50448
G1 X123.882 Y159.687 E1.50860
G1 X124.228 Y159.574 E1.51271
G1 X124.531 Y159.555 E1.51615
G1 X124.949 Y159.619 F7200.000 E1.46601
G1 X125.278 Y159.774 F7200.000 E1.42280
G1 X125.558 Y160.006 F7200.000 E1.37959
G1 X125.787 Y160.339 F7200.000 E1.33166
G1 X125.906 Y160.639 F7200.000 E1.29331
G1 X125.952 Y161.000 F7200.000 E1.25010
G1 X125.906 Y161.361 F7200.000 E1.20689
G1 X125.787 Y161.661 F7200.000 E1.16854
G1 X125.558 Y161.994 F7200.000 E1.12061
G1 X125.278 Y162.226 F7200.000 E1.07740
G1 X124.949 Y162.381 F7200.000 E1.03419
G1 X124.591 Y162.449 F7200.000 E0.99098
G1 X124.228 Y162.426 F7200.000 E0.94777
G1 X123.882 Y162.313 F7200.000 E0.90456
G1 X123.575 Y162.118 F7200.000 E0.86135
G1 X123.516 Y162.056 F7200.000 E0.85115
G1 F900.000 E0.81615
G92 E0
G1 X124.591 Y164.801 F9000.000
G1 E0.70000 F900.000
G1 X124.949 Y164.869 E0.70412 F864.000
G1 X125.278 Y165.024 E0.70824
G1 X125.558 Y165.256 E0.71235
G1 X125.787 Y165.589 E0.71692
G1 X125.906 Y165.889 E0.72058
G1 X125.952 Y166.250 E0.72470
G1 X125.906 Y166.611 E0.72881
G1 X125.787 Y166.911 E0.73247
G1 X125.558 Y167.244 E0.73704
G1 X125.278 Y167.476 E0.74116
G1 X124.949 Y167.631 E0.74527
G1 X124.591 Y167.699 E0.74939
G1 X124.189 Y167.663 E0.75396
G1 X123.882 Y167.563 E0.75761
G1 X123.575 Y167.368 E0.76173
G1 X123.326 Y167.103 E0.76585
G1 X123.170 Y166.820 E0.76951
G1 X123.060 Y166.432 E0.77407
G1 X123.060 Y166.068 E0.77819
G1 X123.150 Y165.716 E0.78231
G1 X123.326 Y165.397 E0.78643
G1 X123.575 Y165.132 E0.79055
G1 X123.882 Y164.937 E0.79466
G1 X124.228 Y164.824 E0.79878
G1 X124.531 Y164.805 E0.80222
G1 X117.907 Y166.397 F9000.000
G1 X117.947 Y166.787 E0.80666 F864.000
G1 X117.907 Y167.103 E0.81027
G1 X117.778 Y167.437 E0.81432
G1 X117.563 Y167.738 E0.81851
G1 X117.296 Y167.963 E0.82246
G1 X116.959 Y168.126 E0.82669
G1 X116.565 Y168.197 E0.83122
G1 X116.236 Y168.177 E0.83495
G1 X115.888 Y168.066 E0.83908
G1 X115.553 Y167.846 E0.84362
G1 X115.328 Y167.606 E0.84734
G1 X115.151 Y167.286 E0.85148
G1 X115.060 Y166.932 E0.85562
G1 X115.060 Y166.568 E0.85974
G1 X115.151 Y166.214 E0.86388
G1 X115.328 Y165.894 E0.86801
G1 X115.553 Y165.654 E0.87174
G1 X115.888 Y165.434 E0.87627
G1 X116.236 Y165.323 E0.88041
G1 X116.565 Y165.303 E0.88414
G1 X116.959 Y165.374 E0.88867
G1 X117.296 Y165.537 E0.89290
G1 X117.563 Y165.762 E0.89685
G1 X117.778 Y166.063 E0.90104
G1 X117.887 Y166.340 E0.90441
G1 X116.959 Y163.126 F9000.000
G1 X116.565 Y163.197 E0.90895 F864.000
G1 X116.236 Y163.177 E0.91267
G1 X115.888 Y163.066 E0.91681
G1 X115.553 Y162.846 E0.92134
G1 X115.328 Y162.606 E0.92507
G1 X115.151 Y162.286 E0.92920
G1 X115.060 Y161.932 E0.93334
G1 X115.060 Y161.568 E0.93747
G1 X115.151 Y161.214 E0.94160
G1 X115.328 Y160.894 E0.94574
G1 X115.553 Y160.654 E0.94946
G1 X115.888 Y160.434 E0.95400
G1 X116.236 Y160.323 E0.95813
G1 X116.565 Y160.303 E0.96186
G1 X116.959 Y160.374 E0.96640
G1 X117.296 Y160.537 E0.97062
G1 X117.563 Y160.762 E0.97457
G1 X117.778 Y161.063 E0.97877
G1 X117.907 Y161.397 E0.98281
G1 X117.947 Y161.713 E0.98643
G1 X117.895 Y162.140 E0.99129
G1 X117.778 Y162.437 E0.99490
G1 X117.563 Y162.738 E0.99909
G1 X117.296 Y162.963 E1.00304
G1 X117.014 Y163.100 E1.00659
G1 X116.565 Y163.197 F7200.000 E0.95209
G1 X116.236 Y163.177 F7200.000 E0.91298
G1 X115.888 Y163.066 F7200.000 E0.86960
G1 X115.553 Y162.846 F7200.000 E0.82202
G1 X115.328 Y162.606 F7200.000 E0.78292
G1 X115.151 Y162.286 F7200.000 E0.73952
G1 X115.060 Y161.932 F7200.000 E0.69612
G1 X115.060 Y161.568 F7200.000 E0.65285
G1 X115.151 Y161.214 F7200.000 E0.60945
G1 X115.328 Y160.894 F7200.000 E0.56606
G1 X115.553 Y160.654 F7200.000 E0.52695
G1 X115.888 Y160.434 F7200.000 E0.47937
G1 X116.236 Y160.323 F7200.000 E0.43599
G1 X116.565 Y160.303 F7200.000 E0.39688
G1 X116.959 Y160.374 F7200.000 E0.34930
G1 X117.018 Y160.403 F7200.000 E0.34159
G1 F900.000 E0.30659
G92 E0
G1 X116.575 Y156.199 F9000.000
G1 E0.70000 F900.000
G1 X116.275 Y156.180 E0.70341 F864.000
G1 X115.988 Y156.087 E0.70682
G1 X115.734 Y155.926 E0.71023
G1 X115.528 Y155.706 E0.71364
G1 X115.383 Y155.442 E0.71704
G1 X115.308 Y155.151 E0.72045
G1 X115.308 Y154.849 E0.72386
G1 X115.383 Y154.558 E0.72727
G1 X115.528 Y154.294 E0.73068
G1 X115.734 Y154.074 E0.73409
G1 X115.988 Y153.913 E0.73750
G1 X116.275 Y153.820 E0.74091
G1 X116.575 Y153.801 E0.74431
G1 X116.871 Y153.857 E0.74772
G1 X117.144 Y153.985 E0.75113
G1 X117.376 Y154.177 E0.75454
G1 X117.553 Y154.421 E0.75795
G1 X117.664 Y154.701 E0.76136
G1 X117.702 Y155.000 E0.76477
G1 X117.664 Y155.299 E0.76818
G1 X117.553 Y155.579 E0.77159
G1 X117.376 Y155.823 E0.77499
G1 X117.144 Y156.015 E0.77840
G1 X116.871 Y156.143 E0.78181
G1 X116.634 Y156.188 E0.78454
G1 X116.275 Y156.180 F7200.000 E0.74184
G1 X115.988 Y156.087 F7200.000 E0.70608
G1 X115.734 Y155.926 F7200.000 E0.67030
G1 X115.528 Y155.706 F7200.000 E0.63454
G1 X115.383 Y155.442 F7200.000 E0.59877
G1 X115.308 Y155.151 F7200.000 E0.56300
G1 X115.308 Y154.849 F7200.000 E0.52724
G1 X115.383 Y154.558 F7200.000 E0.49147
G1 X115.528 Y154.294 F7200.000 E0.45571
G1 X115.734 Y154.074 F7200.000 E0.41994
G1 X115.988 Y153.913 F7200.000 E0.38417
G1 X116.275 Y153.820 F7200.000 E0.34840
G1 X116.575 Y153.801 F7200.000 E0.31264
G1 X116.871 Y153.857 F7200.000 E0.27686
G1 X117.144 Y153.985 F7200.000 E0.24110
G1 X117.376 Y154.177 F7200.000 E0.20533
G1 X117.553 Y154.421 F7200.000 E0.16956
G1 X117.664 Y154.701 F7200.000 E0.13380
G1 X117.679 Y154.820 F7200.000 E0.11954
G1 F900.000 E0.08454
G92 E0
G1 X116.575 Y152.699 F9000.000
G1 E0.70000 F900.000
G1 X116.275 Y152.680 E0.70341 F864.000
G1 X115.988 Y152.587 E0.70682
G1 X115.734 Y152.426 E0.71023
G1 X115.528 Y152.206 E0.71364
G1 X115.383 Y151.942 E0.71704
G1 X115.308 Y151.651 E0.72045
G1 X115.308 Y151.349 E0.72386
G1 X115.383 Y151.058 E0.72727
G1 X115.528 Y150.794 E0.73068
G1 X115.734 Y150.574 E0.73409
G1 X115.988 Y150.413 E0.73750
G1 X116.275 Y150.320 E0.74091
G1 X116.575 Y150.301 E0.74431
G1 X116.871 Y150.357 E0.74772
G1 X117.144 Y150.485 E0.75113
G1 X117.376 Y150.677 E0.75454
G1 X117.553 Y150.921 E0.75795
G1 X117.664 Y151.201 E0.76136
G1 X117.702 Y151.500 E0.76477
G1 X117.664 Y151.799 E0.76818
G1 X117.553 Y152.079 E0.77159
G1 X117.376 Y152.323 E0.77499
G1 X117.144 Y152.515 E0.77840
G1 X116.871 Y152.643 E0.78181
G1 X116.634 Y152.688 E0.78454
G1 X111.664 Y151.799 F9000.000
G1 X111.553 Y152.079 E0.78795 F864.000
G1 X111.376 Y152.323 E0.79136
G1 X111.144 Y152.515 E0.79477
G1 X110.871 Y152.643 E0.79818
G1 X110.575 Y152.699 E0.80159
G1 X110.275 Y152.680 E0.80500
G1 X109.988 Y152.587 E0.80841
G1 X109.734 Y152.426 E0.81181
G1 X109.528 Y152.206 E0.81522
G1 X109.379 Y151.935 E0.81873
G1 X109.307 Y151.644 E0.82211
G1 X109.307 Y151.356 E0.82538
G1 X109.379 Y151.065 E0.82877
