; generated by Slic3r 1.0.0RC2 on 2014-07-17 at 15:27:01

; layer_height = 0.4
; perimeters = 3
; top_solid_layers = 3
; bottom_solid_layers = 3
; fill_density = 0.4
; perimeter_speed = 30
; infill_speed = 60
; travel_speed = 130
; nozzle_diameter = 0.5
; filament_diameter = 3
; extrusion_multiplier = 1
; perimeters extrusion width = 0.50mm
; infill extrusion width = 0.53mm
; solid infill extrusion width = 0.53mm
; top infill extrusion width = 0.53mm
; first layer extrusion width = 0.70mm

G21 ; set units to millimeters
M107
M104 S200 ; set temperature
G28 ; home all axes
G1 Z5 F5000 ; lift nozzle

M109 S200 ; wait for temperature to be reached
G90 ; use absolute coordinates
G92 E0
M82 ; use absolute distances for extrusion
G1 F1800.000 E-1.00000
G92 E0
G1 Z0.350 F7800.000
G1 X77.330 Y88.200 F7800.000
G1 E1.00000 F1800.000
G1 X79.070 Y86.760 E1.07348 F540.000
G1 X80.400 Y85.770 E1.12743
G1 X80.790 Y85.500 E1.14286
G1 X82.620 Y84.340 E1.21335
G1 X83.950 Y83.590 E1.26303
G1 X86.140 Y82.530 E1.34219
G1 X88.070 Y81.730 E1.41016
G1 X89.640 Y81.190 E1.46418
G1 X91.610 Y80.630 E1.53082
G1 X92.050 Y80.520 E1.54557
G1 X93.680 Y80.180 E1.59975
G1 X95.680 Y79.870 E1.66559
G1 X97.890 Y79.660 E1.73782
G1 X100.200 Y79.600 E1.81300
G1 X102.260 Y79.670 E1.88006
G1 X103.910 Y79.820 E1.93397
G1 X106.310 Y80.180 E2.01292
G1 X107.940 Y80.520 E2.06710
G1 X110.350 Y81.190 E2.14848
G1 X111.920 Y81.730 E2.20250
G1 X113.700 Y82.460 E2.26509
G1 X115.660 Y83.390 E2.33568
G1 X117.820 Y84.610 E2.41639
G1 X119.220 Y85.510 E2.47054
G1 X119.590 Y85.770 E2.48525
G1 X121.200 Y86.970 E2.55058
G1 X122.480 Y88.030 E2.60465
G1 X124.010 Y89.450 E2.67257
G1 X125.430 Y90.940 E2.73953
G1 X125.710 Y91.260 E2.75337
G1 X126.770 Y92.540 E2.80744
G1 X127.970 Y94.150 E2.87277
G1 X128.230 Y94.520 E2.88748
G1 X129.130 Y95.920 E2.94163
G1 X130.340 Y98.070 E3.02190
G1 X131.210 Y99.890 E3.08753
G1 X131.850 Y101.420 E3.14149
G1 X132.010 Y101.820 E3.15551
G1 X132.550 Y103.390 E3.20952
G1 X133.220 Y105.800 E3.29091
G1 X133.560 Y107.430 E3.34508
G1 X133.870 Y109.430 E3.41093
G1 X133.920 Y109.830 E3.42404
G1 X134.090 Y111.840 E3.48967
G1 X134.150 Y113.510 E3.54404
G1 X134.070 Y114.840 E3.58739
G1 X133.720 Y116.130 E3.63088
G1 X133.120 Y117.320 E3.67424
G1 X132.290 Y118.370 E3.71779
G1 X131.270 Y119.230 E3.76119
G1 X130.100 Y119.880 E3.80474
G1 X128.830 Y120.270 E3.84796
G1 X127.500 Y120.410 E3.89147
G1 X72.500 Y120.410 E5.68091
G1 X71.170 Y120.270 E5.72442
G1 X69.900 Y119.880 E5.76765
G1 X68.730 Y119.240 E5.81104
G1 X67.720 Y118.380 E5.85419
G1 X66.890 Y117.330 E5.89774
G1 X66.290 Y116.140 E5.94110
G1 X65.940 Y114.860 E5.98427
G1 X65.850 Y113.530 E6.02764
G1 X65.930 Y111.330 E6.09927
G1 X66.120 Y109.430 E6.16139
G1 X66.430 Y107.430 E6.22724
G1 X66.770 Y105.800 E6.28142
G1 X66.880 Y105.360 E6.29617
G1 X67.460 Y103.340 E6.36455
G1 X68.190 Y101.310 E6.43474
G1 X68.770 Y99.910 E6.48404
G1 X69.650 Y98.070 E6.55040
G1 X70.860 Y95.920 E6.63067
G1 X71.760 Y94.520 E6.68482
G1 X72.020 Y94.150 E6.69953
G1 X73.220 Y92.540 E6.76486
G1 X74.280 Y91.260 E6.81893
G1 X75.700 Y89.730 E6.88685
G1 X77.258 Y88.267 E6.95637
G1 F1800.000 E5.95637
G92 E0
G1 X92.591 Y93.442 F7800.000
G1 E1.00000 F1800.000
G1 X92.774 Y93.109 E1.01236 F540.000
G1 X93.034 Y92.833 E1.02471
G1 X93.355 Y92.629 E1.03707
G1 X93.716 Y92.512 E1.04943
G1 X94.095 Y92.488 E1.06178
G1 X94.468 Y92.559 E1.07414
G1 X94.812 Y92.721 E1.08649
G1 X95.104 Y92.963 E1.09885
G1 X95.328 Y93.270 E1.11121
G1 X95.467 Y93.623 E1.12356
G1 X95.515 Y94.000 E1.13592
G1 X95.467 Y94.377 E1.14828
G1 X95.328 Y94.730 E1.16063
G1 X95.104 Y95.037 E1.17299
G1 X94.812 Y95.279 E1.18534
G1 X94.102 Y95.613 E1.21088
G1 X93.355 Y95.371 E1.23643
G1 X93.034 Y95.167 E1.24878
G1 X92.774 Y94.891 E1.26114
G1 X92.591 Y94.558 E1.27349
G1 X92.497 Y94.190 E1.28585
G1 X92.497 Y93.810 E1.29821
G1 X92.567 Y93.538 E1.30736
G1 X93.207 Y93.686 F7800.000
G1 X93.310 Y93.499 E1.31431 F540.000
G1 X93.456 Y93.343 E1.32127
G1 X93.637 Y93.228 E1.32822
G1 X93.840 Y93.162 E1.33518
G1 X94.054 Y93.149 E1.34213
G1 X94.264 Y93.189 E1.34909
G1 X94.457 Y93.280 E1.35604
G1 X94.622 Y93.416 E1.36300
G1 X94.747 Y93.589 E1.36995
G1 X94.826 Y93.788 E1.37690
G1 X94.853 Y94.000 E1.38386
G1 X94.826 Y94.212 E1.39081
G1 X94.747 Y94.411 E1.39777
G1 X94.622 Y94.584 E1.40472
G1 X94.457 Y94.720 E1.41168
G1 X94.264 Y94.811 E1.41863
G1 X94.054 Y94.851 E1.42559
G1 X93.840 Y94.838 E1.43254
G1 X93.637 Y94.772 E1.43950
G1 X93.456 Y94.657 E1.44645
G1 X93.310 Y94.501 E1.45341
G1 X93.207 Y94.314 E1.46036
G1 X93.154 Y94.107 E1.46732
G1 X93.154 Y93.893 E1.47427
G1 X93.183 Y93.782 E1.47802
G1 X93.081 Y93.513 F7800.000
G1 F1800.000 E0.47802
G92 E0
G1 X103.950 Y92.800 F7800.000
G1 E1.00000 F1800.000
G1 X113.750 Y92.800 E1.31885 F540.000
G1 X113.750 Y98.100 E1.49128
G1 X103.950 Y98.100 E1.81013
G1 X103.950 Y92.899 E1.97936
G1 X103.950 Y92.143 F7800.000
G1 X102.650 Y88.300 F7800.000
G1 X102.650 Y98.100 E2.29820 F540.000
G1 X97.350 Y98.100 E2.47064
G1 X97.350 Y88.300 E2.78948
G1 X102.551 Y88.300 E2.95871
G1 X103.307 Y88.300 F7800.000
G1 F1800.000 E1.95871
G92 E0
G1 X95.104 Y96.463 F7800.000
G1 E1.00000 F1800.000
G1 X95.328 Y96.770 E1.01236 F540.000
G1 X95.467 Y97.123 E1.02471
G1 X95.515 Y97.500 E1.03707
G1 X95.467 Y97.877 E1.04943
G1 X95.328 Y98.230 E1.06178
G1 X95.104 Y98.537 E1.07414
G1 X94.812 Y98.779 E1.08649
G1 X94.468 Y98.941 E1.09885
G1 X94.095 Y99.012 E1.11121
G1 X93.716 Y98.988 E1.12356
G1 X93.355 Y98.871 E1.13592
G1 X93.034 Y98.667 E1.14828
G1 X92.774 Y98.391 E1.16063
G1 X92.591 Y98.058 E1.17299
G1 X92.497 Y97.690 E1.18534
G1 X92.497 Y97.310 E1.19770
G1 X92.591 Y96.942 E1.21006
G1 X92.774 Y96.609 E1.22241
G1 X93.034 Y96.333 E1.23477
G1 X93.355 Y96.129 E1.24712
G1 X94.102 Y95.887 E1.27267
G1 X94.812 Y96.221 E1.29821
G1 X95.028 Y96.400 E1.30736
G1 X94.622 Y96.916 F7800.000
G1 X94.747 Y97.089 E1.31431 F540.000
G1 X94.826 Y97.288 E1.32127
G1 X94.853 Y97.500 E1.32822
G1 X94.826 Y97.712 E1.33518
G1 X94.747 Y97.911 E1.34213
G1 X94.622 Y98.084 E1.34909
G1 X94.457 Y98.220 E1.35604
G1 X94.264 Y98.311 E1.36300
G1 X94.054 Y98.351 E1.36995
G1 X93.840 Y98.338 E1.37690
G1 X93.637 Y98.272 E1.38386
G1 X93.456 Y98.157 E1.39081
G1 X93.310 Y98.001 E1.39777
G1 X93.207 Y97.814 E1.40472
G1 X93.154 Y97.607 E1.41168
G1 X93.154 Y97.393 E1.41863
G1 X93.207 Y97.186 E1.42559
G1 X93.310 Y96.999 E1.43254
G1 X93.456 Y96.843 E1.43950
G1 X93.637 Y96.728 E1.44645
G1 X93.840 Y96.662 E1.45341
G1 X94.054 Y96.649 E1.46036
G1 X94.264 Y96.689 E1.46732
G1 X94.457 Y96.780 E1.47427
G1 X94.546 Y96.853 E1.47802
G1 X94.832 Y96.876 F7800.000
G1 X90.177 Y97.500 F7800.000
G1 X90.109 Y98.041 E1.49578 F540.000
G1 X89.908 Y98.549 E1.51354
G1 X89.587 Y98.991 E1.53129
G1 X89.167 Y99.338 E1.54905
G1 X88.673 Y99.571 E1.56681
G1 X88.137 Y99.673 E1.58457
G1 X87.592 Y99.639 E1.60232
G1 X87.073 Y99.470 E1.62008
G1 X86.612 Y99.178 E1.63784
G1 X86.238 Y98.780 E1.65560
G1 X85.976 Y98.302 E1.67336
G1 X85.840 Y97.773 E1.69111
G1 X85.840 Y97.227 E1.70887
G1 X85.976 Y96.698 E1.72663
G1 X86.238 Y96.220 E1.74439
G1 X86.680 Y95.750 E1.76537
G1 X86.238 Y95.280 E1.78635
G1 X85.976 Y94.802 E1.80411
G1 X85.840 Y94.273 E1.82187
G1 X85.840 Y93.727 E1.83963
G1 X85.976 Y93.198 E1.85738
G1 X86.238 Y92.720 E1.87514
G1 X86.805 Y92.117 E1.90207
G1 X87.592 Y91.861 E1.92899
G1 X88.137 Y91.827 E1.94675
G1 X88.673 Y91.929 E1.96451
G1 X89.167 Y92.162 E1.98227
G1 X89.587 Y92.509 E2.00002
G1 X89.908 Y92.951 E2.01778
G1 X90.109 Y93.458 E2.03554
G1 X90.177 Y94.000 E2.05329
G1 X90.109 Y94.541 E2.07105
G1 X89.908 Y95.049 E2.08881
G1 X89.587 Y95.491 E2.10657
G1 X89.274 Y95.750 E2.11981
G1 X89.587 Y96.009 E2.13306
G1 X89.908 Y96.451 E2.15081
G1 X90.109 Y96.958 E2.16857
G1 X90.165 Y97.402 E2.18312
G1 X88.812 Y95.279 F7800.000
G1 X88.102 Y95.613 E2.20866 F540.000
G1 X87.355 Y95.371 E2.23420
G1 X87.034 Y95.167 E2.24656
G1 X86.774 Y94.891 E2.25892
G1 X86.591 Y94.558 E2.27127
G1 X86.497 Y94.190 E2.28363
G1 X86.497 Y93.810 E2.29599
G1 X86.591 Y93.442 E2.30834
G1 X86.774 Y93.109 E2.32070
G1 X87.034 Y92.833 E2.33305
G1 X87.355 Y92.629 E2.34541
G1 X87.716 Y92.512 E2.35777
G1 X88.095 Y92.488 E2.37012
G1 X88.468 Y92.559 E2.38248
G1 X88.812 Y92.721 E2.39484
G1 X89.104 Y92.963 E2.40719
G1 X89.328 Y93.270 E2.41955
G1 X89.467 Y93.623 E2.43190
G1 X89.515 Y94.000 E2.44426
G1 X89.467 Y94.377 E2.45662
G1 X89.328 Y94.730 E2.46897
G1 X89.104 Y95.037 E2.48133
G1 X88.888 Y95.216 E2.49048
G1 X88.457 Y94.720 F7800.000
G1 X88.264 Y94.811 E2.49743 F540.000
G1 X88.054 Y94.851 E2.50439
G1 X87.840 Y94.838 E2.51134
G1 X87.637 Y94.772 E2.51830
G1 X87.456 Y94.657 E2.52525
G1 X87.310 Y94.501 E2.53221
G1 X87.207 Y94.314 E2.53916
G1 X87.154 Y94.107 E2.54612
G1 X87.154 Y93.893 E2.55307
G1 X87.207 Y93.686 E2.56003
G1 X87.310 Y93.499 E2.56698
G1 X87.456 Y93.343 E2.57394
G1 X87.637 Y93.228 E2.58089
G1 X87.840 Y93.162 E2.58785
G1 X88.054 Y93.149 E2.59480
G1 X88.264 Y93.189 E2.60176
G1 X88.457 Y93.280 E2.60871
G1 X88.622 Y93.416 E2.61567
G1 X88.747 Y93.589 E2.62262
G1 X88.826 Y93.788 E2.62958
G1 X88.853 Y94.000 E2.63653
G1 X88.826 Y94.212 E2.64349
G1 X88.747 Y94.411 E2.65044
G1 X88.622 Y94.584 E2.65739
G1 X88.533 Y94.657 E2.66114
G1 X88.457 Y94.934 F7800.000
G1 X88.102 Y95.887 F7800.000
G1 X88.812 Y96.221 E2.68668 F540.000
G1 X89.104 Y96.463 E2.69904
G1 X89.328 Y96.770 E2.71140
G1 X89.467 Y97.123 E2.72375
G1 X89.515 Y97.500 E2.73611
G1 X89.467 Y97.877 E2.74846
G1 X89.328 Y98.230 E2.76082
G1 X89.104 Y98.537 E2.77318
G1 X88.812 Y98.779 E2.78553
G1 X88.468 Y98.941 E2.79789
G1 X88.095 Y99.012 E2.81025
G1 X87.716 Y98.988 E2.82260
G1 X87.355 Y98.871 E2.83496
G1 X87.034 Y98.667 E2.84731
G1 X86.774 Y98.391 E2.85967
G1 X86.591 Y98.058 E2.87203
G1 X86.497 Y97.690 E2.88438
G1 X86.497 Y97.310 E2.89674
G1 X86.591 Y96.942 E2.90910
G1 X86.774 Y96.609 E2.92145
G1 X87.034 Y96.333 E2.93381
G1 X87.355 Y96.129 E2.94616
G1 X88.008 Y95.917 E2.96850
G1 X88.054 Y96.649 F7800.000
G1 X88.264 Y96.689 E2.97545 F540.000
G1 X88.457 Y96.780 E2.98241
G1 X88.622 Y96.916 E2.98936
G1 X88.747 Y97.089 E2.99632
G1 X88.826 Y97.288 E3.00327
G1 X88.853 Y97.500 E3.01023
G1 X88.826 Y97.712 E3.01718
G1 X88.747 Y97.911 E3.02414
G1 X88.622 Y98.084 E3.03109
G1 X88.457 Y98.220 E3.03805
G1 X88.264 Y98.311 E3.04500
G1 X88.054 Y98.351 E3.05196
G1 X87.840 Y98.338 E3.05891
G1 X87.637 Y98.272 E3.06587
G1 X87.456 Y98.157 E3.07282
G1 X87.310 Y98.001 E3.07978
G1 X87.207 Y97.814 E3.08673
G1 X87.154 Y97.607 E3.09369
G1 X87.154 Y97.393 E3.10064
G1 X87.207 Y97.186 E3.10760
G1 X87.310 Y96.999 E3.11455
G1 X87.456 Y96.843 E3.12151
G1 X87.637 Y96.728 E3.12846
G1 X87.840 Y96.662 E3.13542
G1 X87.955 Y96.655 E3.13916
G1 X88.179 Y96.476 F7800.000
G1 X83.220 Y102.327 F7800.000
G1 X83.660 Y102.691 E3.15774 F540.000
G1 X83.996 Y103.153 E3.17631
G1 X84.206 Y103.684 E3.19489
G1 X84.277 Y104.250 E3.21346
G1 X84.206 Y104.816 E3.23203
G1 X83.996 Y105.347 E3.25060
G1 X83.660 Y105.809 E3.26918
G1 X83.220 Y106.173 E3.28775
G1 X82.704 Y106.416 E3.30632
G1 X81.853 Y106.578 E3.33449
G1 X81.030 Y106.311 E3.36265
G1 X80.548 Y106.005 E3.38122
G1 X80.158 Y105.589 E3.39979
G1 X79.883 Y105.088 E3.41837
G1 X79.741 Y104.535 E3.43694
G1 X79.741 Y103.965 E3.45551
G1 X79.883 Y103.412 E3.47408
G1 X80.158 Y102.911 E3.49266
G1 X80.307 Y102.752 E3.49978
G1 X80.548 Y102.495 E3.51123
G1 X81.030 Y102.189 E3.52980
G1 X81.573 Y102.013 E3.54838
G1 X82.143 Y101.977 E3.56695
G1 X82.704 Y102.084 E3.58552
G1 X83.131 Y102.285 E3.60089
G1 X82.865 Y102.886 F7800.000
G1 X83.177 Y103.144 E3.61406 F540.000
G1 X83.257 Y103.254 E3.61849
G1 X83.415 Y103.472 E3.62723
G1 X83.564 Y103.848 E3.64041
G1 X83.615 Y104.250 E3.65358
G1 X83.564 Y104.652 E3.66675
G1 X83.415 Y105.028 E3.67992
G1 X83.177 Y105.356 E3.69309
G1 X82.865 Y105.614 E3.70626
G1 X82.499 Y105.786 E3.71944
G1 X82.101 Y105.862 E3.73261
G1 X81.697 Y105.836 E3.74578
G1 X81.312 Y105.711 E3.75895
G1 X80.970 Y105.494 E3.77212
G1 X80.693 Y105.199 E3.78530
G1 X80.498 Y104.845 E3.79847
G1 X80.398 Y104.452 E3.81164
G1 X80.398 Y104.048 E3.82481
G1 X80.498 Y103.656 E3.83798
G1 X80.693 Y103.301 E3.85115
G1 X80.786 Y103.202 E3.85558
G1 X80.971 Y103.006 E3.86433
G1 X81.312 Y102.789 E3.87750
G1 X81.697 Y102.664 E3.89067
G1 X82.101 Y102.638 E3.90384
G1 X82.499 Y102.714 E3.91701
G1 X82.776 Y102.844 E3.92698
G1 X82.511 Y103.446 F7800.000
G1 X82.726 Y103.641 E3.93643 F540.000
G1 X82.835 Y103.791 E3.94247
G1 X82.923 Y104.013 E3.95025
G1 X82.953 Y104.250 E3.95802
G1 X82.923 Y104.487 E3.96579
G1 X82.835 Y104.709 E3.97356
G1 X82.695 Y104.902 E3.98133
G1 X82.511 Y105.054 E3.98910
G1 X82.294 Y105.156 E3.99687
G1 X82.007 Y105.198 E4.00632
G1 X81.821 Y105.186 E4.01236
G1 X81.594 Y105.112 E4.02013
G1 X81.393 Y104.984 E4.02790
G1 X81.229 Y104.810 E4.03567
G1 X81.114 Y104.601 E4.04345
G1 X81.055 Y104.369 E4.05122
G1 X81.055 Y104.131 E4.05898
G1 X81.114 Y103.899 E4.06676
G1 X81.265 Y103.651 E4.07621
G1 X81.393 Y103.516 E4.08225
G1 X81.594 Y103.388 E4.09002
G1 X81.821 Y103.314 E4.09779
G1 X82.060 Y103.299 E4.10556
G1 X82.294 Y103.344 E4.11333
G1 X82.421 Y103.404 E4.11790
G1 X82.777 Y103.330 F7800.000
G1 X91.741 Y103.965 F7800.000
G1 X91.883 Y103.412 E4.13647 F540.000
G1 X91.988 Y103.220 E4.14360
G1 X92.158 Y102.911 E4.15504
G1 X92.548 Y102.495 E4.17362
G1 X93.030 Y102.189 E4.19219
G1 X93.573 Y102.013 E4.21077
G1 X94.143 Y101.977 E4.22934
G1 X94.704 Y102.084 E4.24791
G1 X95.220 Y102.327 E4.26649
G1 X95.660 Y102.691 E4.28506
G1 X95.996 Y103.153 E4.30363
G1 X96.206 Y103.684 E4.32221
G1 X96.277 Y104.250 E4.34078
G1 X96.206 Y104.816 E4.35935
G1 X95.996 Y105.347 E4.37793
G1 X95.660 Y105.809 E4.39650
G1 X95.220 Y106.173 E4.41507
G1 X94.704 Y106.416 E4.43365
G1 X93.853 Y106.578 E4.46181
G1 X93.030 Y106.311 E4.48997
G1 X92.548 Y106.005 E4.50854
G1 X92.158 Y105.589 E4.52711
G1 X91.883 Y105.088 E4.54569
G1 X91.741 Y104.535 E4.56426
G1 X91.741 Y104.063 E4.57962
G1 X92.398 Y104.048 F7800.000
G1 X92.498 Y103.656 E4.59280 F540.000
G1 X92.564 Y103.536 E4.59722
G1 X92.693 Y103.301 E4.60597
G1 X92.971 Y103.006 E4.61914
G1 X93.312 Y102.789 E4.63231
G1 X93.697 Y102.664 E4.64548
G1 X94.101 Y102.638 E4.65866
G1 X94.499 Y102.714 E4.67183
G1 X94.865 Y102.886 E4.68500
G1 X95.177 Y103.144 E4.69817
G1 X95.415 Y103.472 E4.71135
G1 X95.564 Y103.848 E4.72452
G1 X95.615 Y104.250 E4.73769
G1 X95.564 Y104.652 E4.75086
G1 X95.415 Y105.028 E4.76403
G1 X95.177 Y105.356 E4.77720
G1 X94.865 Y105.614 E4.79037
G1 X94.499 Y105.786 E4.80355
G1 X94.102 Y105.862 E4.81672
G1 X93.697 Y105.836 E4.82989
G1 X93.312 Y105.711 E4.84306
G1 X92.970 Y105.494 E4.85623
G1 X92.693 Y105.199 E4.86941
G1 X92.498 Y104.845 E4.88258
G1 X92.398 Y104.452 E4.89575
G1 X92.398 Y104.146 E4.90571
G1 X93.055 Y104.131 F7800.000
G1 X93.140 Y103.853 E4.91516 F540.000
G1 X93.229 Y103.690 E4.92121
G1 X93.393 Y103.516 E4.92898
G1 X93.645 Y103.372 E4.93843
G1 X93.821 Y103.314 E4.94448
G1 X94.060 Y103.299 E4.95225
G1 X94.342 Y103.366 E4.96170
G1 X94.511 Y103.446 E4.96774
G1 X94.695 Y103.598 E4.97551
G1 X94.835 Y103.791 E4.98328
G1 X94.923 Y104.013 E4.99105
G1 X94.953 Y104.250 E4.99882
G1 X94.923 Y104.487 E5.00659
G1 X94.835 Y104.709 E5.01437
G1 X94.695 Y104.902 E5.02214
G1 X94.511 Y105.054 E5.02991
G1 X94.294 Y105.156 E5.03768
G1 X94.060 Y105.201 E5.04545
G1 X93.821 Y105.186 E5.05322
G1 X93.594 Y105.112 E5.06099
G1 X93.393 Y104.984 E5.06876
G1 X93.229 Y104.810 E5.07653
G1 X93.114 Y104.601 E5.08430
G1 X93.055 Y104.369 E5.09207
G1 X93.055 Y104.229 E5.09663
G1 X92.837 Y103.939 F7800.000
G1 F1800.000 E4.09663
G92 E0
G1 X99.716 Y104.039 F7800.000
G1 E1.00000 F1800.000
G1 X99.716 Y103.462 E1.01877 F540.000
G1 X99.771 Y103.245 E1.02606
G1 X99.859 Y102.902 E1.03755
G1 X100.137 Y102.397 E1.05633
G1 X100.532 Y101.976 E1.07511
G1 X100.721 Y101.856 E1.08239
G1 X101.020 Y101.667 E1.09388
G1 X101.569 Y101.488 E1.11266
G1 X102.144 Y101.452 E1.13144
G1 X102.364 Y101.494 E1.13872
G1 X102.711 Y101.560 E1.15022
G1 X103.234 Y101.806 E1.16899
G1 X103.678 Y102.174 E1.18777
G1 X104.018 Y102.641 E1.20655
G1 X104.230 Y103.177 E1.22532
G1 X104.302 Y103.750 E1.24410
G1 X104.230 Y104.323 E1.26288
G1 X104.018 Y104.859 E1.28166
G1 X103.678 Y105.326 E1.30043
G1 X103.234 Y105.694 E1.31921
G1 X102.052 Y106.250 E1.36170
