; generated by Slic3r 1.1.6 on 2014-07-17 at 15:26:50

; perimeters extrusion width = 0.50mm
; infill extrusion width = 0.50mm
; solid infill extrusion width = 0.50mm
; top infill extrusion width = 0.50mm

G21 ; set units to millimeters
M107
M190 S70 ; wait for bed temperature to be reached
M104 S190 ; set temperature
G28 ; home all axes

M109 S190 ; wait for temperature to be reached
G90 ; use absolute coordinates
G92 E0
M82 ; use absolute distances for extrusion
G1 F900.000 E-0.70000
G92 E0
G1 Z0.200 F9000.000
G1 X98.082 Y135.014 F9000.000
G1 E0.70000 F900.000
G1 X100.315 Y133.606 E0.72988 F2160.000
G1 X102.628 Y132.335 E0.75976
G1 X105.014 Y131.206 E0.78963
G1 X107.464 Y130.223 E0.81950
G1 X108.957 Y129.708 E0.83737
G1 X109.968 Y129.390 E0.84938
G1 X112.517 Y128.710 E0.87923
G1 X115.105 Y128.185 E0.90912
G1 X116.666 Y127.947 E0.92699
G1 X117.719 Y127.817 E0.93900
G1 X120.350 Y127.608 E0.96887
G1 X122.989 Y127.557 E0.99874
G1 X124.567 Y127.605 E1.01661
G1 X125.626 Y127.667 E1.02862
G1 X127.199 Y127.809 E1.04648
G1 X128.252 Y127.935 E1.05849
G1 X130.857 Y128.361 E1.08837
G1 X133.431 Y128.944 E1.11824
G1 X135.965 Y129.681 E1.14810
G1 X138.451 Y130.570 E1.17798
G1 X139.910 Y131.175 E1.19586
G1 X140.878 Y131.607 E1.20786
G1 X142.298 Y132.299 E1.22573
G1 X143.238 Y132.789 E1.23773
G1 X145.523 Y134.112 E1.26761
G1 X147.723 Y135.570 E1.29748
G1 X148.995 Y136.506 E1.31536
G1 X149.831 Y137.158 E1.32736
G1 X151.840 Y138.870 E1.35723
G1 X153.741 Y140.701 E1.38710
G1 X154.823 Y141.850 E1.40497
G1 X155.529 Y142.643 E1.41698
G1 X157.196 Y144.689 E1.44685
G1 X158.736 Y146.832 E1.47672
G1 X160.144 Y149.065 E1.50659
G1 X160.920 Y150.440 E1.52447
G1 X161.415 Y151.378 E1.53647
G1 X162.544 Y153.764 E1.56634
G1 X163.527 Y156.214 E1.59621
G1 X164.360 Y158.718 E1.62608
G1 X165.040 Y161.269 E1.65596
G1 X165.371 Y162.812 E1.67382
G1 X165.565 Y163.855 E1.68584
G1 X165.803 Y165.416 E1.70370
G1 X165.933 Y166.469 E1.71571
G1 X166.142 Y169.100 E1.74558
G1 X166.193 Y170.761 E1.76438
G1 X165.902 Y174.343 E1.80507
G1 X164.828 Y177.774 E1.84575
G1 X163.025 Y180.883 E1.88643
G1 X160.580 Y183.518 E1.92711
G1 X157.614 Y185.549 E1.96779
G1 X154.274 Y186.876 E2.00847
G1 X150.000 Y187.450 E2.05727
G1 X95.000 Y187.450 E2.67975
G1 X91.428 Y187.051 E2.72043
G1 X88.031 Y185.875 E2.76111
G1 X84.978 Y183.978 E2.80179
G1 X82.418 Y181.455 E2.84247
G1 X80.478 Y178.429 E2.88315
G1 X79.252 Y175.050 E2.92383
G1 X78.807 Y170.761 E2.97264
G1 X78.917 Y168.123 E3.00251
G1 X79.197 Y165.416 E3.03332
G1 X79.611 Y162.893 E3.06225
G1 X80.194 Y160.319 E3.09213
G1 X80.931 Y157.784 E3.12200
G1 X81.820 Y155.299 E3.15187
G1 X82.858 Y152.872 E3.18174
G1 X84.080 Y150.439 E3.21256
G1 X85.362 Y148.227 E3.24149
G1 X86.820 Y146.027 E3.27136
G1 X88.461 Y143.855 E3.30217
G1 X90.120 Y141.911 E3.33110
G1 X91.951 Y140.009 E3.36098
G1 X93.100 Y138.927 E3.37884
G1 X93.893 Y138.221 E3.39085
G1 X95.938 Y136.555 E3.42071
G1 X98.033 Y135.049 E3.44991
G1 X98.299 Y135.350 F9000.000
G1 X100.511 Y133.954 E3.47952 F2160.000
G1 X102.803 Y132.694 E3.50912
G1 X105.167 Y131.576 E3.53872
G1 X107.594 Y130.601 E3.56832
G1 X109.087 Y130.086 E3.58619
G1 X110.076 Y129.776 E3.59792
G1 X112.601 Y129.101 E3.62750
G1 X115.166 Y128.580 E3.65711
G1 X116.726 Y128.343 E3.67498
G1 X117.755 Y128.215 E3.68672
G1 X120.362 Y128.007 E3.71631
G1 X122.977 Y127.957 E3.74592
G1 X124.555 Y128.005 E3.76378
G1 X125.590 Y128.065 E3.77552
G1 X127.162 Y128.208 E3.79338
G1 X128.192 Y128.330 E3.80512
G1 X130.773 Y128.752 E3.83472
G1 X133.324 Y129.329 E3.86432
G1 X135.835 Y130.059 E3.89391
G1 X138.298 Y130.940 E3.92352
G1 X139.757 Y131.544 E3.94139
G1 X140.703 Y131.967 E3.95312
G1 X142.123 Y132.658 E3.97099
G1 X143.042 Y133.138 E3.98272
G1 X145.305 Y134.448 E4.01232
G1 X147.486 Y135.892 E4.04192
G1 X148.758 Y136.828 E4.05980
G1 X149.575 Y137.465 E4.07152
G1 X151.566 Y139.161 E4.10112
G1 X153.450 Y140.975 E4.13072
G1 X154.532 Y142.124 E4.14859
G1 X155.222 Y142.899 E4.16032
G1 X156.874 Y144.926 E4.18992
G1 X158.400 Y147.049 E4.21951
G1 X159.796 Y149.261 E4.24912
G1 X160.572 Y150.637 E4.26699
G1 X161.056 Y151.553 E4.27872
G1 X162.175 Y153.917 E4.30832
G1 X163.149 Y156.344 E4.33792
G1 X163.974 Y158.826 E4.36752
G1 X164.649 Y161.353 E4.39712
G1 X164.980 Y162.896 E4.41498
G1 X165.170 Y163.916 E4.42672
G1 X165.407 Y165.476 E4.44458
G1 X165.535 Y166.505 E4.45632
G1 X165.743 Y169.112 E4.48592
G1 X165.793 Y170.773 E4.50472
G1 X165.501 Y174.310 E4.54490
G1 X164.426 Y177.694 E4.58507
G1 X162.624 Y180.752 E4.62524
G1 X160.184 Y183.330 E4.66542
G1 X157.230 Y185.299 E4.70559
G1 X153.912 Y186.558 E4.74576
G1 X150.000 Y187.050 E4.79039
G1 X95.000 Y187.050 E5.41286
G1 X91.473 Y186.651 E5.45303
G1 X88.124 Y185.475 E5.49321
G1 X85.122 Y183.581 E5.53338
G1 X82.618 Y181.065 E5.57355
G1 X80.740 Y178.053 E5.61373
G1 X79.581 Y174.698 E5.65390
G1 X79.207 Y170.773 E5.69852
G1 X79.315 Y168.160 E5.72812
G1 X79.593 Y165.476 E5.75866
G1 X80.002 Y162.977 E5.78731
G1 X80.579 Y160.426 E5.81692
G1 X81.309 Y157.915 E5.84652
G1 X82.190 Y155.452 E5.87611
G1 X83.217 Y153.047 E5.90572
G1 X84.429 Y150.636 E5.93626
G1 X85.698 Y148.445 E5.96491
G1 X87.142 Y146.264 E5.99451
G1 X88.768 Y144.111 E6.02505
G1 X90.411 Y142.185 E6.05370
G1 X92.225 Y140.300 E6.08331
G1 X93.374 Y139.218 E6.10117
G1 X94.149 Y138.528 E6.11291
G1 X96.175 Y136.877 E6.14249
G1 X98.250 Y135.385 E6.17142
G1 X98.516 Y135.686 F9000.000
G1 X100.708 Y134.302 E6.20076 F2160.000
G1 X102.979 Y133.054 E6.23008
G1 X105.320 Y131.945 E6.25941
G1 X107.725 Y130.979 E6.28873
G1 X109.217 Y130.464 E6.30660
G1 X110.183 Y130.161 E6.31806
G1 X112.685 Y129.492 E6.34737
G1 X115.226 Y128.976 E6.37671
G1 X116.786 Y128.738 E6.39458
G1 X117.792 Y128.614 E6.40604
G1 X120.374 Y128.407 E6.43536
G1 X122.965 Y128.357 E6.46469
G1 X124.543 Y128.405 E6.48256
G1 X125.554 Y128.463 E6.49402
G1 X127.126 Y128.606 E6.51189
G1 X128.132 Y128.726 E6.52335
G1 X130.689 Y129.143 E6.55268
G1 X133.217 Y129.715 E6.58200
G1 X135.704 Y130.437 E6.61132
G1 X138.145 Y131.309 E6.64065
G1 X139.604 Y131.914 E6.65853
G1 X140.528 Y132.327 E6.66998
G1 X141.948 Y133.018 E6.68785
G1 X142.845 Y133.486 E6.69931
G1 X145.088 Y134.784 E6.72864
G1 X147.249 Y136.214 E6.75796
G1 X148.521 Y137.150 E6.77584
G1 X149.319 Y137.772 E6.78729
G1 X151.291 Y139.453 E6.81662
G1 X153.159 Y141.249 E6.84594
G1 X154.241 Y142.398 E6.86381
G1 X154.914 Y143.155 E6.87527
G1 X156.551 Y145.163 E6.90460
G1 X158.064 Y147.266 E6.93392
G1 X159.448 Y149.458 E6.96325
G1 X160.223 Y150.833 E6.98112
G1 X160.696 Y151.728 E6.99258
G1 X161.805 Y154.070 E7.02190
G1 X162.771 Y156.475 E7.05123
G1 X163.589 Y158.933 E7.08055
G1 X164.258 Y161.437 E7.10988
G1 X164.589 Y162.980 E7.12774
G1 X164.774 Y163.976 E7.13921
G1 X165.012 Y165.536 E7.15707
G1 X165.136 Y166.541 E7.16854
G1 X165.343 Y169.125 E7.19786
G1 X165.393 Y170.785 E7.21666
G1 X165.100 Y174.277 E7.25632
G1 X164.024 Y177.612 E7.29598
G1 X162.223 Y180.618 E7.33564
G1 X159.789 Y183.139 E7.37531
G1 X156.848 Y185.044 E7.41497
G1 X153.552 Y186.235 E7.45463
G1 X150.000 Y186.650 E7.49510
G1 X95.000 Y186.650 E8.11757
G1 X91.518 Y186.251 E8.15723
G1 X88.217 Y185.076 E8.19689
G1 X85.267 Y183.184 E8.23655
G1 X82.821 Y180.675 E8.27621
G1 X81.006 Y177.678 E8.31587
G1 X79.915 Y174.348 E8.35553
G1 X79.607 Y170.785 E8.39601
G1 X79.713 Y168.196 E8.42533
G1 X79.988 Y165.536 E8.45560
G1 X80.393 Y163.061 E8.48398
G1 X80.965 Y160.533 E8.51331
G1 X81.688 Y158.045 E8.54263
G1 X82.559 Y155.605 E8.57196
G1 X83.577 Y153.222 E8.60129
G1 X84.777 Y150.832 E8.63155
G1 X86.034 Y148.662 E8.65994
G1 X87.464 Y146.501 E8.68926
G1 X89.075 Y144.367 E8.71953
G1 X90.702 Y142.459 E8.74791
G1 X92.499 Y140.591 E8.77724
G1 X93.648 Y139.509 E8.79510
G1 X94.405 Y138.836 E8.80657
G1 X96.412 Y137.199 E8.83588
G1 X98.467 Y135.721 E8.86453
G1 X100.708 Y134.302 F7200.000 E8.54960
G1 X102.979 Y133.054 F7200.000 E8.24190
G1 X103.301 Y132.901 F7200.000 E8.19953
G1 F900.000 E8.16453
G92 E0
G1 X136.100 Y155.450 F9000.000
G1 E0.70000 F900.000
G1 X126.600 Y155.450 E0.80752 F864.000
G1 X126.600 Y150.450 E0.86411
G1 X136.100 Y150.450 E0.97162
G1 X136.100 Y155.390 E1.02753
G1 X125.000 Y155.450 F9000.000
G1 X120.000 Y155.450 E1.08412 F864.000
G1 X120.000 Y145.950 E1.19164
G1 X125.000 Y145.950 E1.24823
G1 X125.000 Y155.390 E1.35507
G1 X124.552 Y160.425 F9000.000
G1 X124.755 Y160.464 E1.35741 F864.000
G1 X124.943 Y160.552 E1.35976
G1 X125.103 Y160.684 E1.36210
G1 X125.224 Y160.852 E1.36445
G1 X125.301 Y161.044 E1.36679
G1 X125.327 Y161.250 E1.36914
G1 X125.301 Y161.456 E1.37148
G1 X125.224 Y161.648 E1.37383
G1 X125.103 Y161.816 E1.37617
G1 X124.943 Y161.948 E1.37852
G1 X124.755 Y162.036 E1.38086
G1 X124.552 Y162.075 E1.38321
G1 X124.345 Y162.062 E1.38555
G1 X124.148 Y161.998 E1.38790
G1 X123.973 Y161.887 E1.39024
G1 X123.831 Y161.736 E1.39259
G1 X123.731 Y161.554 E1.39493
G1 X123.680 Y161.354 E1.39728
G1 X123.688 Y161.114 E1.39999
G1 X123.731 Y160.946 E1.40196
G1 X123.831 Y160.764 E1.40430
G1 X123.973 Y160.613 E1.40665
G1 X124.148 Y160.502 E1.40899
G1 X124.345 Y160.438 E1.41134
G1 X124.492 Y160.429 E1.41300
G1 X124.755 Y160.464 F7200.000 E1.38147
G1 X124.943 Y160.552 F7200.000 E1.35685
G1 X125.103 Y160.684 F7200.000 E1.33225
G1 X125.224 Y160.852 F7200.000 E1.30764
G1 X125.301 Y161.044 F7200.000 E1.28304
G1 X125.327 Y161.250 F7200.000 E1.25843
G1 X125.301 Y161.456 F7200.000 E1.23383
G1 X125.224 Y161.648 F7200.000 E1.20923
G1 X125.103 Y161.816 F7200.000 E1.18461
G1 X124.943 Y161.948 F7200.000 E1.16000
G1 X124.755 Y162.036 F7200.000 E1.13541
G1 X124.552 Y162.075 F7200.000 E1.11080
G1 X124.345 Y162.062 F7200.000 E1.08620
G1 X124.148 Y161.998 F7200.000 E1.06159
G1 X123.973 Y161.887 F7200.000 E1.03699
G1 X123.831 Y161.736 F7200.000 E1.01239
G1 X123.731 Y161.554 F7200.000 E0.98778
G1 X123.680 Y161.354 F7200.000 E0.96317
G1 X123.688 Y161.114 F7200.000 E0.93475
G1 X123.731 Y160.946 F7200.000 E0.91407
G1 X123.831 Y160.764 F7200.000 E0.88947
G1 X123.973 Y160.613 F7200.000 E0.86485
G1 X124.148 Y160.502 F7200.000 E0.84025
G1 X124.345 Y160.438 F7200.000 E0.81566
G1 X124.492 Y160.429 F7200.000 E0.79816
G1 F900.000 E0.71300
G92 E0
G1 X124.552 Y165.425 F9000.000
G1 E0.70000 F900.000
G1 X124.755 Y165.464 E0.70234 F864.000
G1 X124.943 Y165.552 E0.70469
G1 X125.103 Y165.684 E0.70703
G1 X125.224 Y165.852 E0.70938
G1 X125.301 Y166.044 E0.71172
G1 X125.327 Y166.250 E0.71407
G1 X125.301 Y166.456 E0.71641
G1 X125.224 Y166.648 E0.71876
G1 X125.103 Y166.816 E0.72110
G1 X124.943 Y166.948 E0.72345
G1 X124.755 Y167.036 E0.72579
G1 X124.552 Y167.075 E0.72814
G1 X124.345 Y167.062 E0.73048
G1 X124.148 Y166.998 E0.73283
G1 X123.973 Y166.887 E0.73517
G1 X123.831 Y166.736 E0.73752
G1 X123.731 Y166.554 E0.73986
G1 X123.680 Y166.354 E0.74221
G1 X123.688 Y166.114 E0.74492
G1 X123.731 Y165.946 E0.74689
G1 X123.831 Y165.764 E0.74923
G1 X123.973 Y165.613 E0.75158
G1 X124.148 Y165.502 E0.75392
G1 X124.345 Y165.438 E0.75627
G1 X124.492 Y165.429 E0.75794
G1 X105.302 Y166.750 F9000.000
G1 X105.276 Y166.949 E0.76021 F864.000
G1 X105.202 Y167.136 E0.76248
G1 X105.084 Y167.299 E0.76476
G1 X104.930 Y167.427 E0.76703
G1 X104.748 Y167.512 E0.76931
G1 X104.550 Y167.550 E0.77158
G1 X104.350 Y167.537 E0.77385
G1 X104.159 Y167.475 E0.77613
G1 X103.989 Y167.368 E0.77840
G1 X103.851 Y167.221 E0.78068
G1 X103.755 Y167.045 E0.78295
G1 X103.705 Y166.850 E0.78522
G1 X103.705 Y166.650 E0.78750
G1 X103.755 Y166.455 E0.78977
G1 X103.851 Y166.279 E0.79205
G1 X103.989 Y166.132 E0.79432
G1 X104.159 Y166.025 E0.79660
G1 X104.350 Y165.963 E0.79887
G1 X104.550 Y165.950 E0.80114
G1 X104.748 Y165.988 E0.80342
G1 X104.930 Y166.073 E0.80569
G1 X105.084 Y166.201 E0.80797
G1 X105.202 Y166.364 E0.81024
G1 X105.276 Y166.551 E0.81251
G1 X105.294 Y166.690 E0.81411
G1 X104.550 Y162.550 F9000.000
G1 X104.350 Y162.537 E0.81638 F864.000
G1 X104.159 Y162.475 E0.81866
G1 X103.989 Y162.368 E0.82093
G1 X103.851 Y162.221 E0.82321
G1 X103.755 Y162.045 E0.82548
G1 X103.705 Y161.850 E0.82775
G1 X103.705 Y161.650 E0.83003
G1 X103.755 Y161.455 E0.83230
G1 X103.851 Y161.279 E0.83458
G1 X103.989 Y161.132 E0.83685
G1 X104.159 Y161.025 E0.83912
G1 X104.350 Y160.963 E0.84140
G1 X104.550 Y160.950 E0.84367
G1 X104.748 Y160.988 E0.84595
G1 X104.930 Y161.073 E0.84822
G1 X105.084 Y161.201 E0.85049
G1 X105.202 Y161.364 E0.85277
G1 X105.276 Y161.551 E0.85504
G1 X105.302 Y161.750 E0.85732
G1 X105.276 Y161.949 E0.85959
G1 X105.202 Y162.136 E0.86186
G1 X105.084 Y162.299 E0.86414
G1 X104.930 Y162.427 E0.86641
G1 X104.748 Y162.512 E0.86869
G1 X104.609 Y162.539 E0.87028
G1 X104.350 Y162.537 F7200.000 E0.83947
G1 X104.159 Y162.475 F7200.000 E0.81561
G1 X103.989 Y162.368 F7200.000 E0.79174
G1 X103.851 Y162.221 F7200.000 E0.76789
G1 X103.755 Y162.045 F7200.000 E0.74402
G1 X103.705 Y161.850 F7200.000 E0.72017
G1 X103.705 Y161.650 F7200.000 E0.69631
G1 X103.755 Y161.455 F7200.000 E0.67244
G1 X103.851 Y161.279 F7200.000 E0.64859
G1 X103.989 Y161.132 F7200.000 E0.62472
G1 X104.159 Y161.025 F7200.000 E0.60086
G1 X104.350 Y160.963 F7200.000 E0.57700
G1 X104.550 Y160.950 F7200.000 E0.55314
G1 X104.748 Y160.988 F7200.000 E0.52928
G1 X104.930 Y161.073 F7200.000 E0.50542
G1 X105.084 Y161.201 F7200.000 E0.48157
G1 X105.202 Y161.364 F7200.000 E0.45769
G1 X105.276 Y161.551 F7200.000 E0.43384
G1 X105.302 Y161.750 F7200.000 E0.40998
G1 X105.276 Y161.949 F7200.000 E0.38612
G1 X105.202 Y162.136 F7200.000 E0.36226
G1 X105.084 Y162.299 F7200.000 E0.33839
G1 X104.930 Y162.427 F7200.000 E0.31454
G1 X104.748 Y162.512 F7200.000 E0.29067
G1 X104.609 Y162.539 F7200.000 E0.27394
G1 F900.000 E0.17028
G92 E0
G1 X110.053 Y155.541 F9000.000
G1 E0.70000 F900.000
G1 X109.932 Y155.412 E0.70199 F864.000
G1 X109.848 Y155.258 E0.70398
G1 X109.804 Y155.088 E0.70597
G1 X109.804 Y154.912 E0.70796
G1 X109.848 Y154.742 E0.70995
G1 X109.932 Y154.588 E0.71194
G1 X110.053 Y154.459 E0.71393
G1 X110.201 Y154.365 E0.71592
G1 X110.369 Y154.311 E0.71791
G1 X110.544 Y154.300 E0.71990
G1 X110.717 Y154.333 E0.72189
G1 X110.876 Y154.408 E0.72388
G1 X111.011 Y154.520 E0.72587
G1 X111.115 Y154.662 E0.72787
G1 X111.180 Y154.826 E0.72986
G1 X111.202 Y155.000 E0.73185
G1 X111.180 Y155.174 E0.73384
G1 X111.115 Y155.338 E0.73583
G1 X111.011 Y155.480 E0.73782
G1 X110.876 Y155.592 E0.73981
G1 X110.717 Y155.667 E0.74180
G1 X110.544 Y155.700 E0.74379
G1 X110.369 Y155.689 E0.74578
G1 X110.201 Y155.635 E0.74777
G1 X110.103 Y155.573 E0.74908
G1 X109.932 Y155.412 F7200.000 E0.72124
G1 X109.848 Y155.258 F7200.000 E0.70035
G1 X109.804 Y155.088 F7200.000 E0.67947
G1 X109.804 Y154.912 F7200.000 E0.65859
G1 X109.848 Y154.742 F7200.000 E0.63771
G1 X109.932 Y154.588 F7200.000 E0.61682
G1 X110.053 Y154.459 F7200.000 E0.59593
G1 X110.201 Y154.365 F7200.000 E0.57505
G1 X110.369 Y154.311 F7200.000 E0.55417
G1 X110.544 Y154.300 F7200.000 E0.53328
G1 X110.717 Y154.333 F7200.000 E0.51240
G1 X110.876 Y154.408 F7200.000 E0.49152
G1 X111.011 Y154.520 F7200.000 E0.47064
G1 X111.115 Y154.662 F7200.000 E0.44975
G1 X111.180 Y154.826 F7200.000 E0.42886
G1 X111.202 Y155.000 F7200.000 E0.40798
G1 X111.180 Y155.174 F7200.000 E0.38710
G1 X111.115 Y155.338 F7200.000 E0.36621
G1 X111.011 Y155.480 F7200.000 E0.34533
G1 X110.876 Y155.592 F7200.000 E0.32444
G1 X110.717 Y155.667 F7200.000 E0.30356
G1 X110.544 Y155.700 F7200.000 E0.28268
G1 X110.369 Y155.689 F7200.000 E0.26179
G1 X110.201 Y155.635 F7200.000 E0.24091
G1 X110.103 Y155.573 F7200.000 E0.22715
G1 F900.000 E0.04908
G92 E0
G1 X110.369 Y152.189 F9000.000
G1 E0.70000 F900.000
G1 X110.201 Y152.135 E0.70199 F864.000
G1 X110.053 Y152.041 E0.70398
G1 X109.932 Y151.912 E0.70597
G1 X109.848 Y151.758 E0.70796
G1 X109.804 Y151.588 E0.70995
G1 X109.804 Y151.412 E0.71194
G1 X109.848 Y151.242 E0.71393
G1 X109.932 Y151.088 E0.71592
G1 X110.053 Y150.959 E0.71791
G1 X110.201 Y150.865 E0.71990
G1 X110.369 Y150.811 E0.72189
G1 X110.544 Y150.800 E0.72388
G1 X110.717 Y150.833 E0.72587
G1 X110.876 Y150.908 E0.72786
G1 X111.011 Y151.020 E0.72986
G1 X111.115 Y151.162 E0.73185
G1 X111.180 Y151.326 E0.73384
G1 X111.202 Y151.500 E0.73583
G1 X111.180 Y151.674 E0.73782
G1 X111.115 Y151.838 E0.73981
G1 X111.011 Y151.980 E0.74180
G1 X110.876 Y152.092 E0.74379
