; generated by Slic3r 1.1.6 on 2014-07-21 at 13:01:37

; perimeters extrusion width = 0.50mm
; infill extrusion width = 0.50mm
; solid infill extrusion width = 0.50mm
; top infill extrusion width = 0.50mm
; support material extrusion width = 0.50mm

G21 ; set units to millimeters
M107
M190 S70 ; wait for bed temperature to be reached
M104 S185 ; set temperature
G28 ; home all axes

M109 S185 ; wait for temperature to be reached
G90 ; use absolute coordinates
G92 E0
M82 ; use absolute distances for extrusion
G1 F900.000 E-0.70000
G92 E0
G1 Z0.200 F9000.000
G1 X92.357 Y116.544 F9000.000
G1 E0.70000 F900.000
G1 X93.793 Y115.487 E0.72017 F2160.000
G1 X94.576 Y114.941 E0.73097
G1 X96.879 Y113.465 E0.76193
G1 X99.261 Y112.116 E0.79292
G1 X101.713 Y110.901 E0.82389
G1 X104.227 Y109.824 E0.85485
G1 X106.800 Y108.886 E0.88583
G1 X108.502 Y108.353 E0.90602
G1 X109.417 Y108.092 E0.91679
G1 X112.077 Y107.443 E0.94778
G1 X114.767 Y106.942 E0.97875
G1 X117.482 Y106.591 E1.00973
G1 X120.210 Y106.389 E1.04069
G1 X122.947 Y106.338 E1.07167
G1 X124.728 Y106.387 E1.09184
G1 X125.743 Y106.443 E1.10334
G1 X128.468 Y106.697 E1.13431
G1 X131.114 Y107.090 E1.16459
G1 X133.795 Y107.639 E1.19556
G1 X135.523 Y108.077 E1.21574
G1 X136.440 Y108.335 E1.22652
G1 X139.045 Y109.176 E1.25751
G1 X141.599 Y110.160 E1.28848
G1 X143.231 Y110.876 E1.30864
G1 X144.095 Y111.283 E1.31945
G1 X146.525 Y112.542 E1.35042
G1 X148.882 Y113.932 E1.38140
G1 X151.158 Y115.451 E1.41237
G1 X153.347 Y117.092 E1.44333
G1 X155.443 Y118.853 E1.47431
G1 X156.753 Y120.061 E1.49448
G1 X157.438 Y120.726 E1.50529
G1 X159.327 Y122.706 E1.53626
G1 X161.103 Y124.787 E1.56722
G1 X162.763 Y126.964 E1.59820
G1 X163.777 Y128.429 E1.61837
G1 X164.300 Y129.228 E1.62917
G1 X165.709 Y131.573 E1.66015
G1 X166.988 Y133.994 E1.69112
G1 X167.747 Y135.607 E1.71130
G1 X168.130 Y136.480 E1.72209
G1 X169.134 Y139.025 E1.75306
G1 X169.996 Y141.623 E1.78404
G1 X170.479 Y143.339 E1.80421
G1 X170.714 Y144.264 E1.81501
G1 X171.284 Y146.940 E1.84598
G1 X171.707 Y149.644 E1.87696
G1 X171.900 Y151.416 E1.89713
G1 X171.983 Y152.429 E1.90863
G1 X172.101 Y155.101 E1.93890
G1 X172.072 Y157.838 E1.96988
G1 X171.892 Y160.569 E2.00085
G1 X171.562 Y163.285 E2.03182
G1 X171.083 Y165.979 E2.06279
G1 X170.456 Y168.643 E2.09377
G1 X169.682 Y171.268 E2.12474
G1 X168.766 Y173.847 E2.15571
G1 X167.708 Y176.370 E2.18668
G1 X166.513 Y178.833 E2.21765
G1 X165.661 Y180.398 E2.23782
G1 X165.207 Y181.187 E2.24813
G1 X160.953 Y188.068 E2.33969
G1 X159.393 Y190.270 E2.37023
G1 X157.705 Y192.378 E2.40079
G1 X155.897 Y194.384 E2.43135
G1 X154.703 Y195.587 E2.45054
G1 X153.976 Y196.281 E2.46191
G1 X152.713 Y197.412 E2.48110
G1 X151.947 Y198.062 E2.49247
G1 X150.621 Y199.117 E2.51165
G1 X149.817 Y199.721 E2.52303
G1 X148.431 Y200.698 E2.54222
G1 X147.594 Y201.253 E2.55359
G1 X145.286 Y202.653 E2.58414
G1 X142.899 Y203.916 E2.61470
G1 X140.443 Y205.036 E2.64525
G1 X138.869 Y205.665 E2.66444
G1 X137.926 Y206.012 E2.67581
G1 X136.317 Y206.548 E2.69500
G1 X135.356 Y206.839 E2.70637
G1 X132.742 Y207.514 E2.73693
G1 X131.082 Y207.858 E2.75611
G1 X130.093 Y208.035 E2.76748
G1 X127.418 Y208.401 E2.79804
G1 X124.726 Y208.610 E2.82860
G1 X123.031 Y208.660 E2.84779
G1 X122.027 Y208.661 E2.85916
G1 X119.329 Y208.555 E2.88971
G1 X116.642 Y208.291 E2.92027
G1 X114.965 Y208.044 E2.93946
G1 X113.975 Y207.870 E2.95082
G1 X111.337 Y207.295 E2.98138
G1 X108.738 Y206.566 E3.01194
G1 X106.185 Y205.687 E3.04249
G1 X103.689 Y204.660 E3.07304
G1 X101.256 Y203.489 E3.10360
G1 X98.896 Y202.178 E3.13415
G1 X96.616 Y200.731 E3.16471
G1 X94.425 Y199.153 E3.19527
G1 X92.330 Y197.451 E3.22583
G1 X90.338 Y195.629 E3.25638
G1 X88.456 Y193.693 E3.28694
G1 X87.334 Y192.422 E3.30612
G1 X86.690 Y191.651 E3.31749
G1 X85.046 Y189.509 E3.34805
G1 X83.553 Y187.312 E3.37812
G1 X79.368 Y180.452 E3.46906
G1 X78.082 Y178.037 E3.50003
G1 X76.931 Y175.553 E3.53101
G1 X75.919 Y173.010 E3.56198
G1 X75.049 Y170.417 E3.59294
G1 X74.323 Y167.777 E3.62392
G1 X73.744 Y165.103 E3.65490
G1 X73.313 Y162.400 E3.68587
G1 X73.032 Y159.679 E3.71683
G1 X72.902 Y156.945 E3.74781
G1 X72.922 Y154.209 E3.77878
G1 X73.093 Y151.477 E3.80976
G1 X73.287 Y149.705 E3.82993
G1 X73.415 Y148.760 E3.84072
G1 X73.886 Y146.063 E3.87170
G1 X74.504 Y143.398 E3.90267
G1 X75.269 Y140.770 E3.93365
G1 X75.846 Y139.083 E3.95383
G1 X76.178 Y138.189 E3.96462
G1 X77.228 Y135.661 E3.99559
G1 X78.415 Y133.196 E4.02657
G1 X79.261 Y131.628 E4.04674
G1 X79.736 Y130.799 E4.05754
G1 X81.188 Y128.480 E4.08851
G1 X82.765 Y126.243 E4.11948
G1 X84.464 Y124.097 E4.15046
G1 X86.278 Y122.048 E4.18143
G1 X88.201 Y120.103 E4.21239
G1 X90.231 Y118.266 E4.24337
G1 X92.311 Y116.581 E4.27367
G1 X92.595 Y116.866 F9000.000
G1 X94.030 Y115.810 E4.29383 F2160.000
G1 X94.795 Y115.276 E4.30439
G1 X97.079 Y113.811 E4.33510
G1 X99.442 Y112.473 E4.36584
G1 X101.874 Y111.267 E4.39656
G1 X104.368 Y110.198 E4.42726
G1 X106.919 Y109.268 E4.45800
G1 X108.621 Y108.735 E4.47819
G1 X109.515 Y108.480 E4.48871
G1 X112.154 Y107.836 E4.51945
G1 X114.822 Y107.339 E4.55017
G1 X117.515 Y106.989 E4.58090
G1 X120.221 Y106.789 E4.61161
G1 X122.936 Y106.738 E4.64234
G1 X124.717 Y106.787 E4.66251
G1 X125.710 Y106.842 E4.67376
G1 X128.413 Y107.094 E4.70448
G1 X131.037 Y107.482 E4.73451
G1 X133.696 Y108.027 E4.76523
G1 X135.425 Y108.465 E4.78541
G1 X136.320 Y108.717 E4.79594
G1 X138.905 Y109.551 E4.82668
G1 X141.438 Y110.526 E4.85740
G1 X143.070 Y111.243 E4.87757
G1 X143.914 Y111.640 E4.88813
G1 X146.325 Y112.888 E4.91885
G1 X148.663 Y114.267 E4.94957
G1 X150.921 Y115.773 E4.98029
G1 X153.092 Y117.401 E5.01101
G1 X155.172 Y119.147 E5.04174
G1 X156.482 Y120.355 E5.06191
G1 X157.151 Y121.005 E5.07246
G1 X159.025 Y122.969 E5.10318
G1 X160.787 Y125.032 E5.13390
G1 X162.434 Y127.191 E5.16463
G1 X163.448 Y128.657 E5.18480
G1 X163.959 Y129.437 E5.19535
G1 X165.357 Y131.763 E5.22607
G1 X166.626 Y134.164 E5.25680
G1 X167.385 Y135.777 E5.27697
G1 X167.760 Y136.630 E5.28752
G1 X168.756 Y139.155 E5.31824
G1 X169.611 Y141.732 E5.34897
G1 X170.094 Y143.447 E5.36913
G1 X170.323 Y144.351 E5.37969
G1 X170.890 Y147.006 E5.41041
G1 X171.309 Y149.688 E5.44114
G1 X171.503 Y151.460 E5.46131
G1 X171.583 Y152.450 E5.47256
G1 X171.701 Y155.100 E5.50258
G1 X171.673 Y157.815 E5.53331
G1 X171.495 Y160.524 E5.56403
G1 X171.168 Y163.219 E5.59475
G1 X170.693 Y165.891 E5.62547
G1 X170.071 Y168.534 E5.65620
G1 X169.304 Y171.138 E5.68692
G1 X168.395 Y173.695 E5.71764
G1 X167.347 Y176.199 E5.74836
G1 X166.162 Y178.641 E5.77909
G1 X165.310 Y180.207 E5.79925
G1 X164.866 Y180.978 E5.80932
G1 X160.625 Y187.840 E5.90063
G1 X159.078 Y190.024 E5.93091
G1 X157.405 Y192.113 E5.96120
G1 X155.613 Y194.102 E5.99150
G1 X154.419 Y195.305 E6.01069
G1 X153.709 Y195.983 E6.02179
G1 X152.446 Y197.114 E6.04099
G1 X151.698 Y197.749 E6.05209
G1 X150.372 Y198.804 E6.07127
G1 X149.587 Y199.394 E6.08238
G1 X148.201 Y200.371 E6.10157
G1 X147.383 Y200.914 E6.11268
G1 X145.095 Y202.301 E6.14297
G1 X142.729 Y203.553 E6.17326
G1 X140.295 Y204.665 E6.20355
G1 X138.721 Y205.294 E6.22273
G1 X137.799 Y205.633 E6.23384
G1 X136.191 Y206.168 E6.25303
G1 X135.252 Y206.453 E6.26414
G1 X132.660 Y207.122 E6.29443
G1 X131.001 Y207.467 E6.31361
G1 X130.035 Y207.640 E6.32472
G1 X127.383 Y208.003 E6.35501
G1 X124.714 Y208.210 E6.38530
G1 X123.019 Y208.260 E6.40450
G1 X122.038 Y208.261 E6.41560
G1 X119.364 Y208.156 E6.44589
G1 X116.700 Y207.895 E6.47618
G1 X115.023 Y207.648 E6.49537
G1 X114.056 Y207.479 E6.50647
G1 X111.441 Y206.908 E6.53677
G1 X108.864 Y206.187 E6.56706
G1 X106.334 Y205.315 E6.59735
G1 X103.858 Y204.298 E6.62764
G1 X101.446 Y203.137 E6.65793
G1 X99.107 Y201.838 E6.68821
G1 X96.846 Y200.404 E6.71851
G1 X94.674 Y198.841 E6.74880
G1 X92.597 Y197.153 E6.77910
G1 X90.622 Y195.347 E6.80938
G1 X88.755 Y193.428 E6.83968
G1 X87.633 Y192.157 E6.85886
G1 X87.004 Y191.404 E6.86997
G1 X85.375 Y189.281 E6.90026
G1 X83.894 Y187.102 E6.93008
G1 X79.719 Y180.261 E7.02079
G1 X78.444 Y177.865 E7.05150
G1 X77.302 Y175.402 E7.08223
G1 X76.297 Y172.880 E7.11295
G1 X75.434 Y170.307 E7.14366
G1 X74.714 Y167.689 E7.17440
G1 X74.139 Y165.036 E7.20512
G1 X73.711 Y162.356 E7.23584
G1 X73.432 Y159.656 E7.26656
G1 X73.302 Y156.944 E7.29729
G1 X73.321 Y154.230 E7.32800
G1 X73.491 Y151.520 E7.35873
G1 X73.684 Y149.748 E7.37890
G1 X73.809 Y148.825 E7.38945
G1 X74.276 Y146.150 E7.42018
G1 X74.889 Y143.506 E7.45090
G1 X75.648 Y140.899 E7.48162
G1 X76.225 Y139.212 E7.50180
G1 X76.549 Y138.339 E7.51234
G1 X77.589 Y135.832 E7.54307
G1 X78.767 Y133.386 E7.57379
G1 X79.613 Y131.818 E7.59396
G1 X80.077 Y131.009 E7.60452
G1 X81.517 Y128.707 E7.63524
G1 X83.081 Y126.489 E7.66596
G1 X84.766 Y124.360 E7.69669
G1 X86.565 Y122.327 E7.72741
G1 X88.472 Y120.397 E7.75812
G1 X90.485 Y118.574 E7.78885
G1 X92.548 Y116.904 E7.81890
G1 X92.832 Y117.188 F9000.000
G1 X94.267 Y116.132 E7.83906 F2160.000
G1 X95.014 Y115.611 E7.84937
G1 X97.279 Y114.157 E7.87983
G1 X99.623 Y112.830 E7.91032
G1 X102.035 Y111.634 E7.94079
G1 X104.508 Y110.573 E7.97125
G1 X107.039 Y109.650 E8.00173
G1 X108.741 Y109.117 E8.02192
G1 X109.613 Y108.868 E8.03219
G1 X112.230 Y108.229 E8.06268
G1 X114.877 Y107.735 E8.09315
G1 X117.548 Y107.388 E8.12363
G1 X120.232 Y107.189 E8.15410
G1 X122.925 Y107.138 E8.18457
G1 X124.706 Y107.187 E8.20474
G1 X125.677 Y107.241 E8.21574
G1 X128.358 Y107.490 E8.24622
G1 X130.960 Y107.875 E8.27599
G1 X133.598 Y108.414 E8.30646
G1 X135.327 Y108.853 E8.32665
G1 X136.201 Y109.098 E8.33692
G1 X138.765 Y109.926 E8.36741
G1 X141.277 Y110.892 E8.39788
G1 X142.909 Y111.609 E8.41805
G1 X143.733 Y111.997 E8.42836
G1 X146.124 Y113.234 E8.45883
G1 X148.444 Y114.602 E8.48931
G1 X150.684 Y116.095 E8.51978
G1 X152.838 Y117.710 E8.55024
G1 X154.901 Y119.441 E8.58072
G1 X156.211 Y120.649 E8.60089
G1 X156.864 Y121.284 E8.61120
G1 X158.723 Y123.231 E8.64167
G1 X160.471 Y125.278 E8.67213
G1 X162.105 Y127.419 E8.70262
G1 X163.119 Y128.885 E8.72279
G1 X163.618 Y129.646 E8.73308
G1 X165.005 Y131.953 E8.76356
G1 X166.264 Y134.334 E8.79404
G1 X167.023 Y135.947 E8.81421
G1 X167.389 Y136.780 E8.82451
G1 X168.377 Y139.284 E8.85498
G1 X169.226 Y141.840 E8.88546
G1 X169.709 Y143.555 E8.90562
G1 X169.933 Y144.438 E8.91593
G1 X170.495 Y147.071 E8.94640
G1 X170.912 Y149.731 E8.97688
G1 X171.105 Y151.503 E8.99705
G1 X171.184 Y152.472 E9.00805
G1 X171.301 Y155.100 E9.03782
G1 X171.274 Y157.792 E9.06830
G1 X171.097 Y160.479 E9.09877
G1 X170.773 Y163.152 E9.12924
G1 X170.303 Y165.803 E9.15972
G1 X169.686 Y168.424 E9.19019
G1 X168.926 Y171.007 E9.22066
G1 X168.025 Y173.544 E9.25113
G1 X166.985 Y176.027 E9.28160
G1 X165.810 Y178.450 E9.31208
G1 X164.959 Y180.016 E9.33225
G1 X164.525 Y180.768 E9.34208
G1 X160.296 Y187.612 E9.43313
G1 X158.763 Y189.777 E9.46315
G1 X157.106 Y191.849 E9.49318
G1 X155.330 Y193.821 E9.52321
G1 X154.135 Y195.024 E9.54240
G1 X153.442 Y195.685 E9.55324
G1 X152.179 Y196.817 E9.57243
G1 X151.449 Y197.436 E9.58327
G1 X150.123 Y198.491 E9.60245
G1 X149.357 Y199.067 E9.61330
G1 X147.971 Y200.044 E9.63249
G1 X147.173 Y200.574 E9.64333
G1 X144.904 Y201.950 E9.67336
G1 X142.560 Y203.191 E9.70338
G1 X140.146 Y204.294 E9.73341
G1 X138.572 Y204.922 E9.75259
G1 X137.673 Y205.253 E9.76344
G1 X136.064 Y205.789 E9.78263
G1 X135.148 Y206.066 E9.79347
G1 X132.579 Y206.731 E9.82349
G1 X130.919 Y207.075 E9.84268
G1 X129.977 Y207.244 E9.85352
G1 X127.348 Y207.604 E9.88355
G1 X124.703 Y207.810 E9.91358
G1 X123.007 Y207.860 E9.93277
G1 X122.050 Y207.862 E9.94361
G1 X119.399 Y207.758 E9.97363
G1 X116.759 Y207.499 E10.00366
G1 X115.081 Y207.252 E10.02285
G1 X114.138 Y207.087 E10.03369
G1 X111.545 Y206.522 E10.06372
G1 X108.991 Y205.807 E10.09374
G1 X106.482 Y204.944 E10.12377
G1 X104.028 Y203.936 E10.15379
G1 X101.637 Y202.786 E10.18382
G1 X99.318 Y201.498 E10.21384
G1 X97.077 Y200.077 E10.24387
G1 X94.923 Y198.528 E10.27390
G1 X92.864 Y196.855 E10.30393
G1 X90.906 Y195.065 E10.33395
G1 X89.055 Y193.164 E10.36398
G1 X87.933 Y191.893 E10.38317
G1 X87.319 Y191.157 E10.39401
G1 X85.703 Y189.053 E10.42404
G1 X84.234 Y186.893 E10.45360
G1 X80.071 Y180.070 E10.54407
G1 X78.805 Y177.694 E10.57454
G1 X77.672 Y175.251 E10.60502
G1 X76.676 Y172.749 E10.63549
G1 X75.819 Y170.198 E10.66595
G1 X75.104 Y167.601 E10.69643
G1 X74.533 Y164.970 E10.72691
G1 X74.108 Y162.311 E10.75738
G1 X73.831 Y159.633 E10.78784
G1 X73.702 Y156.943 E10.81833
G1 X73.721 Y154.251 E10.84879
G1 X73.888 Y151.564 E10.87927
G1 X74.082 Y149.792 E10.89944
G1 X74.204 Y148.891 E10.90973
G1 X74.666 Y146.237 E10.94022
G1 X75.274 Y143.615 E10.97069
G1 X76.026 Y141.029 E11.00116
G1 X76.603 Y139.342 E11.02134
G1 X76.919 Y138.489 E11.03163
G1 X77.951 Y136.002 E11.06211
G1 X79.119 Y133.576 E11.09258
G1 X79.965 Y132.008 E11.11275
G1 X80.418 Y131.218 E11.12306
G1 X81.846 Y128.935 E11.15353
G1 X83.397 Y126.734 E11.18400
G1 X85.067 Y124.622 E11.21448
G1 X86.852 Y122.606 E11.24495
G1 X88.744 Y120.691 E11.27541
G1 X90.740 Y118.883 E11.30590
G1 X92.785 Y117.226 E11.33569
G1 X94.267 Y116.132 F7200.000 E11.11697
G1 X95.014 Y115.611 F7200.000 E11.00881
G1 X97.279 Y114.157 F7200.000 E10.68920
G1 X97.415 Y114.080 F7200.000 E10.67069
G1 F900.000 E10.63569
G92 E0
G1 X123.412 Y163.905 F9000.000
G1 E0.70000 F900.000
G1 X123.026 Y164.086 E0.70483 F864.000
G1 X122.607 Y164.166 E0.70965
G1 X122.181 Y164.140 E0.71448
G1 X121.775 Y164.008 E0.71931
G1 X121.415 Y163.779 E0.72414
G1 X121.123 Y163.468 E0.72896
G1 X120.918 Y163.094 E0.73379
G1 X120.812 Y162.681 E0.73862
G1 X120.812 Y162.255 E0.74345
G1 X120.918 Y161.842 E0.74827
G1 X121.123 Y161.468 E0.75310
G1 X121.415 Y161.157 E0.75793
G1 X121.776 Y160.928 E0.76276
G1 X122.181 Y160.797 E0.76758
G1 X122.607 Y160.770 E0.77241
G1 X123.026 Y160.850 E0.77724
G1 X123.412 Y161.031 E0.78207
G1 X123.740 Y161.303 E0.78689
G1 X123.991 Y161.648 E0.79172
G1 X124.148 Y162.045 E0.79655
G1 X124.202 Y162.468 E0.80137
G1 X124.148 Y162.891 E0.80620
G1 X123.991 Y163.288 E0.81103
G1 X123.740 Y163.633 E0.81586
G1 X123.458 Y163.867 E0.82000
G1 X138.899 Y187.348 F9000.000
G1 X137.464 Y188.239 E0.83912 F864.000
G1 X135.933 Y189.069 E0.85883
G1 X134.356 Y189.808 E0.87854
G1 X132.738 Y190.454 E0.89825
G1 X131.086 Y191.004 E0.91796
G1 X129.404 Y191.457 E0.93768
G1 X127.699 Y191.811 E0.95739
G1 X125.976 Y192.065 E0.97710
G1 X124.241 Y192.217 E0.99681
G1 X122.500 Y192.268 E1.01652
G1 X120.759 Y192.217 E1.03623
G1 X119.024 Y192.065 E1.05594
G1 X117.301 Y191.811 E1.07565
G1 X115.596 Y191.457 E1.09536
G1 X113.914 Y191.004 E1.11507
G1 X112.262 Y190.454 E1.13478
G1 X110.644 Y189.808 E1.15450
G1 X109.067 Y189.069 E1.17421
G1 X107.536 Y188.239 E1.19392
G1 X106.057 Y187.321 E1.21363
G1 X104.633 Y186.318 E1.23334
G1 X103.270 Y185.233 E1.25305
G1 X101.973 Y184.071 E1.27276
G1 X100.746 Y182.835 E1.29247
G1 X99.628 Y181.569 E1.31159
G1 X98.519 Y180.158 E1.33189
G1 X97.527 Y178.727 E1.35160
G1 X96.619 Y177.241 E1.37131
G1 X95.792 Y175.688 E1.39123
G1 X94.735 Y174.170 E1.41216
G1 X93.772 Y172.611 E1.43290
G1 X92.897 Y171.002 E1.45363
G1 X92.112 Y169.347 E1.47437
G1 X91.419 Y167.650 E1.49510
G1 X90.821 Y165.919 E1.51584
G1 X90.319 Y164.157 E1.53657
G1 X89.915 Y162.370 E1.55731
G1 X89.610 Y160.563 E1.57804
G1 X89.406 Y158.742 E1.59878
G1 X89.302 Y156.913 E1.61952
G1 X89.302 Y155.025 E1.64088
G1 X89.397 Y153.251 E1.66099
G1 X89.596 Y151.430 E1.68172
G1 X89.895 Y149.623 E1.70246
G1 X90.293 Y147.834 E1.72319
G1 X90.789 Y146.071 E1.74393
G1 X91.382 Y144.337 E1.76466
G1 X92.093 Y142.588 E1.78603
G1 X92.849 Y140.981 E1.80613
G1 X93.720 Y139.369 E1.82687
G1 X94.677 Y137.807 E1.84761
G1 X95.720 Y136.300 E1.86834
G1 X96.844 Y134.853 E1.88908
G1 X98.046 Y133.471 E1.90981
G1 X99.323 Y132.156 E1.93055
G1 X100.670 Y130.914 E1.95128
G1 X102.083 Y129.749 E1.97202
G1 X103.559 Y128.663 E1.99275
G1 X105.092 Y127.660 E2.01349
G1 X106.678 Y126.743 E2.03423
G1 X108.312 Y125.915 E2.05496
G1 X110.042 Y125.159 E2.07633
G1 X111.705 Y124.535 E2.09643
G1 X113.454 Y123.988 E2.11717
G1 X115.230 Y123.537 E2.13790
G1 X117.028 Y123.186 E2.15864
G1 X118.843 Y122.934 E2.17937
G1 X120.669 Y122.783 E2.20011
G1 X122.500 Y122.732 E2.22085
G1 X124.331 Y122.783 E2.24158
G1 X126.157 Y122.934 E2.26232
