; generated by Slic3r 1.1.6 on 2014-07-18 at 13:38:35

; perimeters extrusion width = 0.50mm
; infill extrusion width = 0.50mm
; solid infill extrusion width = 0.50mm
; top infill extrusion width = 0.50mm

G21 ; set units to millimeters
M107
M190 S70 ; wait for bed temperature to be reached
M104 S185 ; set temperature
G28 ; home all axes

M109 S185 ; wait for temperature to be reached
G90 ; use absolute coordinates
G92 E0
M82 ; use absolute distances for extrusion
G1 F900.000 E-0.70000
G92 E0
G1 Z0.200 F9000.000
G1 X104.803 Y127.119 F9000.000
G1 E0.70000 F900.000
G1 X107.790 Y125.120 E0.74068 F2160.000
G1 X111.145 Y123.829 E0.78136
G1 X115.250 Y123.300 E0.82821
G1 X129.750 Y123.300 E0.99231
G1 X133.322 Y123.699 E1.03299
G1 X136.719 Y124.875 E1.07367
G1 X139.772 Y126.772 E1.11435
G1 X142.670 Y129.727 E1.16120
G1 X157.549 Y149.409 E1.44044
G1 X158.582 Y150.856 E1.46056
G1 X159.175 Y151.748 E1.47268
G1 X160.110 Y153.259 E1.49280
G1 X160.644 Y154.188 E1.50492
G1 X161.952 Y156.718 E1.53716
G1 X162.681 Y158.335 E1.55723
G1 X163.092 Y159.329 E1.56940
G1 X164.059 Y162.008 E1.60164
G1 X164.850 Y164.744 E1.63388
G1 X165.252 Y166.473 E1.65396
G1 X165.461 Y167.526 E1.66611
G1 X165.889 Y170.342 E1.69835
G1 X166.062 Y172.107 E1.71843
G1 X166.133 Y173.180 E1.73059
G1 X166.191 Y174.973 E1.75090
G1 X165.909 Y178.556 E1.79158
G1 X164.844 Y181.989 E1.83226
G1 X163.047 Y185.103 E1.87294
G1 X160.609 Y187.743 E1.91362
G1 X157.648 Y189.781 E1.95430
G1 X154.310 Y191.116 E1.99498
G1 X150.000 Y191.700 E2.04421
G1 X95.000 Y191.700 E2.66668
G1 X91.428 Y191.301 E2.70736
G1 X88.031 Y190.125 E2.74804
G1 X84.978 Y188.228 E2.78872
G1 X82.418 Y185.705 E2.82940
G1 X80.478 Y182.679 E2.87008
G1 X79.252 Y179.300 E2.91077
G1 X78.809 Y174.973 E2.95999
G1 X78.938 Y172.107 E2.99247
G1 X79.248 Y169.295 E3.02448
G1 X79.744 Y166.492 E3.05670
G1 X80.422 Y163.724 E3.08895
G1 X81.279 Y161.007 E3.12119
G1 X82.311 Y158.353 E3.15342
G1 X83.513 Y155.770 E3.18567
G1 X84.879 Y153.276 E3.21785
G1 X86.407 Y150.873 E3.25008
G1 X87.721 Y149.041 E3.27560
G1 X102.330 Y129.727 E3.54967
G1 X104.762 Y127.162 E3.58967
G1 X105.095 Y127.396 F9000.000
G1 X108.053 Y125.434 E3.62985 F2160.000
G1 X111.375 Y124.183 E3.67002
G1 X115.250 Y123.700 E3.71422
G1 X129.750 Y123.700 E3.87832
G1 X133.277 Y124.099 E3.91850
G1 X136.626 Y125.275 E3.95867
G1 X139.628 Y127.169 E3.99885
G1 X142.351 Y129.968 E4.04304
G1 X157.224 Y149.641 E4.32216
G1 X158.256 Y151.089 E4.34228
G1 X158.835 Y151.958 E4.35410
G1 X159.770 Y153.470 E4.37422
G1 X160.291 Y154.376 E4.38605
G1 X161.587 Y156.883 E4.41799
G1 X162.317 Y158.499 E4.43806
G1 X162.717 Y159.469 E4.44994
G1 X163.676 Y162.123 E4.48188
G1 X164.460 Y164.835 E4.51382
G1 X164.862 Y166.563 E4.53391
G1 X165.066 Y167.591 E4.54577
G1 X165.491 Y170.381 E4.57771
G1 X165.664 Y172.146 E4.59778
G1 X165.733 Y173.193 E4.60966
G1 X165.792 Y174.986 E4.62996
G1 X165.508 Y178.524 E4.67013
G1 X164.441 Y181.910 E4.71030
G1 X162.646 Y184.972 E4.75048
G1 X160.212 Y187.556 E4.79065
G1 X157.263 Y189.532 E4.83083
G1 X153.947 Y190.799 E4.87100
G1 X150.000 Y191.300 E4.91603
G1 X95.000 Y191.300 E5.53851
G1 X91.473 Y190.901 E5.57868
G1 X88.124 Y189.725 E5.61885
G1 X85.122 Y187.831 E5.65903
G1 X82.618 Y185.315 E5.69920
G1 X80.740 Y182.303 E5.73938
G1 X79.581 Y178.948 E5.77955
G1 X79.208 Y174.986 E5.82458
G1 X79.336 Y172.146 E5.85676
G1 X79.643 Y169.360 E5.88848
G1 X80.134 Y166.583 E5.92040
G1 X80.805 Y163.839 E5.95236
G1 X81.653 Y161.148 E5.98431
G1 X82.675 Y158.517 E6.01624
G1 X83.867 Y155.958 E6.04819
G1 X85.219 Y153.487 E6.08008
G1 X86.733 Y151.105 E6.11202
G1 X88.040 Y149.282 E6.13740
G1 X102.649 Y129.968 E6.41148
G1 X105.053 Y127.439 E6.45097
G1 X105.386 Y127.674 F9000.000
G1 X108.315 Y125.750 E6.49063 F2160.000
G1 X111.603 Y124.538 E6.53029
G1 X115.250 Y124.100 E6.57186
G1 X129.750 Y124.100 E6.73597
G1 X133.232 Y124.499 E6.77563
G1 X136.533 Y125.674 E6.81529
G1 X139.483 Y127.566 E6.85495
G1 X142.032 Y130.210 E6.89652
G1 X156.898 Y149.873 E7.17551
G1 X157.930 Y151.321 E7.19563
G1 X158.495 Y152.169 E7.20715
G1 X159.430 Y153.680 E7.22727
G1 X159.938 Y154.563 E7.23881
G1 X161.223 Y157.047 E7.27045
G1 X161.952 Y158.664 E7.29052
G1 X162.343 Y159.609 E7.30210
G1 X163.293 Y162.239 E7.33375
G1 X164.071 Y164.925 E7.36540
G1 X164.472 Y166.654 E7.38548
G1 X164.671 Y167.656 E7.39705
G1 X165.093 Y170.420 E7.42870
G1 X165.266 Y172.185 E7.44877
G1 X165.333 Y173.206 E7.46035
G1 X165.392 Y174.999 E7.48065
G1 X165.107 Y178.492 E7.52031
G1 X164.039 Y181.829 E7.55997
G1 X162.245 Y184.839 E7.59963
G1 X159.816 Y187.366 E7.63929
G1 X156.880 Y189.278 E7.67895
G1 X153.587 Y190.476 E7.71861
G1 X150.000 Y190.900 E7.75949
G1 X95.000 Y190.900 E8.38196
G1 X91.518 Y190.501 E8.42162
G1 X88.217 Y189.326 E8.46128
G1 X85.267 Y187.434 E8.50094
G1 X82.821 Y184.925 E8.54060
G1 X81.006 Y181.928 E8.58026
G1 X79.915 Y178.598 E8.61992
G1 X79.608 Y174.999 E8.66080
G1 X79.732 Y172.205 E8.69245
G1 X80.038 Y169.425 E8.72410
G1 X80.528 Y166.652 E8.75597
G1 X81.188 Y163.955 E8.78740
G1 X82.028 Y161.288 E8.81904
G1 X83.040 Y158.682 E8.85068
G1 X84.220 Y156.146 E8.88234
G1 X85.560 Y153.697 E8.91393
G1 X87.058 Y151.337 E8.94557
G1 X88.359 Y149.523 E8.97083
G1 X102.968 Y130.210 E9.24491
G1 X105.345 Y127.717 E9.28389
G1 X108.315 Y125.750 F7200.000 E8.86081
G1 X110.227 Y125.045 F7200.000 E8.61889
G1 F900.000 E8.58389
G92 E0
G1 X129.550 Y149.120 F9000.000
G1 E0.70000 F900.000
G1 X131.398 Y149.691 E0.72189 F864.000
G1 X133.060 Y150.325 E0.74203
G1 X134.678 Y151.067 E0.76217
G1 X136.244 Y151.912 E0.78231
G1 X137.752 Y152.858 E0.80245
G1 X139.195 Y153.900 E0.82259
G1 X140.567 Y155.033 E0.84273
G1 X141.862 Y156.254 E0.86288
G1 X143.075 Y157.556 E0.88302
G1 X144.200 Y158.935 E0.90316
G1 X145.233 Y160.384 E0.92330
G1 X146.163 Y161.886 E0.94329
G1 X147.006 Y163.468 E0.96358
G1 X147.737 Y165.091 E0.98372
G1 X148.362 Y166.757 E1.00387
G1 X148.877 Y168.461 E1.02401
G1 X149.279 Y170.194 E1.04415
G1 X149.568 Y171.950 E1.06429
G1 X149.742 Y173.721 E1.08443
G1 X149.793 Y175.300 E1.10231
G1 X146.944 Y175.300 E1.13456
G1 X146.898 Y173.900 E1.15041
G1 X146.741 Y172.308 E1.16852
G1 X146.480 Y170.729 E1.18664
G1 X146.122 Y169.194 E1.20447
G1 X145.652 Y167.639 E1.22286
G1 X145.088 Y166.141 E1.24098
G1 X144.438 Y164.705 E1.25881
G1 X143.673 Y163.272 E1.27720
G1 X142.827 Y161.913 E1.29531
G1 X141.895 Y160.612 E1.31343
G1 X140.879 Y159.375 E1.33154
G1 X139.802 Y158.225 E1.34937
G1 X138.617 Y157.114 E1.36776
G1 X137.379 Y156.099 E1.38587
G1 X136.099 Y155.181 E1.40371
G1 X134.719 Y154.322 E1.42210
G1 X133.308 Y153.568 E1.44021
G1 X131.850 Y152.908 E1.45832
G1 X130.375 Y152.353 E1.47616
G1 X128.815 Y151.880 E1.49461
G1 X127.245 Y151.515 E1.51285
G1 X125.711 Y151.262 E1.53045
G1 X124.108 Y151.103 E1.54867
G1 X122.500 Y151.050 E1.56688
G1 X120.892 Y151.103 E1.58510
G1 X119.289 Y151.262 E1.60332
G1 X117.755 Y151.515 E1.62092
G1 X116.185 Y151.880 E1.63916
G1 X114.625 Y152.353 E1.65761
G1 X113.150 Y152.908 E1.67545
G1 X111.692 Y153.568 E1.69356
G1 X110.281 Y154.322 E1.71167
G1 X108.901 Y155.181 E1.73006
G1 X107.621 Y156.099 E1.74789
G1 X106.383 Y157.114 E1.76601
G1 X105.198 Y158.225 E1.78440
G1 X104.121 Y159.375 E1.80223
G1 X103.105 Y160.612 E1.82034
G1 X102.173 Y161.913 E1.83846
G1 X101.327 Y163.272 E1.85657
G1 X100.562 Y164.705 E1.87496
G1 X99.912 Y166.141 E1.89279
G1 X99.348 Y167.639 E1.91091
G1 X98.878 Y169.194 E1.92930
G1 X98.520 Y170.729 E1.94713
G1 X98.259 Y172.308 E1.96525
G1 X98.102 Y173.900 E1.98336
G1 X98.056 Y175.300 E1.99921
G1 X95.207 Y175.300 E2.03146
G1 X95.258 Y173.721 E2.04934
G1 X95.432 Y171.950 E2.06948
G1 X95.721 Y170.194 E2.08962
G1 X96.123 Y168.461 E2.10976
G1 X96.638 Y166.757 E2.12990
G1 X97.263 Y165.091 E2.15005
G1 X97.994 Y163.468 E2.17019
G1 X98.837 Y161.886 E2.19048
G1 X99.767 Y160.384 E2.21047
G1 X100.800 Y158.935 E2.23061
G1 X101.926 Y157.556 E2.25075
G1 X103.138 Y156.254 E2.27089
G1 X104.433 Y155.033 E2.29104
G1 X105.805 Y153.900 E2.31118
G1 X107.248 Y152.858 E2.33132
G1 X108.756 Y151.912 E2.35146
G1 X110.322 Y151.067 E2.37160
G1 X111.940 Y150.325 E2.39174
G1 X113.602 Y149.691 E2.41188
G1 X115.450 Y149.120 E2.43377
G1 X115.450 Y139.700 E2.54039
G1 X129.550 Y139.700 E2.69997
G1 X129.550 Y149.060 E2.80591
G1 X130.414 Y149.670 F9000.000
G1 X134.808 Y154.064 E2.87623 F1800.000
G1 X133.588 Y153.412 F9000.000
G1 X120.146 Y139.970 E3.09138 F1800.000
G1 X120.714 Y139.970 E3.09782
G1 X129.280 Y148.536 E3.23491
G1 X129.280 Y147.967 E3.24135
G1 X121.283 Y139.970 E3.36935
G1 X121.851 Y139.970 E3.37578
G1 X129.280 Y147.399 E3.49469
G1 X129.280 Y146.831 E3.50112
G1 X122.419 Y139.970 E3.61093
G1 X122.988 Y139.970 E3.61736
G1 X129.280 Y146.262 E3.71807
G1 X129.280 Y145.694 E3.72450
G1 X123.556 Y139.970 E3.81611
G1 X124.125 Y139.970 E3.82255
G1 X129.280 Y145.125 E3.90506
G1 X129.280 Y144.557 E3.91150
G1 X124.693 Y139.970 E3.98491
G1 X125.261 Y139.970 E3.99135
G1 X129.280 Y143.989 E4.05567
G1 X129.280 Y143.420 E4.06210
G1 X125.830 Y139.970 E4.11732
G1 X126.398 Y139.970 E4.12376
G1 X129.280 Y142.852 E4.16988
G1 X129.280 Y142.283 E4.17632
G1 X126.967 Y139.970 E4.21335
G1 X127.535 Y139.970 E4.21978
G1 X129.280 Y141.715 E4.24771
G1 X129.280 Y141.147 E4.25414
G1 X128.103 Y139.970 E4.27298
G1 X128.672 Y139.970 E4.27941
G1 X129.280 Y140.578 E4.28915
G1 X129.280 Y140.010 E4.29558
G1 X129.240 Y139.970 E4.29622
G1 X129.280 Y140.010 F7200.000 E4.28950
G1 X129.280 Y140.578 F7200.000 E4.22201
G1 X128.672 Y139.970 F7200.000 E4.11984
G1 X128.103 Y139.970 F7200.000 E4.05234
G1 X129.280 Y141.147 F7200.000 E3.85472
G1 X129.280 Y141.715 F7200.000 E3.78723
G1 X128.351 Y140.786 F7200.000 E3.63122
G1 F900.000 E3.59622
G92 E0
G1 X131.236 Y149.923 F9000.000
G1 E0.70000 F900.000
G1 X136.321 Y155.008 E0.78138 F1800.000
G1 X138.335 Y153.612 F9000.000
G1 X144.391 Y159.668 E0.87831 F1800.000
G1 X145.528 Y161.373 F9000.000
G1 X136.623 Y152.469 E1.02083 F1800.000
G1 X135.291 Y151.704 F9000.000
G1 X146.295 Y162.709 E1.19696 F1800.000
G1 X146.893 Y163.875 F9000.000
G1 X134.131 Y151.113 E1.40122 F1800.000
G1 X133.082 Y150.632 F9000.000
G1 X147.360 Y164.911 E1.62976 F1800.000
G1 X147.735 Y165.854 F9000.000
G1 X141.101 Y159.220 E1.73595 F1800.000
G1 X142.992 Y161.679 F9000.000
G1 X148.076 Y166.763 E1.81732 F1800.000
G1 X145.838 Y167.367 F9000.000
G1 X149.073 Y170.602 E1.86910 F1800.000
G1 X149.185 Y171.282 E1.87690
G1 X146.104 Y168.202 E1.92620
G1 X146.351 Y169.016 E1.93584
G1 X149.297 Y171.962 E1.98299
G1 X149.360 Y172.594 E1.99018
G1 X146.533 Y169.767 E2.03543
G1 X146.706 Y170.509 E2.04404
G1 X149.422 Y173.225 E2.08751
G1 X149.476 Y173.847 E2.09458
G1 X146.832 Y171.203 E2.13690
G1 X146.944 Y171.884 E2.14471
G1 X149.495 Y174.434 E2.18553
G1 X149.498 Y175.006 E2.19200
G1 X147.035 Y172.543 E2.23141
G1 X147.097 Y173.174 E2.23858
G1 X148.954 Y175.030 E2.26830
G1 X148.385 Y175.030 E2.27473
G1 X147.160 Y173.804 E2.29435
G1 X147.184 Y174.397 E2.30107
G1 X147.817 Y175.030 E2.31120
G1 X147.249 Y175.030 E2.31763
G1 X147.203 Y174.985 E2.31836
G1 X145.495 Y166.456 F9000.000
G1 X148.932 Y169.893 E2.37337 F1800.000
G1 X148.760 Y169.153 E2.38198
G1 X145.083 Y165.475 E2.44084
G1 X144.586 Y164.410 F9000.000
G1 X148.577 Y168.401 E2.50471 F1800.000
G1 X148.330 Y167.586 E2.51434
G1 X143.936 Y163.191 E2.58469
G1 X138.778 Y156.897 F9000.000
G1 X132.147 Y150.266 E2.69082 F1800.000
G1 X131.544 Y152.505 F9000.000
G1 X119.009 Y139.970 E2.89145 F1800.000
G1 X119.578 Y139.970 E2.89788
G1 X132.525 Y152.918 E3.10512
G1 X130.633 Y152.162 F9000.000
G1 X118.441 Y139.970 E3.30026 F1800.000
G1 X117.872 Y139.970 E3.30669
G1 X129.799 Y151.896 E3.49757
G1 X128.982 Y151.648 E3.50723
G1 X117.304 Y139.970 E3.69415
G1 X116.736 Y139.970 E3.70058
G1 X128.233 Y151.467 E3.88460
G1 X127.493 Y151.296 E3.89320
G1 X116.167 Y139.970 E4.07448
G1 X115.720 Y140.091 E4.07972
G1 X126.796 Y151.168 E4.25701
G1 X126.116 Y151.055 E4.26482
G1 X115.720 Y140.659 E4.43121
G1 X115.720 Y141.228 E4.43764
G1 X125.458 Y150.966 E4.59350
G1 X124.827 Y150.903 E4.60067
G1 X115.720 Y141.796 E4.74643
G1 X115.720 Y142.365 E4.75287
G1 X124.196 Y150.840 E4.88853
G1 X123.603 Y150.816 E4.89524
G1 X115.720 Y142.933 E5.02141
G1 X115.720 Y143.501 E5.02785
G1 X123.015 Y150.797 E5.14461
G1 X122.432 Y150.782 E5.15122
G1 X115.720 Y144.070 E5.25865
G1 X115.720 Y144.638 E5.26508
G1 X121.882 Y150.800 E5.36371
G1 X121.332 Y150.818 E5.36994
G1 X115.720 Y145.206 E5.45976
G1 X115.720 Y145.775 E5.46620
G1 X120.787 Y150.842 E5.54730
G1 X120.270 Y150.893 E5.55318
G1 X115.720 Y146.343 E5.62601
G1 X115.720 Y146.912 E5.63244
G1 X119.753 Y150.945 E5.69699
G1 X119.237 Y150.997 E5.70286
G1 X115.720 Y147.480 E5.75915
G1 X115.720 Y148.048 E5.76559
G1 X118.749 Y151.077 E5.81407
G1 X118.261 Y151.158 E5.81966
G1 X115.720 Y148.617 E5.86034
G1 X115.720 Y149.185 E5.86677
G1 X117.773 Y151.239 E5.89964
G1 X117.308 Y151.342 E5.90503
G1 X115.388 Y149.422 E5.93576
G1 X114.954 Y149.556 E5.94090
G1 X116.847 Y151.449 E5.97120
G1 X116.386 Y151.556 E5.97656
G1 X114.520 Y149.690 E6.00642
G1 X114.086 Y149.824 E6.01157
G1 X115.935 Y151.673 E6.04116
G1 X115.499 Y151.806 E6.04632
G1 X113.653 Y149.960 E6.07586
G1 X113.242 Y150.117 E6.08084
G1 X115.063 Y151.938 E6.10999
G1 X114.627 Y152.071 E6.11514
G1 X112.831 Y150.274 E6.14389
G1 X112.419 Y150.431 E6.14888
G1 X114.209 Y152.221 E6.17753
G1 X113.796 Y152.377 E6.18252
G1 X112.010 Y150.590 E6.21112
G1 X111.620 Y150.769 E6.21597
G1 X113.383 Y152.532 E6.24419
G1 X112.974 Y152.692 E6.24916
G1 X111.230 Y150.948 E6.27707
G1 X110.840 Y151.126 E6.28193
G1 X112.583 Y152.869 E6.30982
G1 X112.192 Y153.046 E6.31468
G1 X110.451 Y151.305 E6.34254
G1 X110.081 Y151.504 E6.34729
G1 X111.801 Y153.223 E6.37481
G1 X111.418 Y153.409 E6.37963
G1 X109.712 Y151.703 E6.40693
G1 X109.343 Y151.902 E6.41168
G1 X111.048 Y153.607 E6.43896
G1 X110.677 Y153.805 E6.44372
G1 X108.974 Y152.101 E6.47098
G1 X108.620 Y152.316 E6.47566
G1 X110.307 Y154.002 E6.50265
G1 X109.947 Y154.212 E6.50736
G1 X108.271 Y152.535 E6.53419
G1 X107.922 Y152.754 E6.53886
G1 X109.597 Y154.430 E6.56568
G1 X109.247 Y154.648 E6.57035
G1 X107.572 Y152.973 E6.59715
G1 X107.233 Y153.202 E6.60179
G1 X108.897 Y154.866 E6.62842
G1 X108.557 Y155.095 E6.63305
G1 X106.903 Y153.440 E6.65954
G1 X106.573 Y153.679 E6.66415
G1 X108.226 Y155.333 E6.69062
G1 X107.895 Y155.570 E6.69523
G1 X106.242 Y153.917 E6.72168
G1 X105.916 Y154.159 E6.72628
G1 X107.564 Y155.807 E6.75266
G1 X107.246 Y156.057 E6.75725
G1 X105.605 Y154.416 E6.78351
G1 X105.293 Y154.673 E6.78808
G1 X106.933 Y156.313 E6.81434
G1 X106.621 Y156.569 E6.81891
G1 X104.982 Y154.930 E6.84514
G1 X104.671 Y155.187 E6.84971
G1 X106.309 Y156.825 E6.87593
G1 X106.009 Y157.094 E6.88049
G1 X104.375 Y155.460 E6.90665
G1 X104.082 Y155.735 E6.91120
G1 X105.716 Y157.369 E6.93735
G1 X105.423 Y157.644 E6.94190
G1 X103.790 Y156.011 E6.96804
G1 X103.497 Y156.287 E6.97259
G1 X105.129 Y157.919 E6.99872
G1 X104.847 Y158.205 E7.00327
G1 X103.212 Y156.571 E7.02943
G1 X102.938 Y156.865 E7.03398
G1 X104.572 Y158.499 E7.06013
G1 X104.297 Y158.792 E7.06468
G1 X102.664 Y157.159 E7.09081
G1 X102.390 Y157.454 E7.09536
G1 X104.022 Y159.086 E7.12148
G1 X103.759 Y159.391 E7.12605
G1 X102.117 Y157.749 E7.15232
G1 X101.861 Y158.062 E7.15690
G1 X103.503 Y159.703 E7.18316
G1 X103.246 Y160.015 E7.18773
G1 X101.606 Y158.375 E7.21399
G1 X101.351 Y158.688 E7.21856
G1 X102.990 Y160.327 E7.24480
G1 X102.745 Y160.651 E7.24939
G1 X101.095 Y159.001 E7.27580
G1 X100.853 Y159.326 E7.28040
G1 X102.508 Y160.982 E7.30690
G1 X102.271 Y161.313 E7.31151
G1 X100.616 Y159.658 E7.33799
G1 X100.379 Y159.990 E7.34260
G1 X102.033 Y161.644 E7.36908
G1 X101.808 Y161.987 E7.37372
G1 X100.143 Y160.322 E7.40038
G1 X99.913 Y160.661 E7.40501
G1 X101.591 Y162.338 E7.43186
G1 X101.373 Y162.688 E7.43653
G1 X99.696 Y161.012 E7.46336
G1 X99.479 Y161.363 E7.46804
G1 X101.155 Y163.039 E7.49486
G1 X100.951 Y163.404 E7.49959
G1 X99.261 Y161.714 E7.52663
G1 X99.047 Y162.067 E7.53131
G1 X100.753 Y163.774 E7.55863
G1 X100.556 Y164.145 E7.56339
G1 X98.849 Y162.438 E7.59070
G1 X98.652 Y162.809 E7.59546
G1 X100.358 Y164.515 E7.62277
G1 X100.177 Y164.903 E7.62761
G1 X98.454 Y163.180 E7.65518
G1 X98.256 Y163.551 E7.65993
