; generated by Slic3r 1.1.6 on 2014-07-18 at 15:52:58

; perimeters extrusion width = 0.50mm
; infill extrusion width = 0.50mm
; solid infill extrusion width = 0.50mm
; top infill extrusion width = 0.50mm
; support material extrusion width = 0.50mm

G21 ; set units to millimeters
M107
M190 S70 ; wait for bed temperature to be reached
M104 S185 ; set temperature
G28 ; home all axes

M109 S185 ; wait for temperature to be reached
G90 ; use absolute coordinates
G92 E0
M82 ; use absolute distances for extrusion
G1 F900.000 E-0.70000
G92 E0
G1 Z0.200 F9000.000
G1 X43.712 Y170.677 F9000.000
G1 E0.70000 F900.000
G1 X184.524 Y107.550 E2.44648 F2160.000
G1 X187.947 Y106.453 E2.48716
G1 X191.527 Y106.137 E2.52784
G1 X195.089 Y106.619 E2.56852
G1 X198.458 Y107.874 E2.60921
G1 X201.882 Y110.197 E2.65604
G1 X204.982 Y112.938 E2.70288
G1 X207.394 Y115.603 E2.74356
G1 X209.159 Y118.735 E2.78424
G1 X210.190 Y122.178 E2.82492
G1 X210.437 Y125.764 E2.86560
G1 X209.886 Y129.316 E2.90628
G1 X208.734 Y132.333 E2.94283
G1 X208.026 Y133.746 E2.96072
G1 X205.575 Y137.335 E3.00990
G1 X203.403 Y139.743 E3.04661
G1 X201.290 Y142.017 E3.08174
G1 X199.253 Y144.144 E3.11508
G1 X196.327 Y147.021 E3.16151
G1 X170.387 Y168.839 E3.54513
G1 X167.372 Y170.934 E3.58668
G1 X164.455 Y172.884 E3.62639
G1 X161.583 Y174.734 E3.66506
G1 X160.170 Y175.620 E3.68394
G1 X157.369 Y177.331 E3.72108
G1 X155.981 Y178.156 E3.73935
G1 X153.231 Y179.746 E3.77531
G1 X151.903 Y180.493 E3.79255
G1 X149.481 Y181.774 E3.82356
G1 X120.499 Y194.737 E4.18289
G1 X116.950 Y195.965 E4.22538
G1 X113.473 Y197.098 E4.26677
G1 X110.021 Y198.156 E4.30763
G1 X107.752 Y198.815 E4.33438
G1 X105.500 Y199.442 E4.36083
G1 X102.133 Y200.329 E4.40024
G1 X99.888 Y200.885 E4.42642
G1 X97.724 Y201.398 E4.45158
G1 X95.438 Y201.867 E4.47800
G1 X65.157 Y206.222 E4.82424
G1 X62.190 Y206.400 E4.85788
G1 X58.238 Y206.570 E4.90265
G1 X54.250 Y206.666 E4.94780
G1 X50.523 Y206.688 E4.98998
G1 X46.950 Y206.293 E5.03066
G1 X43.553 Y205.121 E5.07134
G1 X40.497 Y203.228 E5.11202
G1 X37.934 Y200.707 E5.15270
G1 X36.748 Y199.044 E5.17582
G1 X36.252 Y198.248 E5.18644
G1 X34.704 Y195.004 E5.22712
G1 X33.909 Y191.498 E5.26780
G1 X33.808 Y189.691 E5.28828
G1 X33.808 Y186.120 E5.32870
G1 X34.207 Y182.548 E5.36938
G1 X35.525 Y178.861 E5.41369
G1 X35.856 Y178.201 E5.42205
G1 X37.814 Y175.186 E5.46273
G1 X40.387 Y172.677 E5.50342
G1 X43.661 Y170.708 E5.54665
G1 X43.876 Y171.042 F9000.000
G1 X184.688 Y107.915 E7.29313 F2160.000
G1 X188.069 Y106.836 E7.33330
G1 X191.606 Y106.540 E7.37348
G1 X195.121 Y107.040 E7.41365
G1 X198.435 Y108.312 E7.45382
G1 X201.617 Y110.497 E7.49751
G1 X204.717 Y113.238 E7.54435
G1 X207.096 Y115.873 E7.58453
G1 X208.826 Y118.973 E7.62470
G1 X209.820 Y122.380 E7.66487
G1 X210.028 Y125.924 E7.70505
G1 X209.441 Y129.424 E7.74522
G1 X208.376 Y132.154 E7.77838
G1 X207.668 Y133.567 E7.79627
G1 X205.278 Y137.067 E7.84424
G1 X203.109 Y139.470 E7.88087
G1 X201.001 Y141.740 E7.91594
G1 X198.967 Y143.864 E7.94921
G1 X196.069 Y146.715 E7.99523
G1 X170.157 Y168.512 E8.37846
G1 X167.148 Y170.602 E8.41991
G1 X164.237 Y172.548 E8.45954
G1 X161.370 Y174.395 E8.49814
G1 X159.960 Y175.280 E8.51698
G1 X157.165 Y176.987 E8.55405
G1 X155.779 Y177.810 E8.57229
G1 X153.035 Y179.397 E8.60817
G1 X151.709 Y180.143 E8.62539
G1 X149.316 Y181.409 E8.65603
G1 X120.365 Y194.360 E9.01497
G1 X116.824 Y195.585 E9.05738
G1 X113.353 Y196.716 E9.09869
G1 X109.909 Y197.773 E9.13947
G1 X107.644 Y198.430 E9.16617
G1 X105.396 Y199.055 E9.19257
G1 X102.036 Y199.941 E9.23190
G1 X99.795 Y200.496 E9.25802
G1 X97.635 Y201.008 E9.28315
G1 X95.381 Y201.471 E9.30920
G1 X65.132 Y205.823 E9.65507
G1 X62.169 Y206.000 E9.68866
G1 X58.225 Y206.170 E9.73334
G1 X54.246 Y206.266 E9.77839
G1 X50.523 Y206.288 E9.82053
G1 X46.995 Y205.893 E9.86070
G1 X43.644 Y204.721 E9.90087
G1 X40.640 Y202.831 E9.94105
G1 X38.133 Y200.317 E9.98122
G1 X37.087 Y198.833 E10.00177
G1 X36.592 Y198.036 E10.01239
G1 X35.067 Y194.831 E10.05256
G1 X34.208 Y189.691 E10.11154
G1 X34.208 Y186.120 E10.15196
G1 X34.607 Y182.593 E10.19213
G1 X35.883 Y179.041 E10.23485
G1 X36.214 Y178.380 E10.24321
G1 X38.151 Y175.405 E10.28339
G1 X40.703 Y172.938 E10.32356
G1 X43.824 Y171.073 E10.36471
G1 X44.039 Y171.407 F9000.000
G1 X184.851 Y108.280 E12.11120 F2160.000
G1 X188.191 Y107.220 E12.15086
G1 X191.684 Y106.942 E12.19052
G1 X195.150 Y107.461 E12.23018
G1 X198.409 Y108.750 E12.26984
G1 X201.352 Y110.796 E12.31041
G1 X204.452 Y113.538 E12.35725
G1 X206.797 Y116.142 E12.39691
G1 X208.491 Y119.210 E12.43657
G1 X209.448 Y122.581 E12.47623
G1 X209.618 Y126.081 E12.51589
G1 X208.993 Y129.529 E12.55555
G1 X208.019 Y131.975 E12.58534
G1 X207.311 Y133.388 E12.60323
G1 X204.981 Y136.799 E12.64998
G1 X202.816 Y139.198 E12.68656
G1 X200.712 Y141.464 E12.72155
G1 X198.682 Y143.584 E12.75477
G1 X195.811 Y146.409 E12.80036
G1 X169.926 Y168.185 E13.18320
G1 X166.925 Y170.271 E13.22456
G1 X164.019 Y172.213 E13.26412
G1 X162.576 Y173.152 E13.28360
G1 X159.750 Y174.939 E13.32144
G1 X156.960 Y176.643 E13.35844
G1 X155.578 Y177.465 E13.37664
G1 X152.839 Y179.049 E13.41245
G1 X151.515 Y179.793 E13.42964
G1 X149.151 Y181.045 E13.45991
G1 X120.232 Y193.983 E13.81847
G1 X116.698 Y195.206 E13.86079
G1 X113.234 Y196.334 E13.90203
G1 X109.796 Y197.389 E13.94272
G1 X107.535 Y198.045 E13.96937
G1 X105.292 Y198.669 E13.99572
G1 X101.938 Y199.553 E14.03497
G1 X99.703 Y200.107 E14.06104
G1 X97.546 Y200.618 E14.08612
G1 X95.323 Y201.076 E14.11181
G1 X65.107 Y205.424 E14.45731
G1 X62.149 Y205.601 E14.49084
G1 X58.212 Y205.770 E14.53545
G1 X54.242 Y205.866 E14.58039
G1 X50.522 Y205.888 E14.62249
G1 X47.040 Y205.493 E14.66215
G1 X43.737 Y204.322 E14.70181
G1 X40.785 Y202.434 E14.74147
G1 X37.427 Y198.622 E14.79897
G1 X36.931 Y197.825 E14.80959
G1 X35.431 Y194.658 E14.84925
G1 X34.608 Y189.691 E14.90623
G1 X34.608 Y186.120 E14.94665
G1 X35.007 Y182.639 E14.98631
G1 X36.240 Y179.220 E15.02744
G1 X36.572 Y178.559 E15.03581
G1 X38.488 Y175.625 E15.07547
G1 X41.018 Y173.201 E15.11513
G1 X43.988 Y171.438 E15.15421
G1 X49.098 Y169.147 F7200.000 E14.48921
G1 F900.000 E14.45421
G92 E0
G1 X91.010 Y184.123 F9000.000
G1 E0.70000 F900.000
G1 X89.502 Y184.771 E0.71857 F864.000
G1 X89.241 Y184.825 E0.72159
G1 X87.346 Y184.824 E0.74304
G1 X86.823 Y184.926 E0.74907
G1 X85.065 Y185.635 E0.77053
G1 X84.745 Y185.692 E0.77420
G1 X84.699 Y185.721 E0.77481
G1 X83.131 Y185.878 E0.79265
G1 X82.689 Y186.012 E0.79788
G1 X78.235 Y186.710 E0.84890
G1 X73.766 Y187.301 E0.89992
G1 X73.304 Y187.297 E0.90515
G1 X71.755 Y187.591 E0.92299
G1 X71.703 Y187.576 E0.92360
G1 X71.381 Y187.611 E0.92727
G1 X69.494 Y187.429 E0.94873
G1 X68.963 Y187.480 E0.95476
G1 X67.145 Y188.017 E0.97621
G1 X66.880 Y188.039 E0.97923
G1 X65.250 Y187.844 E0.99780
G1 X65.228 Y187.984 E0.99941
G1 X64.943 Y187.972 E1.00264
G1 X64.858 Y186.782 E1.01615
G1 X65.112 Y186.917 E1.01940
G1 X66.213 Y186.700 E1.03211
G1 X66.276 Y186.752 E1.03303
G1 X67.430 Y186.656 E1.04614
G1 X68.839 Y186.756 E1.06213
G1 X69.160 Y186.734 E1.06576
G1 X69.479 Y186.694 E1.06940
G1 X70.843 Y186.329 E1.08538
G1 X71.937 Y186.211 E1.09785
G1 X72.354 Y186.058 E1.10287
G1 X73.360 Y185.995 E1.11427
G1 X73.600 Y185.949 E1.11704
G1 X78.040 Y185.362 E1.16773
G1 X82.466 Y184.669 E1.21843
G1 X82.709 Y184.645 E1.22120
G1 X83.691 Y184.420 E1.23260
G1 X84.134 Y184.449 E1.23762
G1 X85.218 Y184.253 E1.25009
G1 X86.629 Y184.217 E1.26607
G1 X87.260 Y184.095 E1.27334
G1 X88.583 Y183.600 E1.28932
G1 X89.718 Y183.366 E1.30244
G1 X89.763 Y183.298 E1.30336
G1 X90.881 Y183.195 E1.31606
G1 X91.086 Y182.993 E1.31932
G1 X91.341 Y184.159 E1.33283
G1 X91.071 Y184.251 E1.33606
G1 X91.036 Y184.177 E1.33699
G1 X90.878 Y183.466 F9000.000
G1 X90.923 Y183.511 E1.33770 F1800.000
G1 X90.771 Y183.931 E1.34276
G1 X90.354 Y183.515 E1.34943
G1 X89.877 Y183.609 E1.35495
G1 X90.371 Y184.103 E1.36286
G1 X89.971 Y184.275 E1.36779
G1 X89.402 Y183.707 E1.37689
G1 X88.928 Y183.805 E1.38237
G1 X89.571 Y184.448 E1.39266
G1 X89.106 Y184.555 E1.39806
G1 X88.479 Y183.928 E1.40810
G1 X88.062 Y184.083 E1.41313
G1 X88.533 Y184.555 E1.42068
G1 X87.961 Y184.554 E1.42716
G1 X87.645 Y184.239 E1.43221
G1 X87.389 Y184.554 E1.43681
G1 X87.213 Y184.379 E1.43962
G1 X86.898 Y184.636 E1.44422
G1 X86.734 Y184.472 E1.44685
G1 X86.468 Y184.778 E1.45144
G1 X86.188 Y184.498 E1.45592
G1 X86.060 Y184.942 E1.46115
G1 X85.630 Y184.512 E1.46803
G1 X85.095 Y184.549 E1.47410
G1 X85.652 Y185.107 E1.48301
G1 X85.244 Y185.271 E1.48799
G1 X84.611 Y184.637 E1.49813
G1 X84.120 Y184.719 E1.50376
G1 X84.808 Y185.407 E1.51477
G1 X84.317 Y185.488 E1.52040
G1 X83.557 Y184.728 E1.53256
G1 X83.091 Y184.834 E1.53797
G1 X83.797 Y185.540 E1.54927
G1 X83.276 Y185.592 E1.55518
G1 X82.610 Y184.926 E1.56585
G1 X82.110 Y184.998 E1.57157
G1 X82.806 Y185.694 E1.58271
G1 X82.334 Y185.794 E1.58818
G1 X81.615 Y185.075 E1.59969
G1 X81.121 Y185.153 E1.60535
G1 X81.840 Y185.872 E1.61686
G1 X81.345 Y185.949 E1.62253
G1 X80.626 Y185.230 E1.63404
G1 X80.131 Y185.308 E1.63971
G1 X80.850 Y186.027 E1.65122
G1 X80.356 Y186.104 E1.65688
G1 X79.637 Y185.385 E1.66839
G1 X79.142 Y185.463 E1.67406
G1 X79.861 Y186.182 E1.68557
G1 X79.366 Y186.259 E1.69124
G1 X78.647 Y185.540 E1.70275
G1 X78.153 Y185.618 E1.70842
G1 X78.872 Y186.337 E1.71993
G1 X78.377 Y186.415 E1.72559
G1 X77.649 Y185.686 E1.73725
G1 X77.143 Y185.753 E1.74302
G1 X77.876 Y186.485 E1.75474
G1 X77.370 Y186.552 E1.76051
G1 X76.638 Y185.820 E1.77223
G1 X76.133 Y185.887 E1.77799
G1 X76.865 Y186.619 E1.78971
G1 X76.359 Y186.686 E1.79548
G1 X75.627 Y185.954 E1.80720
G1 X75.122 Y186.020 E1.81297
G1 X75.854 Y186.753 E1.82469
G1 X75.349 Y186.819 E1.83046
G1 X74.616 Y186.087 E1.84218
G1 X74.111 Y186.154 E1.84795
G1 X74.843 Y186.886 E1.85967
G1 X74.338 Y186.953 E1.86544
G1 X73.607 Y186.223 E1.87713
G1 X73.095 Y186.282 E1.88297
G1 X73.832 Y187.020 E1.89477
G1 X73.269 Y187.029 E1.90115
G1 X72.556 Y186.316 E1.91256
G1 X72.105 Y186.437 E1.91785
G1 X72.788 Y187.120 E1.92878
G1 X72.307 Y187.211 E1.93432
G1 X71.614 Y186.518 E1.94542
G1 X71.097 Y186.573 E1.95130
G1 X71.826 Y187.302 E1.96297
G1 X71.282 Y187.331 E1.96914
G1 X70.620 Y186.668 E1.97974
G1 X70.169 Y186.789 E1.98503
G1 X70.649 Y187.269 E1.99271
G1 X70.015 Y187.208 E1.99991
G1 X69.717 Y186.910 E2.00468
G1 X69.401 Y187.166 E2.00929
G1 X69.232 Y186.997 E2.01199
G1 X68.884 Y187.221 E2.01668
G1 X68.678 Y187.015 E2.01999
G1 X68.442 Y187.352 E2.02464
G1 X68.062 Y186.971 E2.03073
G1 X68.001 Y187.482 E2.03656
G1 X67.446 Y186.928 E2.04544
G1 X66.916 Y186.970 E2.05146
G1 X67.559 Y187.613 E2.06175
G1 X67.117 Y187.743 E2.06696
G1 X66.388 Y187.014 E2.07864
G1 X65.849 Y187.047 E2.08475
G1 X66.526 Y187.725 E2.09559
G1 X65.876 Y187.647 E2.10300
G1 X65.371 Y187.141 E2.11109
G1 X65.182 Y187.524 E2.11593
G1 X65.226 Y187.569 E2.11664
G1 X65.182 Y187.524 F7200.000 E2.10917
G1 X65.371 Y187.141 F7200.000 E2.05844
G1 X65.876 Y187.647 F7200.000 E1.97356
G1 X66.526 Y187.725 F7200.000 E1.89582
G1 X65.849 Y187.047 F7200.000 E1.78205
G1 X66.388 Y187.014 F7200.000 E1.71792
G1 X67.117 Y187.743 F7200.000 E1.59541
G1 X67.559 Y187.613 F7200.000 E1.54072
G1 X67.029 Y187.082 F7200.000 E1.45164
G1 F900.000 E1.41664
G92 E0
G1 X116.059 Y176.859 F9000.000
G1 E0.70000 F900.000
G1 X116.076 Y177.000 E0.70161 F864.000
G1 X115.798 Y177.066 E0.70484
G1 X115.390 Y175.945 E0.71835
G1 X115.672 Y176.006 E0.72160
G1 X116.671 Y175.495 E0.73431
G1 X116.746 Y175.528 E0.73523
G1 X117.830 Y175.119 E0.74835
G1 X119.212 Y174.829 E0.76433
G1 X119.810 Y174.595 E0.77160
G1 X121.022 Y173.870 E0.78758
G1 X122.042 Y173.456 E0.80004
G1 X122.401 Y173.194 E0.80507
G1 X123.351 Y172.858 E0.81647
G1 X123.569 Y172.749 E0.81924
G1 X127.679 Y170.967 E0.86993
G1 X131.745 Y169.087 E0.92063
G1 X131.972 Y168.998 E0.92339
G1 X132.855 Y168.513 E0.93480
G1 X133.289 Y168.419 E0.93982
G1 X134.278 Y167.933 E0.95228
G1 X135.625 Y167.512 E0.96827
G1 X135.916 Y167.375 E0.97190
G1 X136.198 Y167.222 E0.97554
G1 X137.335 Y166.384 E0.99152
G1 X138.362 Y165.847 E1.00464
G1 X138.387 Y165.770 E1.00556
G1 X139.434 Y165.364 E1.01826
G1 X139.576 Y165.114 E1.02152
G1 X140.141 Y166.165 E1.03503
G1 X139.906 Y166.328 E1.03826
G1 X139.812 Y166.221 E1.03987
G1 X138.540 Y167.258 E1.05844
G1 X138.304 Y167.381 E1.06146
G1 X136.481 Y167.900 E1.08291
G1 X136.005 Y168.141 E1.08894
G1 X134.509 Y169.304 E1.11040
G1 X134.218 Y169.447 E1.11407
G1 X134.181 Y169.487 E1.11468
G1 X132.716 Y170.068 E1.13252
G1 X132.328 Y170.318 E1.13774
G1 X128.236 Y172.210 E1.18877
G1 X124.099 Y174.003 E1.23979
G1 X123.654 Y174.126 E1.24501
G1 X122.245 Y174.833 E1.26286
G1 X122.191 Y174.833 E1.26347
G1 X121.890 Y174.955 E1.26714
G1 X120.026 Y175.297 E1.28859
G1 X119.530 Y175.491 E1.29463
G1 X117.928 Y176.506 E1.31608
G1 X117.679 Y176.600 E1.31910
G1 X116.118 Y176.849 E1.33699
G1 X115.949 Y176.603 F9000.000
G1 X115.898 Y176.552 E1.33780 F1800.000
G1 X116.036 Y176.123 E1.34290
G1 X116.437 Y176.525 E1.34934
G1 X116.926 Y176.447 E1.35493
G1 X116.410 Y175.931 E1.36318
G1 X116.830 Y175.785 E1.36821
G1 X117.414 Y176.369 E1.37756
G1 X117.848 Y176.237 E1.38270
G1 X117.241 Y175.630 E1.39241
G1 X117.652 Y175.474 E1.39739
G1 X118.195 Y176.017 E1.40607
G1 X118.542 Y175.797 E1.41072
G1 X118.085 Y175.341 E1.41802
G1 X118.553 Y175.243 E1.42343
G1 X118.888 Y175.578 E1.42879
G1 X119.021 Y175.144 E1.43392
G1 X119.235 Y175.358 E1.43734
G1 X119.463 Y175.020 E1.44196
G1 X119.612 Y175.169 E1.44434
G1 X119.870 Y174.861 E1.44889
G1 X120.031 Y175.021 E1.45145
G1 X120.509 Y174.934 E1.45696
G1 X120.232 Y174.657 E1.46140
G1 X120.587 Y174.445 E1.46607
G1 X120.988 Y174.846 E1.47249
G1 X121.467 Y174.758 E1.47800
G1 X120.941 Y174.233 E1.48642
G1 X121.316 Y174.042 E1.49118
G1 X121.925 Y174.650 E1.50092
G1 X122.329 Y174.488 E1.50585
G1 X121.719 Y173.878 E1.51562
G1 X122.122 Y173.715 E1.52054
G1 X122.706 Y174.299 E1.52989
G1 X123.084 Y174.110 E1.53466
G1 X122.459 Y173.486 E1.54465
G1 X122.859 Y173.319 E1.54955
G1 X123.461 Y173.921 E1.55919
G1 X123.888 Y173.781 E1.56427
G1 X123.277 Y173.171 E1.57404
G1 X123.672 Y172.999 E1.57891
G1 X124.296 Y173.624 E1.58890
G1 X124.691 Y173.452 E1.59378
G1 X124.066 Y172.827 E1.60378
G1 X124.461 Y172.656 E1.60865
G1 X125.086 Y173.281 E1.61865
G1 X125.481 Y173.110 E1.62353
G1 X124.856 Y172.485 E1.63353
G1 X125.251 Y172.314 E1.63840
G1 X125.876 Y172.939 E1.64840
G1 X126.271 Y172.767 E1.65327
G1 X125.646 Y172.143 E1.66328
G1 X126.041 Y171.971 E1.66815
G1 X126.666 Y172.596 E1.67815
G1 X127.061 Y172.425 E1.68302
G1 X126.436 Y171.800 E1.69302
G1 X126.831 Y171.629 E1.69790
G1 X127.456 Y172.254 E1.70790
G1 X127.851 Y172.082 E1.71277
G1 X127.226 Y171.458 E1.72277
G1 X127.622 Y171.286 E1.72764
G1 X128.244 Y171.909 E1.73761
G1 X128.631 Y171.730 E1.74244
G1 X128.012 Y171.111 E1.75235
G1 X128.399 Y170.932 E1.75717
G1 X129.018 Y171.551 E1.76708
G1 X129.406 Y171.372 E1.77191
G1 X128.787 Y170.752 E1.78182
G1 X129.174 Y170.573 E1.78665
G1 X129.793 Y171.193 E1.79656
G1 X130.180 Y171.014 E1.80139
G1 X129.561 Y170.394 E1.81130
G1 X129.948 Y170.215 E1.81613
G1 X130.567 Y170.835 E1.82604
G1 X130.955 Y170.655 E1.83087
G1 X130.336 Y170.036 E1.84078
G1 X130.723 Y169.857 E1.84560
G1 X131.342 Y170.476 E1.85551
G1 X131.729 Y170.297 E1.86034
G1 X131.110 Y169.678 E1.87025
G1 X131.497 Y169.499 E1.87508
G1 X132.116 Y170.118 E1.88499
G1 X132.470 Y169.905 E1.88966
G1 X131.886 Y169.322 E1.89900
G1 X132.272 Y169.141 E1.90382
G1 X132.854 Y169.723 E1.91313
G1 X133.259 Y169.562 E1.91807
G1 X132.637 Y168.940 E1.92802
G1 X133.017 Y168.754 E1.93281
G1 X133.665 Y169.402 E1.94318
G1 X134.056 Y169.226 E1.94803
G1 X133.464 Y168.634 E1.95750
G1 X133.844 Y168.448 E1.96229
G1 X134.424 Y169.028 E1.97158
G1 X134.743 Y168.781 E1.97615
G1 X134.223 Y168.261 E1.98446
G1 X134.633 Y168.105 E1.98943
G1 X135.061 Y168.533 E1.99628
G1 X135.380 Y168.285 E2.00084
G1 X135.065 Y167.970 E2.00589
G1 X135.496 Y167.835 E2.01100
G1 X135.698 Y168.037 E2.01424
G1 X135.906 Y167.678 E2.01893
G1 X136.045 Y167.818 E2.02116
G1 X136.279 Y167.485 E2.02576
G1 X136.428 Y167.634 E2.02815
G1 X136.868 Y167.509 E2.03333
G1 X136.612 Y167.252 E2.03744
G1 X136.938 Y167.012 E2.04202
G1 X137.309 Y167.383 E2.04797
